( Made using CamBam - http://www.cambam.co.uk )
( 808_hihat 1/29/2015 12:12:07 AM )
( T3 : 3.175 )
( T10 : 0.0 )
G21 G90 G61 G40
G0 Z3.0
( T10 : 0.0 )
T10 M6
( Engrave1 )
G17
M3 S1000
G0 X47.34 Y45.4677
G0 Z0.648
G1 F1000.0 Z-0.002
G2 F2000.0 X46.4884 Y45.6278 I0.0035 J2.3624
G2 X45.7463 Y46.1005 I0.8078 J2.0875
G2 X45.215 Y46.8661 I1.6675 J1.7242
G2 X45.0119 Y47.9169 I2.3707 J1.0033
G2 X45.1798 Y48.7958 I2.4589 J-0.0144
G2 X45.672 Y49.5848 I2.2406 J-0.8496
G2 X46.4806 Y50.1473 I1.8044 J-1.7315
G2 X47.5861 Y50.3661 I1.0558 J-2.4329
G1 X47.7853
G1 X47.5861
G3 X47.0216 Y50.3161 I-0.014 J-3.0544
G3 X46.4806 Y50.1473 I0.424 J-2.3105
G3 X45.672 Y49.5848 I0.9958 J-2.294
G3 X45.1798 Y48.7958 I1.7485 J-1.6387
G3 X45.0119 Y47.9169 I2.2909 J-0.8933
G3 X45.215 Y46.8661 I2.5737 J-0.0475
G3 X45.7463 Y46.1005 I2.1988 J0.9586
G3 X46.4884 Y45.6278 I1.55 J1.6148
G3 X47.34 Y45.4677 I0.855 J2.202
G1 X47.7853
G1 X47.34
G0 Z3.0
G0 X49.2267
G0 Z0.648
G1 F1000.0 Z-0.002
G1 F2000.0 Y50.3661
G1 Y45.4677
G0 Z3.0
G0 X59.752 Y57.25
G0 Z0.648
G1 F1000.0 Z-0.002
G1 F2000.0 X-2.25
G0 Z3.0
G0 X5.25 Y48.5
G0 Z0.648
G1 F1000.0 Z-0.002
G1 F2000.0 X8.75
G1 Y52.0
G1 X12.2589
G0 Z3.0
G0 X18.0559 Y48.3447
G0 Z0.648
G1 F1000.0 Z-0.002
G2 F2000.0 X17.6077 Y48.2304 I-0.4235 J0.7252
G2 X17.1155 Y48.3242 I-0.0129 J1.2712
G2 X16.7288 Y48.5849 I0.4506 J1.0854
G2 X16.4768 Y48.9834 I0.8996 J0.8477
G2 X16.3889 Y49.4931 I1.3398 J0.4935
G2 X16.4768 Y49.9941 I1.3723 J0.0174
G2 X16.7288 Y50.3867 I1.0906 J-0.4228
G2 X17.1155 Y50.6474 I0.8373 J-0.8247
G2 X17.6077 Y50.7412 I0.4793 J-1.1774
G2 X18.0882 Y50.6591 I0.0166 J-1.3509
G2 X18.4661 Y50.4336 I-0.3945 J-1.0902
G2 X18.7122 Y50.0849 I-0.6283 J-0.7047
G2 X18.8001 Y49.6367 I-1.0263 J-0.434
G1 Y48.3037
G1 Y49.6367
G3 X18.7122 Y50.0849 I-1.1142 J0.0143
G3 X18.4661 Y50.4336 I-0.8745 J-0.3561
G3 X18.0882 Y50.6591 I-0.7724 J-0.8646
G3 X17.6077 Y50.7412 I-0.4639 J-1.2689
G3 X17.1155 Y50.6474 I-0.0129 J-1.2712
G3 X16.7288 Y50.3867 I0.4506 J-1.0854
G3 X16.4768 Y49.9941 I0.8386 J-0.8154
G3 X16.3889 Y49.4931 I1.2845 J-0.4835
G3 X16.4768 Y48.9834 I1.4276 J-0.0163
G3 X16.7288 Y48.5849 I1.1515 J0.4493
G3 X17.1155 Y48.3242 I0.8373 J0.8247
G3 X17.6077 Y48.2304 I0.4793 J1.1774
G3 X18.0559 Y48.3447 I0.0247 J0.8395
G0 Z3.0
G0 X21.0589 Y48.3037
G0 Z0.648
G1 F1000.0 Z-0.002
G2 F2000.0 X20.5843 Y48.3857 I-0.0089 J1.3626
G2 X20.1946 Y48.623 I0.4254 J1.1371
G2 X19.9339 Y48.9951 I0.7609 J0.8106
G2 X19.8401 Y49.4785 I1.127 J0.4694
G2 X19.9368 Y49.9619 I1.1885 J0.0137
G2 X20.1975 Y50.3369 I1.1027 J-0.4885
G2 X20.5638 Y50.58 I0.8701 J-0.9131
G2 X20.9856 Y50.6679 I0.4228 J-0.9732
G1 X21.2493
G1 X20.9856
G3 X20.5638 Y50.58 I0.001 J-1.0611
G3 X20.1975 Y50.3369 I0.5038 J-1.1561
G3 X19.9368 Y49.9619 I0.8419 J-0.8636
G3 X19.8401 Y49.4785 I1.0918 J-0.4697
G3 X19.9339 Y48.9951 I1.2207 J-0.014
G3 X20.1946 Y48.623 I1.0217 J0.4386
G3 X20.5843 Y48.3857 I0.8151 J0.8998
G3 X21.0589 Y48.3037 I0.4657 J1.2805
G1 X21.2493
G1 X21.0589
G0 Z3.0
G0 X23.3938
G0 Z0.648
G1 F1000.0 Z-0.002
G2 F2000.0 X22.9192 Y48.3857 I-0.0089 J1.3626
G2 X22.5296 Y48.623 I0.4254 J1.1371
G2 X22.2688 Y48.9951 I0.7609 J0.8106
G2 X22.1751 Y49.4785 I1.127 J0.4694
G2 X22.2718 Y49.9619 I1.1885 J0.0137
G2 X22.5325 Y50.3369 I1.1027 J-0.4885
G2 X22.8987 Y50.58 I0.8701 J-0.9131
G2 X23.3206 Y50.6679 I0.4228 J-0.9732
G1 X23.5843
G1 X23.3206
G3 X22.8987 Y50.58 I0.001 J-1.0611
G3 X22.5325 Y50.3369 I0.5038 J-1.1561
G3 X22.2718 Y49.9619 I0.8419 J-0.8636
G3 X22.1751 Y49.4785 I1.0918 J-0.4697
G3 X22.2688 Y48.9951 I1.2207 J-0.014
G3 X22.5296 Y48.623 I1.0217 J0.4386
G3 X22.9192 Y48.3857 I0.8151 J0.8998
G3 X23.3938 Y48.3037 I0.4657 J1.2805
G1 X23.5843
G1 X23.3938
G0 Z3.0
G0 X24.7209 Y48.3495
G0 Z0.648
G1 F1000.0 Z-0.002
G2 F2000.0 X24.721 Y48.3564 I0.082 J0.0028
G2 X24.7473 Y48.4209 I0.082 J0.0041
G2 X24.8089 Y48.4472 I0.0613 J-0.058
G2 X24.8704 Y48.4209 I0.0003 J-0.0844
G2 X24.8997 Y48.3564 I-0.0488 J-0.061
G2 X24.8704 Y48.292 I-0.0781 J-0.0034
G2 X24.8089 Y48.2685 I-0.0605 J0.0663
G2 X24.7473 Y48.292 I-0.0011 J0.0897
G2 X24.7209 Y48.3495 I0.0556 J0.0604
G2 X24.721 Y48.3564 I0.082 J0.0028
G2 X24.7473 Y48.4209 I0.082 J0.0041
G2 X24.8089 Y48.4472 I0.0613 J-0.058
G2 X24.8704 Y48.4209 I0.0003 J-0.0844
G2 X24.8997 Y48.3564 I-0.0488 J-0.061
G2 X24.8704 Y48.292 I-0.0781 J-0.0034
G2 X24.8089 Y48.2685 I-0.0605 J0.0663
G2 X24.7473 Y48.292 I-0.0011 J0.0897
G2 X24.7209 Y48.3495 I0.0556 J0.0604
G3 X24.7473 Y48.292 I0.0821 J0.0028
G3 X24.8089 Y48.2685 I0.0605 J0.0663
G3 X24.8704 Y48.292 I0.0011 J0.0897
G3 X24.8997 Y48.3564 I-0.0488 J0.061
G3 X24.8704 Y48.4209 I-0.0781 J0.0034
G3 X24.8089 Y48.4472 I-0.0613 J-0.058
G3 X24.7473 Y48.4209 I-0.0003 J-0.0844
G3 X24.721 Y48.3564 I0.0556 J-0.0604
G3 X24.7209 Y48.3495 I0.082 J-0.0041
G3 X24.7473 Y48.292 I0.0821 J0.0028
G3 X24.8089 Y48.2685 I0.0605 J0.0663
G3 X24.8704 Y48.292 I0.0011 J0.0897
G3 X24.8997 Y48.3564 I-0.0488 J0.061
G3 X24.8704 Y48.4209 I-0.0781 J0.0034
G3 X24.8089 Y48.4472 I-0.0613 J-0.058
G3 X24.7473 Y48.4209 I-0.0003 J-0.0844
G3 X24.721 Y48.3564 I0.0556 J-0.0604
G3 X24.7209 Y48.3495 I0.082 J-0.0041
G0 Z3.0
G0 X43.255 Y27.4146
G0 Z0.648
G1 F1000.0 Z-0.002
G1 F2000.0 Y23.7407
G1 Y27.4146
G0 Z3.0
G0 X46.7707 Y24.5347
G0 Z0.648
G1 F1000.0 Z-0.002
G2 F2000.0 X46.6077 Y24.1749 I-1.3026 J0.3732
G2 X46.3341 Y23.8902 I-0.8822 J0.5737
G2 X45.5959 Y23.6734 I-0.7048 J1.0345
G2 X45.1066 Y23.7613 I-0.0123 J1.3374
G2 X44.7199 Y24.0161 I0.411 J1.0444
G2 X44.465 Y24.4116 I0.8976 J0.8583
G2 X44.3713 Y24.9214 I1.2539 J0.4941
G2 X44.465 Y25.4253 I1.3175 J0.0156
G2 X44.7199 Y25.8208 I1.1172 J-0.4401
G2 X45.1066 Y26.0786 I0.791 J-0.7675
G2 X45.5959 Y26.1695 I0.4773 J-1.2081
G2 X46.2345 Y26.0054 I0.018 J-1.255
G2 X46.4665 Y25.8247 I-0.46 J-0.8296
G2 X46.6213 Y25.5747 I-0.5652 J-0.5229
G1 X45.1681 Y24.7691
G1 X46.6213 Y25.5747
G3 X46.2345 Y26.0054 I-0.7753 J-0.3072
G3 X45.5959 Y26.1695 I-0.6206 J-1.0908
G3 X45.1066 Y26.0786 I-0.0119 J-1.299
G3 X44.7199 Y25.8208 I0.4042 J-1.0253
G3 X44.465 Y25.4253 I0.8622 J-0.8355
G3 X44.3713 Y24.9214 I1.2236 J-0.4883
G3 X44.465 Y24.4116 I1.3478 J-0.0156
G3 X44.7199 Y24.0161 I1.1526 J0.4629
G3 X45.1066 Y23.7613 I0.7977 J0.7896
G3 X45.5959 Y23.6734 I0.477 J1.2493
G3 X45.9821 Y23.7236 I0.0109 J1.4248
G3 X46.3341 Y23.8902 I-0.3057 J1.1016
G3 X46.6077 Y24.1749 I-0.6086 J0.8586
G3 X46.7707 Y24.5347 I-1.1393 J0.7328
G0 Z3.0
G0 X48.3937 Y23.9048
G0 Z0.648
G1 F1000.0 Z-0.002
G3 F2000.0 X48.4904 Y23.7202 I0.5464 J0.1686
G3 X48.59 Y23.6704 I0.1146 J0.1048
G3 X48.6955 Y23.7173 I-0.0128 J0.171
G3 X48.7584 Y23.8053 I-0.2198 J0.2237
G3 X48.8009 Y23.9048 I-0.7571 J0.3824
G1 X49.6154 Y26.0962
G1 X48.8009 Y23.9048
G2 X48.7584 Y23.8053 I-0.8001 J0.2831
G2 X48.6955 Y23.7173 I-0.2828 J0.1357
G2 X48.59 Y23.6704 I-0.1183 J0.1241
G2 X48.4904 Y23.7202 I0.015 J0.1546
G2 X48.3937 Y23.9048 I0.4496 J0.3531
G1 X47.5705 Y26.0962
G1 X48.3937 Y23.9048
G0 Z3.0
G0 X50.4284 Y24.5173
G0 Z0.648
G1 F1000.0 Z-0.002
G2 F2000.0 X50.3713 Y24.9214 I1.2905 J0.3885
G2 X50.465 Y25.4253 I1.3175 J0.0156
G2 X50.7199 Y25.8208 I1.1172 J-0.4401
G2 X51.1066 Y26.0786 I0.791 J-0.7675
G2 X51.5959 Y26.1695 I0.4773 J-1.2081
G2 X52.2345 Y26.0054 I0.018 J-1.255
G2 X52.4665 Y25.8247 I-0.46 J-0.8296
G2 X52.6213 Y25.5747 I-0.5652 J-0.5229
G1 X51.1681 Y24.7691
G1 X52.6213 Y25.5747
G3 X52.2345 Y26.0054 I-0.7753 J-0.3072
G3 X51.5959 Y26.1695 I-0.6206 J-1.0908
G3 X51.1066 Y26.0786 I-0.0119 J-1.299
G3 X50.7199 Y25.8208 I0.4042 J-1.0253
G3 X50.465 Y25.4253 I0.8622 J-0.8355
G3 X50.3713 Y24.9214 I1.2236 J-0.4883
G3 X50.465 Y24.4116 I1.3478 J-0.0156
G3 X50.7199 Y24.0161 I1.1526 J0.4629
G3 X51.1066 Y23.7613 I0.7977 J0.7896
G3 X51.5959 Y23.6734 I0.477 J1.2493
G3 X51.9821 Y23.7236 I0.0109 J1.4248
G3 X52.3341 Y23.8902 I-0.3057 J1.1016
G3 X52.6077 Y24.1749 I-0.6086 J0.8586
G3 X52.7707 Y24.5347 I-1.1393 J0.7328
G2 X52.6077 Y24.1749 I-1.3026 J0.3732
G2 X52.3341 Y23.8902 I-0.8822 J0.5737
G2 X51.5959 Y23.6734 I-0.7048 J1.0345
G2 X51.1066 Y23.7613 I-0.0123 J1.3374
G2 X50.7199 Y24.0161 I0.411 J1.0444
G2 X50.465 Y24.4116 I0.8976 J0.8583
G2 X50.4284 Y24.5173 I1.2539 J0.4941
G0 Z3.0
G0 X53.925 Y27.4146
G0 Z0.648
G1 F1000.0 Z-0.002
G1 F2000.0 Y23.7407
G1 Y27.4146
G0 Z3.0
G0 X51.6889 Y74.4243
G0 Z0.648
G1 F1000.0 Z-0.002
G2 F2000.0 X51.5959 Y74.4234 I-0.0595 J1.2504
G2 X51.1066 Y74.5113 I-0.0123 J1.3374
G2 X50.7199 Y74.7661 I0.411 J1.0444
G2 X50.465 Y75.1616 I0.8976 J0.8583
G2 X50.3713 Y75.6714 I1.2539 J0.4941
G2 X50.465 Y76.1753 I1.3175 J0.0156
G2 X50.7199 Y76.5708 I1.1172 J-0.4401
G2 X51.1066 Y76.8286 I0.791 J-0.7675
G2 X51.5959 Y76.9195 I0.4773 J-1.2081
G2 X52.2345 Y76.7554 I0.018 J-1.255
G2 X52.4665 Y76.5747 I-0.46 J-0.8296
G2 X52.6213 Y76.3247 I-0.5652 J-0.5229
G1 X51.1681 Y75.5191
G1 X52.6213 Y76.3247
G3 X52.2345 Y76.7554 I-0.7753 J-0.3072
G3 X51.5959 Y76.9195 I-0.6206 J-1.0908
G3 X51.1066 Y76.8286 I-0.0119 J-1.299
G3 X50.7199 Y76.5708 I0.4042 J-1.0253
G3 X50.465 Y76.1753 I0.8622 J-0.8355
G3 X50.3713 Y75.6714 I1.2236 J-0.4883
G3 X50.465 Y75.1616 I1.3478 J-0.0156
G3 X50.7199 Y74.7661 I1.1526 J0.4629
G3 X51.1066 Y74.5113 I0.7977 J0.7896
G3 X51.5959 Y74.4234 I0.477 J1.2493
G3 X51.9821 Y74.4736 I0.0109 J1.4248
G3 X52.3341 Y74.6402 I-0.3057 J1.1016
G3 X52.6077 Y74.9249 I-0.6086 J0.8586
G3 X52.7707 Y75.2847 I-1.1393 J0.7328
G2 X52.6077 Y74.9249 I-1.3026 J0.3732
G2 X52.3341 Y74.6402 I-0.8822 J0.5737
G2 X51.6889 Y74.4243 I-0.7048 J1.0345
G0 Z3.0
G0 X53.925 Y74.4907
G0 Z0.648
G1 F1000.0 Z-0.002
G1 F2000.0 Y78.1646
G1 Y74.4907
G0 Z3.0
G0 X48.3937 Y74.6548
G0 Z0.648
G1 F1000.0 Z-0.002
G3 F2000.0 X48.4904 Y74.4702 I0.5464 J0.1686
G3 X48.59 Y74.4204 I0.1146 J0.1048
G3 X48.6955 Y74.4673 I-0.0128 J0.171
G3 X48.7584 Y74.5553 I-0.2198 J0.2237
G3 X48.8009 Y74.6548 I-0.7571 J0.3824
G1 X49.6154 Y76.8462
G1 X48.8009 Y74.6548
G2 X48.7584 Y74.5553 I-0.8001 J0.2831
G2 X48.6955 Y74.4673 I-0.2828 J0.1357
G2 X48.59 Y74.4204 I-0.1183 J0.1241
G2 X48.4904 Y74.4702 I0.015 J0.1546
G2 X48.3937 Y74.6548 I0.4496 J0.3531
G1 X47.5705 Y76.8462
G1 X48.3937 Y74.6548
G0 Z3.0
G0 X46.7498 Y75.2184
G0 Z0.648
G1 F1000.0 Z-0.002
G3 F2000.0 X46.7707 Y75.2847 I-1.2814 J0.4393
G2 X46.6077 Y74.9249 I-1.3026 J0.3732
G2 X46.3341 Y74.6402 I-0.8822 J0.5737
G2 X45.5959 Y74.4234 I-0.7048 J1.0345
G2 X45.1066 Y74.5113 I-0.0123 J1.3374
G2 X44.7199 Y74.7661 I0.411 J1.0444
G2 X44.465 Y75.1616 I0.8976 J0.8583
G2 X44.3713 Y75.6714 I1.2539 J0.4941
G2 X44.465 Y76.1753 I1.3175 J0.0156
G2 X44.7199 Y76.5708 I1.1172 J-0.4401
G2 X45.1066 Y76.8286 I0.791 J-0.7675
G2 X45.5959 Y76.9195 I0.4773 J-1.2081
G2 X46.2345 Y76.7554 I0.018 J-1.255
G2 X46.4665 Y76.5747 I-0.46 J-0.8296
G2 X46.6213 Y76.3247 I-0.5652 J-0.5229
G1 X45.1681 Y75.5191
G1 X46.6213 Y76.3247
G3 X46.2345 Y76.7554 I-0.7753 J-0.3072
G3 X45.5959 Y76.9195 I-0.6206 J-1.0908
G3 X45.1066 Y76.8286 I-0.0119 J-1.299
G3 X44.7199 Y76.5708 I0.4042 J-1.0253
G3 X44.465 Y76.1753 I0.8622 J-0.8355
G3 X44.3713 Y75.6714 I1.2236 J-0.4883
G3 X44.465 Y75.1616 I1.3478 J-0.0156
G3 X44.7199 Y74.7661 I1.1526 J0.4629
G3 X45.1066 Y74.5113 I0.7977 J0.7896
G3 X45.5959 Y74.4234 I0.477 J1.2493
G3 X45.9821 Y74.4736 I0.0109 J1.4248
G3 X46.3341 Y74.6402 I-0.3057 J1.1016
G3 X46.6077 Y74.9249 I-0.6086 J0.8586
G3 X46.7498 Y75.2184 I-1.1393 J0.7328
G0 Z3.0
G0 X43.255 Y78.1646
G0 Z0.648
G1 F1000.0 Z-0.002
G1 F2000.0 Y74.4907
G1 Y78.1646
G0 Z3.0
G0 X43.1701 Y87.8003
G0 Z0.648
G1 F1000.0 Z-0.002
G2 F2000.0 X43.0822 Y87.2144 I-1.804 J-0.029
G2 X42.839 Y86.7808 I-1.1772 J0.3752
G2 X42.464 Y86.5113 I-0.777 J0.6854
G2 X41.9836 Y86.4204 I-0.4649 J1.143
G2 X41.5031 Y86.5025 I-0.0116 J1.3803
G2 X41.1134 Y86.7515 I0.3945 J1.0467
G2 X40.8527 Y87.1558 I0.8868 J0.8582
G2 X40.7589 Y87.7095 I1.4295 J0.5268
G2 X40.8498 Y88.2075 I1.3108 J0.0183
G2 X41.1017 Y88.5884 I1.0906 J-0.4477
G2 X41.4738 Y88.8316 I0.7902 J-0.8029
G2 X41.9279 Y88.9165 I0.4471 J-1.1338
G2 X42.4318 Y88.8257 I0.0159 J-1.355
G3 X41.9279 Y88.9165 I-0.488 J-1.2642
G3 X41.4738 Y88.8316 I-0.0069 J-1.2189
G3 X41.1017 Y88.5884 I0.4181 J-1.046
G3 X40.8498 Y88.2075 I0.8388 J-0.8286
G3 X40.7589 Y87.7095 I1.22 J-0.4798
G3 X40.8527 Y87.1558 I1.5234 J-0.0269
G3 X41.1134 Y86.7515 I1.1475 J0.4538
G3 X41.5031 Y86.5025 I0.7842 J0.7977
G3 X41.9836 Y86.4204 I0.4689 J1.2983
G3 X42.464 Y86.5113 I0.0156 J1.2338
G3 X42.839 Y86.7808 I-0.402 J0.955
G3 X43.0822 Y87.2144 I-0.934 J0.8088
G3 X43.1701 Y87.8003 I-1.7162 J0.557
G1 Y90.1646
G1 Y87.8003
G0 Z3.0
G0 X44.1267 Y87.7526
G0 Z0.648
G1 F1000.0 Z-0.002
G3 F2000.0 X44.1252 Y87.6714 I1.3158 J-0.0656
G3 X44.2189 Y87.1616 I1.3478 J-0.0156
G3 X44.4738 Y86.7661 I1.1526 J0.4629
G3 X44.8605 Y86.5113 I0.7977 J0.7896
G3 X45.3498 Y86.4234 I0.477 J1.2493
G3 X45.736 Y86.4736 I0.0109 J1.4248
G3 X46.088 Y86.6402 I-0.3057 J1.1016
G3 X46.3616 Y86.9249 I-0.6086 J0.8586
G3 X46.5246 Y87.2847 I-1.1393 J0.7328
G2 X46.3616 Y86.9249 I-1.3026 J0.3732
G2 X46.088 Y86.6402 I-0.8822 J0.5737
G2 X45.3498 Y86.4234 I-0.7048 J1.0345
G2 X44.8605 Y86.5113 I-0.0123 J1.3374
G2 X44.4738 Y86.7661 I0.411 J1.0444
G2 X44.2189 Y87.1616 I0.8976 J0.8583
G2 X44.1252 Y87.6714 I1.2539 J0.4941
G2 X44.2189 Y88.1753 I1.3175 J0.0156
G2 X44.4738 Y88.5708 I1.1172 J-0.4401
G2 X44.8605 Y88.8286 I0.791 J-0.7675
G2 X45.3498 Y88.9195 I0.4773 J-1.2081
G2 X45.9884 Y88.7554 I0.018 J-1.255
G2 X46.2204 Y88.5747 I-0.46 J-0.8296
G2 X46.3752 Y88.3247 I-0.5652 J-0.5229
G1 X44.922 Y87.5191
G1 X46.3752 Y88.3247
G3 X45.9884 Y88.7554 I-0.7753 J-0.3072
G3 X45.3498 Y88.9195 I-0.6206 J-1.0908
G3 X44.8605 Y88.8286 I-0.0119 J-1.299
G3 X44.4738 Y88.5708 I0.4042 J-1.0253
G3 X44.2189 Y88.1753 I0.8622 J-0.8355
G3 X44.1267 Y87.7526 I1.2236 J-0.4883
G0 Z3.0
G0 X48.7658 Y86.4937
G0 Z0.648
G1 F1000.0 Z-0.002
G2 F2000.0 X48.2912 Y86.5757 I-0.0089 J1.3626
G2 X47.9015 Y86.813 I0.4254 J1.1371
G2 X47.6408 Y87.1851 I0.7609 J0.8106
G2 X47.547 Y87.6685 I1.127 J0.4694
G2 X47.6437 Y88.1519 I1.1885 J0.0137
G2 X47.9045 Y88.5269 I1.1027 J-0.4885
G2 X48.2707 Y88.77 I0.8701 J-0.9131
G2 X48.6925 Y88.8579 I0.4228 J-0.9732
G1 X48.9562
G1 X48.6925
G3 X48.2707 Y88.77 I0.001 J-1.0611
G3 X47.9045 Y88.5269 I0.5038 J-1.1561
G3 X47.6437 Y88.1519 I0.8419 J-0.8636
G3 X47.547 Y87.6685 I1.0918 J-0.4697
G3 X47.6408 Y87.1851 I1.2207 J-0.014
G3 X47.9015 Y86.813 I1.0217 J0.4386
G3 X48.2912 Y86.5757 I0.8151 J0.8998
G3 X48.7658 Y86.4937 I0.4657 J1.2805
G1 X48.9562
G1 X48.7658
G0 Z3.0
G0 X51.4347 Y86.5347
G0 Z0.648
G1 F1000.0 Z-0.002
G2 F2000.0 X50.9865 Y86.4204 I-0.4235 J0.7252
G2 X50.4943 Y86.5142 I-0.0129 J1.2712
G2 X50.1076 Y86.7749 I0.4506 J1.0854
G2 X49.8556 Y87.1734 I0.8996 J0.8477
G2 X49.7677 Y87.6831 I1.3398 J0.4935
G2 X49.8556 Y88.1841 I1.3723 J0.0174
G2 X50.1076 Y88.5767 I1.0906 J-0.4228
G2 X50.4943 Y88.8374 I0.8373 J-0.8247
G2 X50.9865 Y88.9312 I0.4793 J-1.1774
G2 X51.467 Y88.8491 I0.0166 J-1.3509
G2 X51.8449 Y88.6236 I-0.3945 J-1.0902
G2 X52.091 Y88.2749 I-0.6283 J-0.7047
G2 X52.1789 Y87.8267 I-1.0263 J-0.434
G1 Y86.4937
G1 Y87.8267
G3 X52.091 Y88.2749 I-1.1142 J0.0143
G3 X51.8449 Y88.6236 I-0.8745 J-0.3561
G3 X51.467 Y88.8491 I-0.7724 J-0.8646
G3 X50.9865 Y88.9312 I-0.4639 J-1.2689
G3 X50.4943 Y88.8374 I-0.0129 J-1.2712
G3 X50.1076 Y88.5767 I0.4506 J-1.0854
G3 X49.8556 Y88.1841 I0.8386 J-0.8154
G3 X49.7677 Y87.6831 I1.2845 J-0.4835
G3 X49.8556 Y87.1734 I1.4276 J-0.0163
G3 X50.1076 Y86.7749 I1.1515 J0.4493
G3 X50.4943 Y86.5142 I0.8373 J0.8247
G3 X50.9865 Y86.4204 I0.4793 J1.1774
G3 X51.4347 Y86.5347 I0.0247 J0.8395
G0 Z3.0
G0 X53.2511 Y87.3814
G0 Z0.648
G1 F1000.0 Z-0.002
G3 F2000.0 X53.3097 Y87.0034 I1.1726 J-0.0117
G3 X53.4855 Y86.6988 I0.8324 J0.2772
G3 X53.7755 Y86.4937 I0.6242 J0.5752
G3 X54.1857 Y86.4204 I0.389 J0.9932
G3 X54.5929 Y86.4937 I0.0222 J1.0451
G3 X54.8859 Y86.6988 I-0.3257 J0.7771
G3 X55.0617 Y87.0034 I-0.6565 J0.5818
G3 X55.1232 Y87.3814 I-1.06 J0.3665
G1 Y88.8286
G1 Y87.3814
G2 X55.0617 Y87.0034 I-1.1214 J-0.0114
G2 X54.8859 Y86.6988 I-0.8324 J0.2772
G2 X54.5929 Y86.4937 I-0.6187 J0.5721
G2 X54.1857 Y86.4204 I-0.385 J0.9719
G2 X53.7755 Y86.4937 I-0.0212 J1.0664
G2 X53.4855 Y86.6988 I0.3342 J0.7802
G2 X53.3097 Y87.0034 I0.6565 J0.5818
G2 X53.2511 Y87.3814 I1.114 J0.3662
G1 Y88.8286
G1 Y87.3814
G0 Z3.0
G0 X54.1857 Y86.4204
G0 Z0.248
G1 F1000.0 Z-0.002
G1 F2000.0 Y85.2017
G1 Y86.4204
G0 Z3.0
G0 X50.6145 Y105.1338
G0 Z0.648
G1 F1000.0 Z-0.002
G1 F2000.0 Y108.2822
G2 X50.7278 Y109.0673 I2.5178 J0.0375
G2 X51.052 Y109.6416 I1.5636 J-0.5042
G2 X51.552 Y110.0009 I1.036 J-0.9139
G2 X52.1966 Y110.1259 I0.6258 J-1.5026
G2 X52.8372 Y110.0127 I0.015 J-1.7833
G2 X53.3528 Y109.6806 I-0.5108 J-1.3595
G2 X53.7005 Y109.1416 I-1.1378 J-1.1155
G2 X53.8294 Y108.4111 I-1.8221 J-0.6982
G2 X53.7044 Y107.7431 I-1.7277 J-0.0224
G2 X53.3684 Y107.2353 I-1.4087 J0.5669
G2 X52.8723 Y106.9111 I-1.0698 J1.0953
G2 X52.2786 Y106.7978 I-0.5902 J1.4807
G2 X51.595 Y106.915 I-0.0328 J1.8609
G3 X52.2786 Y106.7978 I0.6508 J1.7439
G3 X52.8723 Y106.9111 I0.0036 J1.5938
G3 X53.3684 Y107.2353 I-0.5737 J1.4194
G3 X53.7044 Y107.7431 I-1.0728 J1.0747
G3 X53.8294 Y108.4111 I-1.6028 J0.6456
G3 X53.7005 Y109.1416 I-1.9512 J0.0323
G3 X53.3528 Y109.6806 I-1.4856 J-0.5765
G3 X52.8372 Y110.0127 I-1.0264 J-1.0275
G3 X52.1966 Y110.1259 I-0.6256 J-1.67
G3 X51.552 Y110.0009 I-0.0187 J-1.6276
G3 X51.052 Y109.6416 I0.5361 J-1.2733
G3 X50.7278 Y109.0673 I1.2393 J-1.0784
G3 X50.6145 Y108.2822 I2.4044 J-0.7477
G1 Y105.1338
G0 Z3.0
G0 X48.5311 Y107.4372
G0 Z0.648
G1 F1000.0 Z-0.002
G3 F2000.0 X48.6458 Y107.5478 I-1.6653 J1.8412
G3 X49.1731 Y108.3564 I-1.902 J1.8167
G3 X49.3645 Y109.3369 I-2.3401 J0.9657
G3 X49.1731 Y110.3173 I-2.5314 J0.0147
G3 X48.6458 Y111.1259 I-2.3781 J-0.9746
G3 X47.845 Y111.6767 I-1.7801 J-1.7305
G3 X46.8294 Y111.8838 I-0.9902 J-2.2628
G3 X45.8138 Y111.6767 I-0.0254 J-2.4699
G3 X45.013 Y111.1259 I0.9793 J-2.2813
G3 X44.4856 Y110.3173 I1.8507 J-1.7833
G3 X44.2942 Y109.3369 I2.3401 J-0.9657
G3 X44.4856 Y108.3564 I2.5314 J-0.0147
G3 X45.013 Y107.5478 I2.4294 J1.0081
G3 X45.8138 Y106.997 I1.7801 J1.7305
G3 X46.8294 Y106.7939 I0.9897 J2.3078
G3 X47.845 Y106.997 I0.026 J2.5108
G3 X48.5311 Y107.4372 I-0.9793 J2.2813
G3 X48.6458 Y107.5478 I-1.6653 J1.8412
G3 X49.1731 Y108.3564 I-1.902 J1.8167
G3 X49.3645 Y109.3369 I-2.3401 J0.9657
G3 X49.1731 Y110.3173 I-2.5314 J0.0147
G3 X48.6458 Y111.1259 I-2.3781 J-0.9746
G3 X47.845 Y111.6767 I-1.7801 J-1.7305
G3 X46.8294 Y111.8838 I-0.9902 J-2.2628
G3 X45.8138 Y111.6767 I-0.0254 J-2.4699
G3 X45.013 Y111.1259 I0.9793 J-2.2813
G3 X44.4856 Y110.3173 I1.8507 J-1.7833
G3 X44.2942 Y109.3369 I2.3401 J-0.9657
G3 X44.4856 Y108.3564 I2.5314 J-0.0147
G3 X45.013 Y107.5478 I2.4294 J1.0081
G3 X45.8138 Y106.997 I1.7801 J1.7305
G3 X46.8294 Y106.7939 I0.9897 J2.3078
G3 X47.845 Y106.997 I0.026 J2.5108
G3 X48.5311 Y107.4372 I-0.9793 J2.2813
G2 X47.845 Y106.997 I-1.6654 J1.8412
G2 X46.8294 Y106.7939 I-0.9897 J2.3078
G2 X45.8138 Y106.997 I-0.026 J2.5108
G2 X45.013 Y107.5478 I0.9793 J2.2813
G2 X44.4856 Y108.3564 I1.902 J1.8167
G2 X44.2942 Y109.3369 I2.3401 J0.9657
G2 X44.4856 Y110.3173 I2.5314 J0.0147
G2 X45.013 Y111.1259 I2.3781 J-0.9746
G2 X45.8138 Y111.6767 I1.7801 J-1.7305
G2 X46.8294 Y111.8838 I0.9902 J-2.2628
G2 X47.845 Y111.6767 I0.0254 J-2.4699
G2 X48.6458 Y111.1259 I-0.9793 J-2.2813
G2 X49.1731 Y110.3173 I-1.8507 J-1.7833
G2 X49.3645 Y109.3369 I-2.3401 J-0.9657
G2 X49.1731 Y108.3564 I-2.5314 J-0.0147
G2 X48.6458 Y107.5478 I-2.4294 J1.0081
G2 X48.5311 Y107.4372 I-1.7801 J1.7305
G2 X47.845 Y106.997 I-1.6654 J1.8412
G2 X46.8294 Y106.7939 I-0.9897 J2.3078
G2 X45.8138 Y106.997 I-0.026 J2.5108
G2 X45.013 Y107.5478 I0.9793 J2.2813
G2 X44.4856 Y108.3564 I1.902 J1.8167
G2 X44.2942 Y109.3369 I2.3401 J0.9657
G2 X44.4856 Y110.3173 I2.5314 J0.0147
G2 X45.013 Y111.1259 I2.3781 J-0.9746
G2 X45.8138 Y111.6767 I1.7801 J-1.7305
G2 X46.8294 Y111.8838 I0.9902 J-2.2628
G2 X47.845 Y111.6767 I0.0254 J-2.4699
G2 X48.6458 Y111.1259 I-0.9793 J-2.2813
G2 X49.1731 Y110.3173 I-1.8507 J-1.7833
G2 X49.3645 Y109.3369 I-2.3401 J-0.9657
G2 X49.1731 Y108.3564 I-2.5314 J-0.0147
G2 X48.6458 Y107.5478 I-2.4294 J1.0081
G2 X48.5311 Y107.4372 I-1.7801 J1.7305
G0 Z3.0
G0 X43.4665 Y118.6055
G0 Z0.648
G1 F1000.0 Z-0.002
G2 F2000.0 X43.1003 Y118.5957 I-0.3646 J6.8006
G2 X42.7682 Y118.6494 I-0.0145 J0.9637
G2 X42.5339 Y118.8399 I0.1775 J0.4579
G2 X42.446 Y119.2256 I0.6412 J0.349
G1 Y125.627
G1 Y119.2256
G3 X42.5339 Y118.8399 I0.7291 J-0.0368
G3 X42.7682 Y118.6494 I0.4118 J0.2674
G3 X43.1003 Y118.5957 I0.3176 J0.91
G3 X43.4665 Y118.6055 I0.003 J6.7596
G0 Z3.0
G0 X39.028 Y118.5567
G0 Z0.648
G1 F1000.0 Z-0.002
G2 F2000.0 X38.6667 Y118.6543 I0.0912 J1.0547
G2 X38.4177 Y118.8496 I0.3902 J0.754
G2 X38.3151 Y119.2061 I0.4592 J0.3251
G1 Y122.4971
G3 X38.2614 Y122.8633 I-1.5257 J-0.0367
G3 X38.0417 Y123.2637 I-0.9472 J-0.2593
G3 X37.568 Y123.586 I-0.9523 J-0.8905
G3 X37.1692 Y123.6916 I-0.5931 J-1.4329
G3 X36.7575 Y123.7178 I-0.3941 J-2.9495
G3 X35.8932 Y123.6104 I-0.0616 J-3.0348
G3 X35.3268 Y123.3321 I0.4346 J-1.6
G3 X35.0046 Y122.9366 I0.6793 J-0.8825
G3 X34.9069 Y122.4776 I1.0204 J-0.457
G2 X35.0046 Y122.9366 I1.1181 J0.002
G2 X35.3268 Y123.3321 I1.0016 J-0.4871
G2 X35.8932 Y123.6104 I1.001 J-1.3216
G2 X36.7575 Y123.7178 I0.8026 J-2.9272
G2 X37.1692 Y123.6916 I0.0175 J-2.9773
G2 X37.568 Y123.586 I-0.1942 J-1.5381
G2 X38.0417 Y123.2637 I-0.4787 J-1.2127
G2 X38.2614 Y122.8633 I-0.7275 J-0.6597
G2 X38.3151 Y122.4971 I-1.4722 J-0.403
G1 Y119.2061
G3 X38.4177 Y118.8496 I0.5617 J-0.0314
G3 X38.6667 Y118.6543 I0.6392 J0.5586
G3 X39.028 Y118.5567 I0.4525 J0.9569
G0 Z3.0
G0 X38.0322 Y119.5282
G0 Z0.648
G1 F1000.0 Z-0.002
G3 F2000.0 X38.3151 Y119.8653 I-2.1103 J2.0589
G2 X37.9684 Y119.4649 I-2.395 J1.7234
G2 X37.4313 Y119.0059 I-3.0018 J2.969
G2 X36.8014 Y118.6348 I-2.0895 J2.8266
G2 X36.1667 Y118.4932 I-0.6147 J1.2619
G2 X35.5856 Y118.5616 I0.0819 J3.1996
G2 X35.112 Y118.7617 I0.3175 J1.4116
G2 X34.7897 Y119.128 I0.5668 J0.8237
G2 X34.6774 Y119.7041 I1.1942 J0.5318
G2 X34.7623 Y120.2605 I1.671 J0.0298
G2 X35.0876 Y120.7198 I0.9298 J-0.3138
G2 X35.6631 Y121.0042 I1.0497 J-1.3994
G2 X36.2936 Y121.125 I0.9554 J-3.2804
G3 X36.9772 Y121.208 I-1.3836 J14.251
G3 X37.5094 Y121.3057 I-0.9922 J6.9069
G3 X37.9343 Y121.418 I-3.5743 J14.3798
G2 X38.3151 Y121.5254 I2.4478 J-7.9497
G3 X37.9343 Y121.418 I2.0744 J-8.0835
G2 X37.5094 Y121.3057 I-4.0228 J14.3571
G2 X36.9772 Y121.208 I-1.5237 J6.805
G2 X36.2936 Y121.125 I-2.0721 J14.208
G3 X35.6631 Y121.0042 I0.3252 J-3.4028
G3 X35.0876 Y120.7198 I0.4741 J-1.6837
G3 X34.7623 Y120.2605 I0.6045 J-0.773
G3 X34.6774 Y119.7041 I1.5864 J-0.5266
G3 X34.7897 Y119.128 I1.3066 J-0.0444
G3 X35.112 Y118.7617 I0.8891 J0.4575
G3 X35.5856 Y118.5616 I0.7912 J1.2115
G3 X36.1667 Y118.4932 I0.6631 J3.1328
G3 X36.8014 Y118.6348 I0.0201 J1.4034
G3 X37.4313 Y119.0059 I-1.4589 J3.1964
G3 X37.9684 Y119.4649 I-2.4651 J3.4284
G3 X38.0322 Y119.5282 I-2.0466 J2.1223
G0 Z3.0
G0 X41.3962 Y123.7325
G0 Z0.648
G1 F1000.0 Z-0.002
G1 F2000.0 X43.486
G1 X41.3962
G0 Z3.0
G0 X31.7679 Y122.3549
G0 Z0.648
G1 F1000.0 Z-0.002
G2 F2000.0 X31.7868 Y122.0674 I-1.8696 J-0.2675
G1 Y118.5567
G1 Y122.0674
G3 X31.6925 Y122.6771 I-1.889 J0.0199
G3 X31.3815 Y123.21 I-1.4526 J-0.4905
G3 X30.8234 Y123.5745 I-0.9746 J-0.8827
G3 X30.1657 Y123.6836 I-0.6777 J-2.0478
G3 X29.3747 Y123.5762 I-0.0672 J-2.4713
G3 X28.7009 Y123.2637 I0.6521 J-2.2888
G3 X28.2272 Y122.7852 I0.9468 J-1.4108
G3 X28.0466 Y122.1748 I0.9177 J-0.6036
G2 X28.2272 Y122.7852 I1.0984 J0.0068
G2 X28.7009 Y123.2637 I1.4204 J-0.9323
G2 X29.3747 Y123.5762 I1.3261 J-1.9766
G2 X30.1657 Y123.6836 I0.7238 J-2.3638
G2 X30.8234 Y123.5745 I-0.02 J-2.1569
G2 X31.3815 Y123.21 I-0.4164 J-1.2473
G2 X31.6925 Y122.6771 I-1.1416 J-1.0234
G2 X31.7679 Y122.3549 I-1.7942 J-0.5897
G0 Z3.0
G0 X28.0466 Y125.7686
G0 Z0.648
G1 F1000.0 Z-0.002
G1 F2000.0 Y118.5567
G1 Y125.7686
G0 Z3.0
G0 X23.6374 Y125.7783
G0 Z0.648
G1 F1000.0 Z-0.002
G1 F2000.0 Y125.5977
G1 Y125.7783
G0 Z3.0
G0 Y123.6934
G0 Z0.648
G1 F1000.0 Z-0.002
G1 F2000.0 Y118.5664
G1 Y123.6934
G0 Z3.0
G0 X19.591 Y122.586
G0 Z0.648
G1 F1000.0 Z-0.002
G2 F2000.0 X19.6579 Y122.0674 I-1.8217 J-0.4986
G1 Y118.5567
G1 Y122.0674
G3 X19.5636 Y122.6771 I-1.889 J0.0199
G3 X19.2526 Y123.21 I-1.4526 J-0.4905
G3 X18.6944 Y123.5745 I-0.9746 J-0.8827
G3 X18.0368 Y123.6836 I-0.6777 J-2.0478
G3 X17.2458 Y123.5762 I-0.0672 J-2.4713
G3 X16.5719 Y123.2637 I0.6521 J-2.2888
G3 X16.0983 Y122.7852 I0.9468 J-1.4108
G3 X15.9177 Y122.1748 I0.9177 J-0.6036
G2 X16.0983 Y122.7852 I1.0984 J0.0068
G2 X16.5719 Y123.2637 I1.4204 J-0.9323
G2 X17.2458 Y123.5762 I1.3261 J-1.9766
G2 X18.0368 Y123.6836 I0.7238 J-2.3638
G2 X18.6944 Y123.5745 I-0.02 J-2.1569
G2 X19.2526 Y123.21 I-0.4164 J-1.2473
G2 X19.5636 Y122.6771 I-1.1416 J-1.0234
G2 X19.591 Y122.586 I-1.7942 J-0.5897
G0 Z3.0
G0 X15.9177 Y125.7686
G0 Z0.648
G1 F1000.0 Z-0.002
G1 F2000.0 Y118.5567
G1 Y125.7686
G0 Z3.0
G0 X12.2589 Y111.25
G0 Z0.648
G1 F1000.0 Z-0.002
G1 F2000.0 X8.75
G1 Y107.75
G1 X5.25
G0 Z3.0
G0 X16.3931 Y108.6162
G0 Z0.648
G1 F1000.0 Z-0.002
G3 F2000.0 X16.4768 Y108.2334 I1.4234 J0.1106
G3 X16.7288 Y107.8349 I1.1515 J0.4493
G3 X17.1155 Y107.5742 I0.8373 J0.8247
G3 X17.6077 Y107.4804 I0.4793 J1.1774
G3 X18.0559 Y107.5947 I0.0247 J0.8395
G2 X17.6077 Y107.4804 I-0.4235 J0.7252
G2 X17.1155 Y107.5742 I-0.0129 J1.2712
G2 X16.7288 Y107.8349 I0.4506 J1.0854
G2 X16.4768 Y108.2334 I0.8996 J0.8477
G2 X16.3889 Y108.7431 I1.3398 J0.4935
G2 X16.4768 Y109.2441 I1.3723 J0.0174
G2 X16.7288 Y109.6367 I1.0906 J-0.4228
G2 X17.1155 Y109.8974 I0.8373 J-0.8247
G2 X17.6077 Y109.9912 I0.4793 J-1.1774
G2 X18.0882 Y109.9091 I0.0166 J-1.3509
G2 X18.4661 Y109.6836 I-0.3945 J-1.0902
G2 X18.7122 Y109.3349 I-0.6283 J-0.7047
G2 X18.8001 Y108.8867 I-1.0263 J-0.434
G1 Y107.5537
G1 Y108.8867
G3 X18.7122 Y109.3349 I-1.1142 J0.0143
G3 X18.4661 Y109.6836 I-0.8745 J-0.3561
G3 X18.0882 Y109.9091 I-0.7724 J-0.8646
G3 X17.6077 Y109.9912 I-0.4639 J-1.2689
G3 X17.1155 Y109.8974 I-0.0129 J-1.2712
G3 X16.7288 Y109.6367 I0.4506 J-1.0854
G3 X16.4768 Y109.2441 I0.8386 J-0.8154
G3 X16.3889 Y108.7431 I1.2845 J-0.4835
G3 X16.3931 Y108.6162 I1.4276 J-0.0163
G0 Z3.0
G0 X21.0589 Y107.5537
G0 Z0.648
G1 F1000.0 Z-0.002
G2 F2000.0 X20.5843 Y107.6357 I-0.0089 J1.3626
G2 X20.1946 Y107.873 I0.4254 J1.1371
G2 X19.9339 Y108.2451 I0.7609 J0.8106
G2 X19.8401 Y108.7285 I1.127 J0.4694
G2 X19.9368 Y109.2119 I1.1885 J0.0137
G2 X20.1975 Y109.5869 I1.1027 J-0.4885
G2 X20.5638 Y109.83 I0.8701 J-0.9131
G2 X20.9856 Y109.9179 I0.4228 J-0.9732
G1 X21.2493
G1 X20.9856
G3 X20.5638 Y109.83 I0.001 J-1.0611
G3 X20.1975 Y109.5869 I0.5038 J-1.1561
G3 X19.9368 Y109.2119 I0.8419 J-0.8636
G3 X19.8401 Y108.7285 I1.0918 J-0.4697
G3 X19.9339 Y108.2451 I1.2207 J-0.014
G3 X20.1946 Y107.873 I1.0217 J0.4386
G3 X20.5843 Y107.6357 I0.8151 J0.8998
G3 X21.0589 Y107.5537 I0.4657 J1.2805
G1 X21.2493
G1 X21.0589
G0 Z3.0
G0 X23.3938
G0 Z0.648
G1 F1000.0 Z-0.002
G2 F2000.0 X22.9192 Y107.6357 I-0.0089 J1.3626
G2 X22.5296 Y107.873 I0.4254 J1.1371
G2 X22.2688 Y108.2451 I0.7609 J0.8106
G2 X22.1751 Y108.7285 I1.127 J0.4694
G2 X22.2718 Y109.2119 I1.1885 J0.0137
G2 X22.5325 Y109.5869 I1.1027 J-0.4885
G2 X22.8987 Y109.83 I0.8701 J-0.9131
G2 X23.3206 Y109.9179 I0.4228 J-0.9732
G1 X23.5843
G1 X23.3206
G3 X22.8987 Y109.83 I0.001 J-1.0611
G3 X22.5325 Y109.5869 I0.5038 J-1.1561
G3 X22.2718 Y109.2119 I0.8419 J-0.8636
G3 X22.1751 Y108.7285 I1.0918 J-0.4697
G3 X22.2688 Y108.2451 I1.2207 J-0.014
G3 X22.5296 Y107.873 I1.0217 J0.4386
G3 X22.9192 Y107.6357 I0.8151 J0.8998
G3 X23.3938 Y107.5537 I0.4657 J1.2805
G1 X23.5843
G1 X23.3938
G0 Z3.0
G0 X24.7209 Y107.5995
G0 Z0.648
G1 F1000.0 Z-0.002
G2 F2000.0 X24.721 Y107.6064 I0.082 J0.0028
G2 X24.7473 Y107.6709 I0.082 J0.0041
G2 X24.8089 Y107.6972 I0.0613 J-0.058
G2 X24.8704 Y107.6709 I0.0003 J-0.0844
G2 X24.8997 Y107.6064 I-0.0488 J-0.061
G2 X24.8704 Y107.542 I-0.0781 J-0.0034
G2 X24.8089 Y107.5185 I-0.0605 J0.0663
G2 X24.7473 Y107.542 I-0.0011 J0.0897
G2 X24.7209 Y107.5995 I0.0556 J0.0604
G2 X24.721 Y107.6064 I0.082 J0.0028
G2 X24.7473 Y107.6709 I0.082 J0.0041
G2 X24.8089 Y107.6972 I0.0613 J-0.058
G2 X24.8704 Y107.6709 I0.0003 J-0.0844
G2 X24.8997 Y107.6064 I-0.0488 J-0.061
G2 X24.8704 Y107.542 I-0.0781 J-0.0034
G2 X24.8089 Y107.5185 I-0.0605 J0.0663
G2 X24.7473 Y107.542 I-0.0011 J0.0897
G2 X24.7209 Y107.5995 I0.0556 J0.0604
G3 X24.7473 Y107.542 I0.0821 J0.0028
G3 X24.8089 Y107.5185 I0.0605 J0.0663
G3 X24.8704 Y107.542 I0.0011 J0.0897
G3 X24.8997 Y107.6064 I-0.0488 J0.061
G3 X24.8704 Y107.6709 I-0.0781 J0.0034
G3 X24.8089 Y107.6972 I-0.0613 J-0.058
G3 X24.7473 Y107.6709 I-0.0003 J-0.0844
G3 X24.721 Y107.6064 I0.0556 J-0.0604
G3 X24.7209 Y107.5995 I0.082 J-0.0041
G3 X24.7473 Y107.542 I0.0821 J0.0028
G3 X24.8089 Y107.5185 I0.0605 J0.0663
G3 X24.8704 Y107.542 I0.0011 J0.0897
G3 X24.8997 Y107.6064 I-0.0488 J0.061
G3 X24.8704 Y107.6709 I-0.0781 J0.0034
G3 X24.8089 Y107.6972 I-0.0613 J-0.058
G3 X24.7473 Y107.6709 I-0.0003 J-0.0844
G3 X24.721 Y107.6064 I0.0556 J-0.0604
G3 X24.7209 Y107.5995 I0.082 J-0.0041
( mounting )
G0 Z3.0
( T3 : 3.175 )
T3 M6
M3 S1000
G0 X7.5 Y125.5
G0 Z3.0
G0 X7.5125 Y125.5
G0 Z0.25
G1 F1000.0 Z0.0
G2 F2000.0 X7.4938 Y125.4892 Z-0.0333 I-0.0125 J0.0
G2 Y125.5108 Z-0.0667 I0.0062 J0.0108
G2 X7.5125 Y125.5 Z-0.1 I0.0063 J-0.0108
G2 X7.4938 Y125.4892 Z-0.1333 I-0.0125 J0.0
G2 Y125.5108 Z-0.1667 I0.0062 J0.0108
G2 X7.5125 Y125.5 Z-0.2 I0.0063 J-0.0108
G2 X7.4938 Y125.4892 Z-0.2333 I-0.0125 J0.0
G2 Y125.5108 Z-0.2667 I0.0062 J0.0108
G2 X7.5125 Y125.5 Z-0.3 I0.0063 J-0.0108
G2 X7.4938 Y125.4892 Z-0.3333 I-0.0125 J0.0
G2 Y125.5108 Z-0.3667 I0.0062 J0.0108
G2 X7.5125 Y125.5 Z-0.4 I0.0063 J-0.0108
G2 X7.4938 Y125.4892 Z-0.4333 I-0.0125 J0.0
G2 Y125.5108 Z-0.4667 I0.0062 J0.0108
G2 X7.5125 Y125.5 Z-0.5 I0.0063 J-0.0108
G2 X7.4938 Y125.4892 Z-0.5333 I-0.0125 J0.0
G2 Y125.5108 Z-0.5667 I0.0062 J0.0108
G2 X7.5125 Y125.5 Z-0.6 I0.0063 J-0.0108
G2 X7.4938 Y125.4892 Z-0.6333 I-0.0125 J0.0
G2 Y125.5108 Z-0.6667 I0.0062 J0.0108
G2 X7.5125 Y125.5 Z-0.7 I0.0063 J-0.0108
G2 X7.4938 Y125.4892 Z-0.7333 I-0.0125 J0.0
G2 Y125.5108 Z-0.7667 I0.0062 J0.0108
G2 X7.5125 Y125.5 Z-0.8 I0.0063 J-0.0108
G2 X7.4938 Y125.4892 Z-0.8333 I-0.0125 J0.0
G2 Y125.5108 Z-0.8667 I0.0062 J0.0108
G2 X7.5125 Y125.5 Z-0.9 I0.0063 J-0.0108
G2 X7.4938 Y125.4892 Z-0.9333 I-0.0125 J0.0
G2 Y125.5108 Z-0.9667 I0.0062 J0.0108
G2 X7.5125 Y125.5 Z-1.0 I0.0063 J-0.0108
G2 X7.4938 Y125.4892 Z-1.0333 I-0.0125 J0.0
G2 Y125.5108 Z-1.0667 I0.0062 J0.0108
G2 X7.5125 Y125.5 Z-1.1 I0.0063 J-0.0108
G2 X7.4938 Y125.4892 Z-1.1333 I-0.0125 J0.0
G2 Y125.5108 Z-1.1667 I0.0062 J0.0108
G2 X7.5125 Y125.5 Z-1.2 I0.0063 J-0.0108
G2 X7.4938 Y125.4892 Z-1.2333 I-0.0125 J0.0
G2 Y125.5108 Z-1.2667 I0.0062 J0.0108
G2 X7.5125 Y125.5 Z-1.3 I0.0063 J-0.0108
G2 X7.4938 Y125.4892 Z-1.3333 I-0.0125 J0.0
G2 Y125.5108 Z-1.3667 I0.0062 J0.0108
G2 X7.5125 Y125.5 Z-1.4 I0.0063 J-0.0108
G2 X7.4938 Y125.4892 Z-1.4333 I-0.0125 J0.0
G2 Y125.5108 Z-1.4667 I0.0062 J0.0108
G2 X7.5125 Y125.5 Z-1.5 I0.0063 J-0.0108
G2 X7.4938 Y125.4892 Z-1.5333 I-0.0125 J0.0
G2 Y125.5108 Z-1.5667 I0.0062 J0.0108
G2 X7.5125 Y125.5 Z-1.6 I0.0063 J-0.0108
G2 X7.4938 Y125.4892 Z-1.6333 I-0.0125 J0.0
G2 Y125.5108 Z-1.6667 I0.0062 J0.0108
G2 X7.5125 Y125.5 Z-1.7 I0.0063 J-0.0108
G2 X7.4938 Y125.4892 Z-1.7333 I-0.0125 J0.0
G2 Y125.5108 Z-1.7667 I0.0062 J0.0108
G2 X7.5125 Y125.5 Z-1.8 I0.0063 J-0.0108
G2 X7.4938 Y125.4892 Z-1.8333 I-0.0125 J0.0
G2 Y125.5108 Z-1.8667 I0.0062 J0.0108
G2 X7.5125 Y125.5 Z-1.9 I0.0063 J-0.0108
G2 X7.4938 Y125.4892 Z-1.9333 I-0.0125 J0.0
G2 Y125.5108 Z-1.9667 I0.0062 J0.0108
G2 X7.5125 Y125.5 Z-2.0 I0.0063 J-0.0108
G2 X7.4938 Y125.4892 Z-2.0333 I-0.0125 J0.0
G2 Y125.5108 Z-2.0667 I0.0062 J0.0108
G2 X7.5125 Y125.5 Z-2.1 I0.0063 J-0.0108
G2 X7.4938 Y125.4892 Z-2.1333 I-0.0125 J0.0
G2 Y125.5108 Z-2.1667 I0.0062 J0.0108
G2 X7.5125 Y125.5 Z-2.2 I0.0063 J-0.0108
G2 X7.4938 Y125.4892 Z-2.2333 I-0.0125 J0.0
G2 Y125.5108 Z-2.2667 I0.0062 J0.0108
G2 X7.5125 Y125.5 Z-2.3 I0.0063 J-0.0108
G2 X7.4938 Y125.4892 Z-2.3333 I-0.0125 J0.0
G2 Y125.5108 Z-2.3667 I0.0062 J0.0108
G2 X7.5125 Y125.5 Z-2.4 I0.0063 J-0.0108
G2 X7.4938 Y125.4892 Z-2.4333 I-0.0125 J0.0
G2 Y125.5108 Z-2.4667 I0.0062 J0.0108
G2 X7.5125 Y125.5 Z-2.5 I0.0063 J-0.0108
G2 X7.4938 Y125.4892 Z-2.5333 I-0.0125 J0.0
G2 Y125.5108 Z-2.5667 I0.0062 J0.0108
G2 X7.5125 Y125.5 Z-2.6 I0.0063 J-0.0108
G2 X7.4938 Y125.4892 Z-2.6333 I-0.0125 J0.0
G2 Y125.5108 Z-2.6667 I0.0062 J0.0108
G2 X7.5125 Y125.5 Z-2.7 I0.0063 J-0.0108
G2 X7.4938 Y125.4892 Z-2.7333 I-0.0125 J0.0
G2 Y125.5108 Z-2.7667 I0.0062 J0.0108
G2 X7.5125 Y125.5 Z-2.8 I0.0063 J-0.0108
G2 X7.4938 Y125.4892 Z-2.8333 I-0.0125 J0.0
G2 Y125.5108 Z-2.8667 I0.0062 J0.0108
G2 X7.5125 Y125.5 Z-2.9 I0.0063 J-0.0108
G2 X7.4938 Y125.4892 Z-2.9333 I-0.0125 J0.0
G2 Y125.5108 Z-2.9667 I0.0062 J0.0108
G2 X7.5125 Y125.5 Z-3.0 I0.0063 J-0.0108
G2 X7.4938 Y125.4892 Z-3.0333 I-0.0125 J0.0
G2 Y125.5108 Z-3.0667 I0.0062 J0.0108
G2 X7.5125 Y125.5 Z-3.1 I0.0062 J-0.0108
G2 X7.4938 Y125.4892 Z-3.1333 I-0.0125 J0.0
G2 Y125.5108 Z-3.1667 I0.0063 J0.0108
G2 X7.5125 Y125.5 Z-3.2 I0.0062 J-0.0108
G2 X7.4938 Y125.4892 I-0.0125 J0.0
G2 Y125.5108 I0.0063 J0.0108
G2 X7.5125 Y125.5 I0.0062 J-0.0108
G0 Z3.0
G0 X50.7325
G0 Z0.25
G1 F1000.0 Z0.0
G2 F2000.0 X50.7137 Y125.4892 Z-0.0333 I-0.0125 J0.0
G2 Y125.5108 Z-0.0667 I0.0062 J0.0108
G2 X50.7325 Y125.5 Z-0.1 I0.0063 J-0.0108
G2 X50.7137 Y125.4892 Z-0.1333 I-0.0125 J0.0
G2 Y125.5108 Z-0.1667 I0.0062 J0.0108
G2 X50.7325 Y125.5 Z-0.2 I0.0063 J-0.0108
G2 X50.7137 Y125.4892 Z-0.2333 I-0.0125 J0.0
G2 Y125.5108 Z-0.2667 I0.0062 J0.0108
G2 X50.7325 Y125.5 Z-0.3 I0.0063 J-0.0108
G2 X50.7137 Y125.4892 Z-0.3333 I-0.0125 J0.0
G2 Y125.5108 Z-0.3667 I0.0062 J0.0108
G2 X50.7325 Y125.5 Z-0.4 I0.0063 J-0.0108
G2 X50.7137 Y125.4892 Z-0.4333 I-0.0125 J0.0
G2 Y125.5108 Z-0.4667 I0.0062 J0.0108
G2 X50.7325 Y125.5 Z-0.5 I0.0063 J-0.0108
G2 X50.7137 Y125.4892 Z-0.5333 I-0.0125 J0.0
G2 Y125.5108 Z-0.5667 I0.0062 J0.0108
G2 X50.7325 Y125.5 Z-0.6 I0.0063 J-0.0108
G2 X50.7137 Y125.4892 Z-0.6333 I-0.0125 J0.0
G2 Y125.5108 Z-0.6667 I0.0062 J0.0108
G2 X50.7325 Y125.5 Z-0.7 I0.0063 J-0.0108
G2 X50.7137 Y125.4892 Z-0.7333 I-0.0125 J0.0
G2 Y125.5108 Z-0.7667 I0.0062 J0.0108
G2 X50.7325 Y125.5 Z-0.8 I0.0063 J-0.0108
G2 X50.7137 Y125.4892 Z-0.8333 I-0.0125 J0.0
G2 Y125.5108 Z-0.8667 I0.0062 J0.0108
G2 X50.7325 Y125.5 Z-0.9 I0.0063 J-0.0108
G2 X50.7137 Y125.4892 Z-0.9333 I-0.0125 J0.0
G2 Y125.5108 Z-0.9667 I0.0062 J0.0108
G2 X50.7325 Y125.5 Z-1.0 I0.0063 J-0.0108
G2 X50.7137 Y125.4892 Z-1.0333 I-0.0125 J0.0
G2 Y125.5108 Z-1.0667 I0.0062 J0.0108
G2 X50.7325 Y125.5 Z-1.1 I0.0063 J-0.0108
G2 X50.7137 Y125.4892 Z-1.1333 I-0.0125 J0.0
G2 Y125.5108 Z-1.1667 I0.0062 J0.0108
G2 X50.7325 Y125.5 Z-1.2 I0.0063 J-0.0108
G2 X50.7137 Y125.4892 Z-1.2333 I-0.0125 J0.0
G2 Y125.5108 Z-1.2667 I0.0062 J0.0108
G2 X50.7325 Y125.5 Z-1.3 I0.0063 J-0.0108
G2 X50.7137 Y125.4892 Z-1.3333 I-0.0125 J0.0
G2 Y125.5108 Z-1.3667 I0.0062 J0.0108
G2 X50.7325 Y125.5 Z-1.4 I0.0063 J-0.0108
G2 X50.7137 Y125.4892 Z-1.4333 I-0.0125 J0.0
G2 Y125.5108 Z-1.4667 I0.0062 J0.0108
G2 X50.7325 Y125.5 Z-1.5 I0.0063 J-0.0108
G2 X50.7137 Y125.4892 Z-1.5333 I-0.0125 J0.0
G2 Y125.5108 Z-1.5667 I0.0062 J0.0108
G2 X50.7325 Y125.5 Z-1.6 I0.0063 J-0.0108
G2 X50.7137 Y125.4892 Z-1.6333 I-0.0125 J0.0
G2 Y125.5108 Z-1.6667 I0.0062 J0.0108
G2 X50.7325 Y125.5 Z-1.7 I0.0063 J-0.0108
G2 X50.7137 Y125.4892 Z-1.7333 I-0.0125 J0.0
G2 Y125.5108 Z-1.7667 I0.0062 J0.0108
G2 X50.7325 Y125.5 Z-1.8 I0.0063 J-0.0108
G2 X50.7137 Y125.4892 Z-1.8333 I-0.0125 J0.0
G2 Y125.5108 Z-1.8667 I0.0062 J0.0108
G2 X50.7325 Y125.5 Z-1.9 I0.0063 J-0.0108
G2 X50.7137 Y125.4892 Z-1.9333 I-0.0125 J0.0
G2 Y125.5108 Z-1.9667 I0.0062 J0.0108
G2 X50.7325 Y125.5 Z-2.0 I0.0063 J-0.0108
G2 X50.7137 Y125.4892 Z-2.0333 I-0.0125 J0.0
G2 Y125.5108 Z-2.0667 I0.0062 J0.0108
G2 X50.7325 Y125.5 Z-2.1 I0.0063 J-0.0108
G2 X50.7137 Y125.4892 Z-2.1333 I-0.0125 J0.0
G2 Y125.5108 Z-2.1667 I0.0062 J0.0108
G2 X50.7325 Y125.5 Z-2.2 I0.0063 J-0.0108
G2 X50.7137 Y125.4892 Z-2.2333 I-0.0125 J0.0
G2 Y125.5108 Z-2.2667 I0.0062 J0.0108
G2 X50.7325 Y125.5 Z-2.3 I0.0063 J-0.0108
G2 X50.7137 Y125.4892 Z-2.3333 I-0.0125 J0.0
G2 Y125.5108 Z-2.3667 I0.0062 J0.0108
G2 X50.7325 Y125.5 Z-2.4 I0.0063 J-0.0108
G2 X50.7137 Y125.4892 Z-2.4333 I-0.0125 J0.0
G2 Y125.5108 Z-2.4667 I0.0062 J0.0108
G2 X50.7325 Y125.5 Z-2.5 I0.0063 J-0.0108
G2 X50.7137 Y125.4892 Z-2.5333 I-0.0125 J0.0
G2 Y125.5108 Z-2.5667 I0.0062 J0.0108
G2 X50.7325 Y125.5 Z-2.6 I0.0063 J-0.0108
G2 X50.7137 Y125.4892 Z-2.6333 I-0.0125 J0.0
G2 Y125.5108 Z-2.6667 I0.0062 J0.0108
G2 X50.7325 Y125.5 Z-2.7 I0.0063 J-0.0108
G2 X50.7137 Y125.4892 Z-2.7333 I-0.0125 J0.0
G2 Y125.5108 Z-2.7667 I0.0062 J0.0108
G2 X50.7325 Y125.5 Z-2.8 I0.0063 J-0.0108
G2 X50.7137 Y125.4892 Z-2.8333 I-0.0125 J0.0
G2 Y125.5108 Z-2.8667 I0.0062 J0.0108
G2 X50.7325 Y125.5 Z-2.9 I0.0063 J-0.0108
G2 X50.7137 Y125.4892 Z-2.9333 I-0.0125 J0.0
G2 Y125.5108 Z-2.9667 I0.0063 J0.0108
G2 X50.7325 Y125.5 Z-3.0 I0.0063 J-0.0108
G2 X50.7137 Y125.4892 Z-3.0333 I-0.0125 J0.0
G2 Y125.5108 Z-3.0667 I0.0063 J0.0108
G2 X50.7325 Y125.5 Z-3.1 I0.0063 J-0.0108
G2 X50.7137 Y125.4892 Z-3.1333 I-0.0125 J0.0
G2 Y125.5108 Z-3.1667 I0.0063 J0.0108
G2 X50.7325 Y125.5 Z-3.2 I0.0063 J-0.0108
G2 X50.7137 Y125.4892 I-0.0125 J0.0
G2 Y125.5108 I0.0063 J0.0108
G2 X50.7325 Y125.5 I0.0062 J-0.0108
G0 Z3.0
G0 Y3.0
G0 Z0.25
G1 F1000.0 Z0.0
G2 F2000.0 X50.7137 Y2.9892 Z-0.0333 I-0.0125 J0.0
G2 Y3.0108 Z-0.0667 I0.0063 J0.0108
G2 X50.7325 Y3.0 Z-0.1 I0.0063 J-0.0108
G2 X50.7137 Y2.9892 Z-0.1333 I-0.0125 J0.0
G2 Y3.0108 Z-0.1667 I0.0063 J0.0108
G2 X50.7325 Y3.0 Z-0.2 I0.0063 J-0.0108
G2 X50.7137 Y2.9892 Z-0.2333 I-0.0125 J0.0
G2 Y3.0108 Z-0.2667 I0.0063 J0.0108
G2 X50.7325 Y3.0 Z-0.3 I0.0063 J-0.0108
G2 X50.7137 Y2.9892 Z-0.3333 I-0.0125 J0.0
G2 Y3.0108 Z-0.3667 I0.0063 J0.0108
G2 X50.7325 Y3.0 Z-0.4 I0.0063 J-0.0108
G2 X50.7137 Y2.9892 Z-0.4333 I-0.0125 J0.0
G2 Y3.0108 Z-0.4667 I0.0063 J0.0108
G2 X50.7325 Y3.0 Z-0.5 I0.0063 J-0.0108
G2 X50.7137 Y2.9892 Z-0.5333 I-0.0125 J0.0
G2 Y3.0108 Z-0.5667 I0.0063 J0.0108
G2 X50.7325 Y3.0 Z-0.6 I0.0063 J-0.0108
G2 X50.7137 Y2.9892 Z-0.6333 I-0.0125 J0.0
G2 Y3.0108 Z-0.6667 I0.0063 J0.0108
G2 X50.7325 Y3.0 Z-0.7 I0.0063 J-0.0108
G2 X50.7137 Y2.9892 Z-0.7333 I-0.0125 J0.0
G2 Y3.0108 Z-0.7667 I0.0063 J0.0108
G2 X50.7325 Y3.0 Z-0.8 I0.0063 J-0.0108
G2 X50.7137 Y2.9892 Z-0.8333 I-0.0125 J0.0
G2 Y3.0108 Z-0.8667 I0.0063 J0.0108
G2 X50.7325 Y3.0 Z-0.9 I0.0063 J-0.0108
G2 X50.7137 Y2.9892 Z-0.9333 I-0.0125 J0.0
G2 Y3.0108 Z-0.9667 I0.0063 J0.0108
G2 X50.7325 Y3.0 Z-1.0 I0.0063 J-0.0108
G2 X50.7137 Y2.9892 Z-1.0333 I-0.0125 J0.0
G2 Y3.0108 Z-1.0667 I0.0063 J0.0108
G2 X50.7325 Y3.0 Z-1.1 I0.0063 J-0.0108
G2 X50.7137 Y2.9892 Z-1.1333 I-0.0125 J0.0
G2 Y3.0108 Z-1.1667 I0.0063 J0.0108
G2 X50.7325 Y3.0 Z-1.2 I0.0063 J-0.0108
G2 X50.7137 Y2.9892 Z-1.2333 I-0.0125 J0.0
G2 Y3.0108 Z-1.2667 I0.0063 J0.0108
G2 X50.7325 Y3.0 Z-1.3 I0.0063 J-0.0108
G2 X50.7137 Y2.9892 Z-1.3333 I-0.0125 J0.0
G2 Y3.0108 Z-1.3667 I0.0063 J0.0108
G2 X50.7325 Y3.0 Z-1.4 I0.0063 J-0.0108
G2 X50.7137 Y2.9892 Z-1.4333 I-0.0125 J0.0
G2 Y3.0108 Z-1.4667 I0.0063 J0.0108
G2 X50.7325 Y3.0 Z-1.5 I0.0063 J-0.0108
G2 X50.7137 Y2.9892 Z-1.5333 I-0.0125 J0.0
G2 Y3.0108 Z-1.5667 I0.0063 J0.0108
G2 X50.7325 Y3.0 Z-1.6 I0.0063 J-0.0108
G2 X50.7137 Y2.9892 Z-1.6333 I-0.0125 J0.0
G2 Y3.0108 Z-1.6667 I0.0063 J0.0108
G2 X50.7325 Y3.0 Z-1.7 I0.0063 J-0.0108
G2 X50.7137 Y2.9892 Z-1.7333 I-0.0125 J0.0
G2 Y3.0108 Z-1.7667 I0.0063 J0.0108
G2 X50.7325 Y3.0 Z-1.8 I0.0063 J-0.0108
G2 X50.7137 Y2.9892 Z-1.8333 I-0.0125 J0.0
G2 Y3.0108 Z-1.8667 I0.0063 J0.0108
G2 X50.7325 Y3.0 Z-1.9 I0.0063 J-0.0108
G2 X50.7137 Y2.9892 Z-1.9333 I-0.0125 J0.0
G2 Y3.0108 Z-1.9667 I0.0063 J0.0108
G2 X50.7325 Y3.0 Z-2.0 I0.0063 J-0.0108
G2 X50.7137 Y2.9892 Z-2.0333 I-0.0125 J0.0
G2 Y3.0108 Z-2.0667 I0.0063 J0.0108
G2 X50.7325 Y3.0 Z-2.1 I0.0063 J-0.0108
G2 X50.7137 Y2.9892 Z-2.1333 I-0.0125 J0.0
G2 Y3.0108 Z-2.1667 I0.0063 J0.0108
G2 X50.7325 Y3.0 Z-2.2 I0.0063 J-0.0108
G2 X50.7137 Y2.9892 Z-2.2333 I-0.0125 J0.0
G2 Y3.0108 Z-2.2667 I0.0063 J0.0108
G2 X50.7325 Y3.0 Z-2.3 I0.0063 J-0.0108
G2 X50.7137 Y2.9892 Z-2.3333 I-0.0125 J0.0
G2 Y3.0108 Z-2.3667 I0.0063 J0.0108
G2 X50.7325 Y3.0 Z-2.4 I0.0063 J-0.0108
G2 X50.7137 Y2.9892 Z-2.4333 I-0.0125 J0.0
G2 Y3.0108 Z-2.4667 I0.0063 J0.0108
G2 X50.7325 Y3.0 Z-2.5 I0.0063 J-0.0108
G2 X50.7137 Y2.9892 Z-2.5333 I-0.0125 J0.0
G2 Y3.0108 Z-2.5667 I0.0063 J0.0108
G2 X50.7325 Y3.0 Z-2.6 I0.0063 J-0.0108
G2 X50.7137 Y2.9892 Z-2.6333 I-0.0125 J0.0
G2 Y3.0108 Z-2.6667 I0.0063 J0.0108
G2 X50.7325 Y3.0 Z-2.7 I0.0063 J-0.0108
G2 X50.7137 Y2.9892 Z-2.7333 I-0.0125 J0.0
G2 Y3.0108 Z-2.7667 I0.0063 J0.0108
G2 X50.7325 Y3.0 Z-2.8 I0.0063 J-0.0108
G2 X50.7137 Y2.9892 Z-2.8333 I-0.0125 J0.0
G2 Y3.0108 Z-2.8667 I0.0063 J0.0108
G2 X50.7325 Y3.0 Z-2.9 I0.0063 J-0.0108
G2 X50.7137 Y2.9892 Z-2.9333 I-0.0125 J0.0
G2 Y3.0108 Z-2.9667 I0.0063 J0.0108
G2 X50.7325 Y3.0 Z-3.0 I0.0062 J-0.0108
G2 X50.7137 Y2.9892 Z-3.0333 I-0.0125 J0.0
G2 Y3.0108 Z-3.0667 I0.0063 J0.0108
G2 X50.7325 Y3.0 Z-3.1 I0.0062 J-0.0108
G2 X50.7137 Y2.9892 Z-3.1333 I-0.0125 J0.0
G2 Y3.0108 Z-3.1667 I0.0063 J0.0108
G2 X50.7325 Y3.0 Z-3.2 I0.0062 J-0.0108
G2 X50.7137 Y2.9892 I-0.0125 J0.0
G2 Y3.0108 I0.0063 J0.0108
G2 X50.7325 Y3.0 I0.0062 J-0.0108
G0 Z3.0
G0 X7.5125
G0 Z0.25
G1 F1000.0 Z0.0
G2 F2000.0 X7.4938 Y2.9892 Z-0.0333 I-0.0125 J0.0
G2 Y3.0108 Z-0.0667 I0.0062 J0.0108
G2 X7.5125 Y3.0 Z-0.1 I0.0063 J-0.0108
G2 X7.4938 Y2.9892 Z-0.1333 I-0.0125 J0.0
G2 Y3.0108 Z-0.1667 I0.0062 J0.0108
G2 X7.5125 Y3.0 Z-0.2 I0.0063 J-0.0108
G2 X7.4938 Y2.9892 Z-0.2333 I-0.0125 J0.0
G2 Y3.0108 Z-0.2667 I0.0062 J0.0108
G2 X7.5125 Y3.0 Z-0.3 I0.0063 J-0.0108
G2 X7.4938 Y2.9892 Z-0.3333 I-0.0125 J0.0
G2 Y3.0108 Z-0.3667 I0.0063 J0.0108
G2 X7.5125 Y3.0 Z-0.4 I0.0062 J-0.0108
G2 X7.4938 Y2.9892 Z-0.4333 I-0.0125 J0.0
G2 Y3.0108 Z-0.4667 I0.0063 J0.0108
G2 X7.5125 Y3.0 Z-0.5 I0.0062 J-0.0108
G2 X7.4938 Y2.9892 Z-0.5333 I-0.0125 J0.0
G2 Y3.0108 Z-0.5667 I0.0063 J0.0108
G2 X7.5125 Y3.0 Z-0.6 I0.0062 J-0.0108
G2 X7.4938 Y2.9892 Z-0.6333 I-0.0125 J0.0
G2 Y3.0108 Z-0.6667 I0.0062 J0.0108
G2 X7.5125 Y3.0 Z-0.7 I0.0063 J-0.0108
G2 X7.4938 Y2.9892 Z-0.7333 I-0.0125 J0.0
G2 Y3.0108 Z-0.7667 I0.0062 J0.0108
G2 X7.5125 Y3.0 Z-0.8 I0.0063 J-0.0108
G2 X7.4938 Y2.9892 Z-0.8333 I-0.0125 J0.0
G2 Y3.0108 Z-0.8667 I0.0062 J0.0108
G2 X7.5125 Y3.0 Z-0.9 I0.0063 J-0.0108
G2 X7.4938 Y2.9892 Z-0.9333 I-0.0125 J0.0
G2 Y3.0108 Z-0.9667 I0.0062 J0.0108
G2 X7.5125 Y3.0 Z-1.0 I0.0063 J-0.0108
G2 X7.4938 Y2.9892 Z-1.0333 I-0.0125 J0.0
G2 Y3.0108 Z-1.0667 I0.0062 J0.0108
G2 X7.5125 Y3.0 Z-1.1 I0.0063 J-0.0108
G2 X7.4938 Y2.9892 Z-1.1333 I-0.0125 J0.0
G2 Y3.0108 Z-1.1667 I0.0062 J0.0108
G2 X7.5125 Y3.0 Z-1.2 I0.0063 J-0.0108
G2 X7.4938 Y2.9892 Z-1.2333 I-0.0125 J0.0
G2 Y3.0108 Z-1.2667 I0.0062 J0.0108
G2 X7.5125 Y3.0 Z-1.3 I0.0063 J-0.0108
G2 X7.4938 Y2.9892 Z-1.3333 I-0.0125 J0.0
G2 Y3.0108 Z-1.3667 I0.0062 J0.0108
G2 X7.5125 Y3.0 Z-1.4 I0.0063 J-0.0108
G2 X7.4938 Y2.9892 Z-1.4333 I-0.0125 J0.0
G2 Y3.0108 Z-1.4667 I0.0062 J0.0108
G2 X7.5125 Y3.0 Z-1.5 I0.0063 J-0.0108
G2 X7.4938 Y2.9892 Z-1.5333 I-0.0125 J0.0
G2 Y3.0108 Z-1.5667 I0.0062 J0.0108
G2 X7.5125 Y3.0 Z-1.6 I0.0063 J-0.0108
G2 X7.4938 Y2.9892 Z-1.6333 I-0.0125 J0.0
G2 Y3.0108 Z-1.6667 I0.0062 J0.0108
G2 X7.5125 Y3.0 Z-1.7 I0.0063 J-0.0108
G2 X7.4938 Y2.9892 Z-1.7333 I-0.0125 J0.0
G2 Y3.0108 Z-1.7667 I0.0062 J0.0108
G2 X7.5125 Y3.0 Z-1.8 I0.0063 J-0.0108
G2 X7.4938 Y2.9892 Z-1.8333 I-0.0125 J0.0
G2 Y3.0108 Z-1.8667 I0.0062 J0.0108
G2 X7.5125 Y3.0 Z-1.9 I0.0063 J-0.0108
G2 X7.4938 Y2.9892 Z-1.9333 I-0.0125 J0.0
G2 Y3.0108 Z-1.9667 I0.0062 J0.0108
G2 X7.5125 Y3.0 Z-2.0 I0.0063 J-0.0108
G2 X7.4938 Y2.9892 Z-2.0333 I-0.0125 J0.0
G2 Y3.0108 Z-2.0667 I0.0062 J0.0108
G2 X7.5125 Y3.0 Z-2.1 I0.0063 J-0.0108
G2 X7.4938 Y2.9892 Z-2.1333 I-0.0125 J0.0
G2 Y3.0108 Z-2.1667 I0.0062 J0.0108
G2 X7.5125 Y3.0 Z-2.2 I0.0063 J-0.0108
G2 X7.4938 Y2.9892 Z-2.2333 I-0.0125 J0.0
G2 Y3.0108 Z-2.2667 I0.0062 J0.0108
G2 X7.5125 Y3.0 Z-2.3 I0.0063 J-0.0108
G2 X7.4938 Y2.9892 Z-2.3333 I-0.0125 J0.0
G2 Y3.0108 Z-2.3667 I0.0063 J0.0108
G2 X7.5125 Y3.0 Z-2.4 I0.0062 J-0.0108
G2 X7.4938 Y2.9892 Z-2.4333 I-0.0125 J0.0
G2 Y3.0108 Z-2.4667 I0.0063 J0.0108
G2 X7.5125 Y3.0 Z-2.5 I0.0062 J-0.0108
G2 X7.4938 Y2.9892 Z-2.5333 I-0.0125 J0.0
G2 Y3.0108 Z-2.5667 I0.0063 J0.0108
G2 X7.5125 Y3.0 Z-2.6 I0.0062 J-0.0108
G2 X7.4938 Y2.9892 Z-2.6333 I-0.0125 J0.0
G2 Y3.0108 Z-2.6667 I0.0063 J0.0108
G2 X7.5125 Y3.0 Z-2.7 I0.0062 J-0.0108
G2 X7.4938 Y2.9892 Z-2.7333 I-0.0125 J0.0
G2 Y3.0108 Z-2.7667 I0.0063 J0.0108
G2 X7.5125 Y3.0 Z-2.8 I0.0062 J-0.0108
G2 X7.4938 Y2.9892 Z-2.8333 I-0.0125 J0.0
G2 Y3.0108 Z-2.8667 I0.0063 J0.0108
G2 X7.5125 Y3.0 Z-2.9 I0.0062 J-0.0108
G2 X7.4938 Y2.9892 Z-2.9333 I-0.0125 J0.0
G2 Y3.0108 Z-2.9667 I0.0063 J0.0108
G2 X7.5125 Y3.0 Z-3.0 I0.0062 J-0.0108
G2 X7.4938 Y2.9892 Z-3.0333 I-0.0125 J0.0
G2 Y3.0108 Z-3.0667 I0.0063 J0.0108
G2 X7.5125 Y3.0 Z-3.1 I0.0062 J-0.0108
G2 X7.4938 Y2.9892 Z-3.1333 I-0.0125 J0.0
G2 Y3.0108 Z-3.1667 I0.0063 J0.0108
G2 X7.5125 Y3.0 Z-3.2 I0.0062 J-0.0108
G2 X7.4938 Y2.9892 I-0.0125 J0.0
G2 Y3.0108 I0.0063 J0.0108
G2 X7.5125 Y3.0 I0.0062 J-0.0108
( jacks )
S1000
G0 Z3.0
G0 X8.5 Y24.25
G0 Z3.0
G0 X10.0375 Y24.25
G0 Z0.25
G1 F1100.0 Z0.0
G2 F2000.0 X7.7313 Y22.9185 Z-0.0333 I-1.5375 J0.0
G2 Y25.5815 Z-0.0667 I0.7688 J1.3315
G2 X10.0375 Y24.25 Z-0.1 I0.7688 J-1.3315
G2 X7.7313 Y22.9185 Z-0.1333 I-1.5375 J0.0
G2 Y25.5815 Z-0.1667 I0.7687 J1.3315
G2 X10.0375 Y24.25 Z-0.2 I0.7688 J-1.3315
G2 X7.7313 Y22.9185 Z-0.2333 I-1.5375 J0.0
G2 Y25.5815 Z-0.2667 I0.7687 J1.3315
G2 X10.0375 Y24.25 Z-0.3 I0.7688 J-1.3315
G2 X7.7313 Y22.9185 Z-0.3333 I-1.5375 J0.0
G2 Y25.5815 Z-0.3667 I0.7688 J1.3315
G2 X10.0375 Y24.25 Z-0.4 I0.7687 J-1.3315
G2 X7.7312 Y22.9185 Z-0.4333 I-1.5375 J0.0
G2 X7.7313 Y25.5815 Z-0.4667 I0.7688 J1.3315
G2 X10.0375 Y24.25 Z-0.5 I0.7687 J-1.3315
G2 X7.7313 Y22.9185 Z-0.5333 I-1.5375 J0.0
G2 Y25.5815 Z-0.5667 I0.7688 J1.3315
G2 X10.0375 Y24.25 Z-0.6 I0.7688 J-1.3315
G2 X7.7313 Y22.9185 Z-0.6333 I-1.5375 J0.0
G2 X7.7312 Y25.5815 Z-0.6667 I0.7687 J1.3315
G2 X10.0375 Y24.25 Z-0.7 I0.7688 J-1.3315
G2 X7.7313 Y22.9185 Z-0.7333 I-1.5375 J0.0
G2 X7.7312 Y25.5815 Z-0.7667 I0.7687 J1.3315
G2 X10.0375 Y24.25 Z-0.8 I0.7688 J-1.3315
G2 X7.7313 Y22.9185 Z-0.8333 I-1.5375 J0.0
G2 X7.7312 Y25.5815 Z-0.8667 I0.7687 J1.3315
G2 X10.0375 Y24.25 Z-0.9 I0.7688 J-1.3315
G2 X7.7313 Y22.9185 Z-0.9333 I-1.5375 J0.0
G2 X7.7312 Y25.5815 Z-0.9667 I0.7687 J1.3315
G2 X10.0375 Y24.25 Z-1.0 I0.7688 J-1.3315
G2 X7.7313 Y22.9185 Z-1.0333 I-1.5375 J0.0
G2 X7.7312 Y25.5815 Z-1.0667 I0.7687 J1.3315
G2 X10.0375 Y24.25 Z-1.1 I0.7688 J-1.3315
G2 X7.7313 Y22.9185 Z-1.1333 I-1.5375 J0.0
G2 X7.7312 Y25.5815 Z-1.1667 I0.7687 J1.3315
G2 X10.0375 Y24.25 Z-1.2 I0.7688 J-1.3315
G2 X7.7313 Y22.9185 Z-1.2333 I-1.5375 J0.0
G2 X7.7312 Y25.5815 Z-1.2667 I0.7687 J1.3315
G2 X10.0375 Y24.25 Z-1.3 I0.7688 J-1.3315
G2 X7.7313 Y22.9185 Z-1.3333 I-1.5375 J0.0
G2 X7.7312 Y25.5815 Z-1.3667 I0.7687 J1.3315
G2 X10.0375 Y24.25 Z-1.4 I0.7688 J-1.3315
G2 X7.7313 Y22.9185 Z-1.4333 I-1.5375 J0.0
G2 X7.7312 Y25.5815 Z-1.4667 I0.7687 J1.3315
G2 X10.0375 Y24.25 Z-1.5 I0.7688 J-1.3315
G2 X7.7313 Y22.9185 Z-1.5333 I-1.5375 J0.0
G2 X7.7312 Y25.5815 Z-1.5667 I0.7687 J1.3315
G2 X10.0375 Y24.25 Z-1.6 I0.7688 J-1.3315
G2 X7.7313 Y22.9185 Z-1.6333 I-1.5375 J0.0
G2 X7.7312 Y25.5815 Z-1.6667 I0.7687 J1.3315
G2 X10.0375 Y24.25 Z-1.7 I0.7688 J-1.3315
G2 X7.7313 Y22.9185 Z-1.7333 I-1.5375 J0.0
G2 X7.7312 Y25.5815 Z-1.7667 I0.7687 J1.3315
G2 X10.0375 Y24.25 Z-1.8 I0.7688 J-1.3315
G2 X7.7313 Y22.9185 Z-1.8333 I-1.5375 J0.0
G2 X7.7312 Y25.5815 Z-1.8667 I0.7687 J1.3315
G2 X10.0375 Y24.25 Z-1.9 I0.7688 J-1.3315
G2 X7.7313 Y22.9185 Z-1.9333 I-1.5375 J0.0
G2 X7.7312 Y25.5815 Z-1.9667 I0.7687 J1.3315
G2 X10.0375 Y24.25 Z-2.0 I0.7688 J-1.3315
G2 X7.7313 Y22.9185 Z-2.0333 I-1.5375 J0.0
G2 X7.7312 Y25.5815 Z-2.0667 I0.7687 J1.3315
G2 X10.0375 Y24.25 Z-2.1 I0.7688 J-1.3315
G2 X7.7313 Y22.9185 Z-2.1333 I-1.5375 J0.0
G2 X7.7312 Y25.5815 Z-2.1667 I0.7687 J1.3315
G2 X10.0375 Y24.25 Z-2.2 I0.7688 J-1.3315
G2 X7.7313 Y22.9185 Z-2.2333 I-1.5375 J0.0
G2 X7.7312 Y25.5815 Z-2.2667 I0.7687 J1.3315
G2 X10.0375 Y24.25 Z-2.3 I0.7688 J-1.3315
G2 X7.7313 Y22.9185 Z-2.3333 I-1.5375 J0.0
G2 Y25.5815 Z-2.3667 I0.7688 J1.3315
G2 X10.0375 Y24.25 Z-2.4 I0.7687 J-1.3315
G2 X7.7312 Y22.9185 Z-2.4333 I-1.5375 J0.0
G2 X7.7313 Y25.5815 Z-2.4667 I0.7688 J1.3315
G2 X10.0375 Y24.25 Z-2.5 I0.7687 J-1.3315
G2 X7.7312 Y22.9185 Z-2.5333 I-1.5375 J0.0
G2 X7.7313 Y25.5815 Z-2.5667 I0.7688 J1.3315
G2 X10.0375 Y24.25 Z-2.6 I0.7687 J-1.3315
G2 X7.7312 Y22.9185 Z-2.6333 I-1.5375 J0.0
G2 X7.7313 Y25.5815 Z-2.6667 I0.7688 J1.3315
G2 X10.0375 Y24.25 Z-2.7 I0.7687 J-1.3315
G2 X7.7312 Y22.9185 Z-2.7333 I-1.5375 J0.0
G2 X7.7313 Y25.5815 Z-2.7667 I0.7688 J1.3315
G2 X10.0375 Y24.25 Z-2.8 I0.7687 J-1.3315
G2 X7.7312 Y22.9185 Z-2.8333 I-1.5375 J0.0
G2 X7.7313 Y25.5815 Z-2.8667 I0.7688 J1.3315
G2 X10.0375 Y24.25 Z-2.9 I0.7687 J-1.3315
G2 X7.7312 Y22.9185 Z-2.9333 I-1.5375 J0.0
G2 X7.7313 Y25.5815 Z-2.9667 I0.7688 J1.3315
G2 X10.0375 Y24.25 Z-3.0 I0.7687 J-1.3315
G2 X7.7312 Y22.9185 Z-3.0333 I-1.5375 J0.0
G2 X7.7313 Y25.5815 Z-3.0667 I0.7688 J1.3315
G2 X10.0375 Y24.25 Z-3.1 I0.7687 J-1.3315
G2 X7.7312 Y22.9185 Z-3.1333 I-1.5375 J0.0
G2 X7.7313 Y25.5815 Z-3.1667 I0.7688 J1.3315
G2 X10.0375 Y24.25 Z-3.2 I0.7687 J-1.3315
G2 X7.7312 Y22.9185 I-1.5375 J0.0
G2 X7.7313 Y25.5815 I0.7688 J1.3315
G2 X10.0375 Y24.25 I0.7687 J-1.3315
G0 Z3.0
G0 X10.1435 Y41.0
G0 Z0.25
G1 F1100.0 Z0.0
G2 F2000.0 X7.8373 Y39.6685 Z-0.0333 I-1.5375 J0.0
G2 Y42.3315 Z-0.0667 I0.7688 J1.3315
G2 X10.1435 Y41.0 Z-0.1 I0.7688 J-1.3315
G2 X7.8373 Y39.6685 Z-0.1333 I-1.5375 J0.0
G2 Y42.3315 Z-0.1667 I0.7687 J1.3315
G2 X10.1435 Y41.0 Z-0.2 I0.7688 J-1.3315
G2 X7.8373 Y39.6685 Z-0.2333 I-1.5375 J0.0
G2 Y42.3315 Z-0.2667 I0.7687 J1.3315
G2 X10.1435 Y41.0 Z-0.3 I0.7688 J-1.3315
G2 X7.8373 Y39.6685 Z-0.3333 I-1.5375 J0.0
G2 Y42.3315 Z-0.3667 I0.7688 J1.3315
G2 X10.1435 Y41.0 Z-0.4 I0.7687 J-1.3315
G2 X7.8373 Y39.6685 Z-0.4333 I-1.5375 J0.0
G2 Y42.3315 Z-0.4667 I0.7688 J1.3315
G2 X10.1435 Y41.0 Z-0.5 I0.7687 J-1.3315
G2 X7.8373 Y39.6685 Z-0.5333 I-1.5375 J0.0
G2 Y42.3315 Z-0.5667 I0.7688 J1.3315
G2 X10.1435 Y41.0 Z-0.6 I0.7687 J-1.3315
G2 X7.8373 Y39.6685 Z-0.6333 I-1.5375 J0.0
G2 Y42.3315 Z-0.6667 I0.7687 J1.3315
G2 X10.1435 Y41.0 Z-0.7 I0.7688 J-1.3315
G2 X7.8373 Y39.6685 Z-0.7333 I-1.5375 J0.0
G2 Y42.3315 Z-0.7667 I0.7687 J1.3315
G2 X10.1435 Y41.0 Z-0.8 I0.7688 J-1.3315
G2 X7.8373 Y39.6685 Z-0.8333 I-1.5375 J0.0
G2 Y42.3315 Z-0.8667 I0.7687 J1.3315
G2 X10.1435 Y41.0 Z-0.9 I0.7688 J-1.3315
G2 X7.8373 Y39.6685 Z-0.9333 I-1.5375 J0.0
G2 Y42.3315 Z-0.9667 I0.7687 J1.3315
G2 X10.1435 Y41.0 Z-1.0 I0.7688 J-1.3315
G2 X7.8373 Y39.6685 Z-1.0333 I-1.5375 J0.0
G2 Y42.3315 Z-1.0667 I0.7687 J1.3315
G2 X10.1435 Y41.0 Z-1.1 I0.7688 J-1.3315
G2 X7.8373 Y39.6685 Z-1.1333 I-1.5375 J0.0
G2 Y42.3315 Z-1.1667 I0.7687 J1.3315
G2 X10.1435 Y41.0 Z-1.2 I0.7688 J-1.3315
G2 X7.8373 Y39.6685 Z-1.2333 I-1.5375 J0.0
G2 Y42.3315 Z-1.2667 I0.7687 J1.3315
G2 X10.1435 Y41.0 Z-1.3 I0.7688 J-1.3315
G2 X7.8373 Y39.6685 Z-1.3333 I-1.5375 J0.0
G2 Y42.3315 Z-1.3667 I0.7687 J1.3315
G2 X10.1435 Y41.0 Z-1.4 I0.7688 J-1.3315
G2 X7.8373 Y39.6685 Z-1.4333 I-1.5375 J0.0
G2 Y42.3315 Z-1.4667 I0.7687 J1.3315
G2 X10.1435 Y41.0 Z-1.5 I0.7688 J-1.3315
G2 X7.8373 Y39.6685 Z-1.5333 I-1.5375 J0.0
G2 Y42.3315 Z-1.5667 I0.7687 J1.3315
G2 X10.1435 Y41.0 Z-1.6 I0.7688 J-1.3315
G2 X7.8373 Y39.6685 Z-1.6333 I-1.5375 J0.0
G2 Y42.3315 Z-1.6667 I0.7687 J1.3315
G2 X10.1435 Y41.0 Z-1.7 I0.7688 J-1.3315
G2 X7.8373 Y39.6685 Z-1.7333 I-1.5375 J0.0
G2 Y42.3315 Z-1.7667 I0.7687 J1.3315
G2 X10.1435 Y41.0 Z-1.8 I0.7688 J-1.3315
G2 X7.8373 Y39.6685 Z-1.8333 I-1.5375 J0.0
G2 Y42.3315 Z-1.8667 I0.7687 J1.3315
G2 X10.1435 Y41.0 Z-1.9 I0.7688 J-1.3315
G2 X7.8373 Y39.6685 Z-1.9333 I-1.5375 J0.0
G2 Y42.3315 Z-1.9667 I0.7687 J1.3315
G2 X10.1435 Y41.0 Z-2.0 I0.7688 J-1.3315
G2 X7.8373 Y39.6685 Z-2.0333 I-1.5375 J0.0
G2 Y42.3315 Z-2.0667 I0.7687 J1.3315
G2 X10.1435 Y41.0 Z-2.1 I0.7688 J-1.3315
G2 X7.8373 Y39.6685 Z-2.1333 I-1.5375 J0.0
G2 Y42.3315 Z-2.1667 I0.7687 J1.3315
G2 X10.1435 Y41.0 Z-2.2 I0.7688 J-1.3315
G2 X7.8373 Y39.6685 Z-2.2333 I-1.5375 J0.0
G2 Y42.3315 Z-2.2667 I0.7687 J1.3315
G2 X10.1435 Y41.0 Z-2.3 I0.7688 J-1.3315
G2 X7.8373 Y39.6685 Z-2.3333 I-1.5375 J0.0
G2 Y42.3315 Z-2.3667 I0.7688 J1.3315
G2 X10.1435 Y41.0 Z-2.4 I0.7687 J-1.3315
G2 X7.8373 Y39.6685 Z-2.4333 I-1.5375 J0.0
G2 Y42.3315 Z-2.4667 I0.7688 J1.3315
G2 X10.1435 Y41.0 Z-2.5 I0.7687 J-1.3315
G2 X7.8373 Y39.6685 Z-2.5333 I-1.5375 J0.0
G2 Y42.3315 Z-2.5667 I0.7688 J1.3315
G2 X10.1435 Y41.0 Z-2.6 I0.7687 J-1.3315
G2 X7.8373 Y39.6685 Z-2.6333 I-1.5375 J0.0
G2 Y42.3315 Z-2.6667 I0.7688 J1.3315
G2 X10.1435 Y41.0 Z-2.7 I0.7687 J-1.3315
G2 X7.8373 Y39.6685 Z-2.7333 I-1.5375 J0.0
G2 Y42.3315 Z-2.7667 I0.7688 J1.3315
G2 X10.1435 Y41.0 Z-2.8 I0.7687 J-1.3315
G2 X7.8373 Y39.6685 Z-2.8333 I-1.5375 J0.0
G2 Y42.3315 Z-2.8667 I0.7688 J1.3315
G2 X10.1435 Y41.0 Z-2.9 I0.7687 J-1.3315
G2 X7.8373 Y39.6685 Z-2.9333 I-1.5375 J0.0
G2 Y42.3315 Z-2.9667 I0.7688 J1.3315
G2 X10.1435 Y41.0 Z-3.0 I0.7687 J-1.3315
G2 X7.8373 Y39.6685 Z-3.0333 I-1.5375 J0.0
G2 Y42.3315 Z-3.0667 I0.7688 J1.3315
G2 X10.1435 Y41.0 Z-3.1 I0.7687 J-1.3315
G2 X7.8373 Y39.6685 Z-3.1333 I-1.5375 J0.0
G2 Y42.3315 Z-3.1667 I0.7688 J1.3315
G2 X10.1435 Y41.0 Z-3.2 I0.7687 J-1.3315
G2 X7.8373 Y39.6685 I-1.5375 J0.0
G2 Y42.3315 I0.7688 J1.3315
G2 X10.1435 Y41.0 I0.7687 J-1.3315
G0 Z3.0
G0 X21.7875
G0 Z0.25
G1 F1100.0 Z0.0
G2 F2000.0 X19.4813 Y39.6685 Z-0.0333 I-1.5375 J0.0
G2 Y42.3315 Z-0.0667 I0.7688 J1.3315
G2 X21.7875 Y41.0 Z-0.1 I0.7688 J-1.3315
G2 X19.4813 Y39.6685 Z-0.1333 I-1.5375 J0.0
G2 Y42.3315 Z-0.1667 I0.7687 J1.3315
G2 X21.7875 Y41.0 Z-0.2 I0.7688 J-1.3315
G2 X19.4813 Y39.6685 Z-0.2333 I-1.5375 J0.0
G2 Y42.3315 Z-0.2667 I0.7687 J1.3315
G2 X21.7875 Y41.0 Z-0.3 I0.7688 J-1.3315
G2 X19.4813 Y39.6685 Z-0.3333 I-1.5375 J0.0
G2 Y42.3315 Z-0.3667 I0.7688 J1.3315
G2 X21.7875 Y41.0 Z-0.4 I0.7687 J-1.3315
G2 X19.4813 Y39.6685 Z-0.4333 I-1.5375 J0.0
G2 Y42.3315 Z-0.4667 I0.7688 J1.3315
G2 X21.7875 Y41.0 Z-0.5 I0.7687 J-1.3315
G2 X19.4813 Y39.6685 Z-0.5333 I-1.5375 J0.0
G2 Y42.3315 Z-0.5667 I0.7688 J1.3315
G2 X21.7875 Y41.0 Z-0.6 I0.7688 J-1.3315
G2 X19.4813 Y39.6685 Z-0.6333 I-1.5375 J0.0
G2 Y42.3315 Z-0.6667 I0.7687 J1.3315
G2 X21.7875 Y41.0 Z-0.7 I0.7688 J-1.3315
G2 X19.4813 Y39.6685 Z-0.7333 I-1.5375 J0.0
G2 Y42.3315 Z-0.7667 I0.7687 J1.3315
G2 X21.7875 Y41.0 Z-0.8 I0.7688 J-1.3315
G2 X19.4813 Y39.6685 Z-0.8333 I-1.5375 J0.0
G2 Y42.3315 Z-0.8667 I0.7687 J1.3315
G2 X21.7875 Y41.0 Z-0.9 I0.7688 J-1.3315
G2 X19.4813 Y39.6685 Z-0.9333 I-1.5375 J0.0
G2 Y42.3315 Z-0.9667 I0.7687 J1.3315
G2 X21.7875 Y41.0 Z-1.0 I0.7688 J-1.3315
G2 X19.4813 Y39.6685 Z-1.0333 I-1.5375 J0.0
G2 Y42.3315 Z-1.0667 I0.7687 J1.3315
G2 X21.7875 Y41.0 Z-1.1 I0.7688 J-1.3315
G2 X19.4813 Y39.6685 Z-1.1333 I-1.5375 J0.0
G2 X19.4812 Y42.3315 Z-1.1667 I0.7687 J1.3315
G2 X21.7875 Y41.0 Z-1.2 I0.7688 J-1.3315
G2 X19.4813 Y39.6685 Z-1.2333 I-1.5375 J0.0
G2 X19.4812 Y42.3315 Z-1.2667 I0.7687 J1.3315
G2 X21.7875 Y41.0 Z-1.3 I0.7688 J-1.3315
G2 X19.4813 Y39.6685 Z-1.3333 I-1.5375 J0.0
G2 X19.4812 Y42.3315 Z-1.3667 I0.7687 J1.3315
G2 X21.7875 Y41.0 Z-1.4 I0.7688 J-1.3315
G2 X19.4813 Y39.6685 Z-1.4333 I-1.5375 J0.0
G2 X19.4812 Y42.3315 Z-1.4667 I0.7687 J1.3315
G2 X21.7875 Y41.0 Z-1.5 I0.7688 J-1.3315
G2 X19.4813 Y39.6685 Z-1.5333 I-1.5375 J0.0
G2 X19.4812 Y42.3315 Z-1.5667 I0.7687 J1.3315
G2 X21.7875 Y41.0 Z-1.6 I0.7688 J-1.3315
G2 X19.4813 Y39.6685 Z-1.6333 I-1.5375 J0.0
G2 X19.4812 Y42.3315 Z-1.6667 I0.7687 J1.3315
G2 X21.7875 Y41.0 Z-1.7 I0.7688 J-1.3315
G2 X19.4813 Y39.6685 Z-1.7333 I-1.5375 J0.0
G2 X19.4812 Y42.3315 Z-1.7667 I0.7687 J1.3315
G2 X21.7875 Y41.0 Z-1.8 I0.7688 J-1.3315
G2 X19.4813 Y39.6685 Z-1.8333 I-1.5375 J0.0
G2 X19.4812 Y42.3315 Z-1.8667 I0.7687 J1.3315
G2 X21.7875 Y41.0 Z-1.9 I0.7688 J-1.3315
G2 X19.4813 Y39.6685 Z-1.9333 I-1.5375 J0.0
G2 X19.4812 Y42.3315 Z-1.9667 I0.7687 J1.3315
G2 X21.7875 Y41.0 Z-2.0 I0.7688 J-1.3315
G2 X19.4813 Y39.6685 Z-2.0333 I-1.5375 J0.0
G2 X19.4812 Y42.3315 Z-2.0667 I0.7687 J1.3315
G2 X21.7875 Y41.0 Z-2.1 I0.7688 J-1.3315
G2 X19.4813 Y39.6685 Z-2.1333 I-1.5375 J0.0
G2 X19.4812 Y42.3315 Z-2.1667 I0.7687 J1.3315
G2 X21.7875 Y41.0 Z-2.2 I0.7688 J-1.3315
G2 X19.4813 Y39.6685 Z-2.2333 I-1.5375 J0.0
G2 Y42.3315 Z-2.2667 I0.7687 J1.3315
G2 X21.7875 Y41.0 Z-2.3 I0.7688 J-1.3315
G2 X19.4813 Y39.6685 Z-2.3333 I-1.5375 J0.0
G2 Y42.3315 Z-2.3667 I0.7688 J1.3315
G2 X21.7875 Y41.0 Z-2.4 I0.7687 J-1.3315
G2 X19.4813 Y39.6685 Z-2.4333 I-1.5375 J0.0
G2 Y42.3315 Z-2.4667 I0.7688 J1.3315
G2 X21.7875 Y41.0 Z-2.5 I0.7687 J-1.3315
G2 X19.4812 Y39.6685 Z-2.5333 I-1.5375 J0.0
G2 X19.4813 Y42.3315 Z-2.5667 I0.7688 J1.3315
G2 X21.7875 Y41.0 Z-2.6 I0.7687 J-1.3315
G2 X19.4812 Y39.6685 Z-2.6333 I-1.5375 J0.0
G2 X19.4813 Y42.3315 Z-2.6667 I0.7688 J1.3315
G2 X21.7875 Y41.0 Z-2.7 I0.7687 J-1.3315
G2 X19.4812 Y39.6685 Z-2.7333 I-1.5375 J0.0
G2 X19.4813 Y42.3315 Z-2.7667 I0.7688 J1.3315
G2 X21.7875 Y41.0 Z-2.8 I0.7687 J-1.3315
G2 X19.4812 Y39.6685 Z-2.8333 I-1.5375 J0.0
G2 X19.4813 Y42.3315 Z-2.8667 I0.7688 J1.3315
G2 X21.7875 Y41.0 Z-2.9 I0.7687 J-1.3315
G2 X19.4812 Y39.6685 Z-2.9333 I-1.5375 J0.0
G2 X19.4813 Y42.3315 Z-2.9667 I0.7688 J1.3315
G2 X21.7875 Y41.0 Z-3.0 I0.7687 J-1.3315
G2 X19.4812 Y39.6685 Z-3.0333 I-1.5375 J0.0
G2 X19.4813 Y42.3315 Z-3.0667 I0.7688 J1.3315
G2 X21.7875 Y41.0 Z-3.1 I0.7687 J-1.3315
G2 X19.4812 Y39.6685 Z-3.1333 I-1.5375 J0.0
G2 X19.4813 Y42.3315 Z-3.1667 I0.7688 J1.3315
G2 X21.7875 Y41.0 Z-3.2 I0.7687 J-1.3315
G2 X19.4812 Y39.6685 I-1.5375 J0.0
G2 X19.4813 Y42.3315 I0.7688 J1.3315
G2 X21.7875 Y41.0 I0.7687 J-1.3315
G0 Z3.0
G0 X10.0375 Y74.5
G0 Z0.25
G1 F1100.0 Z0.0
G2 F2000.0 X7.7313 Y73.1685 Z-0.0333 I-1.5375 J0.0
G2 Y75.8315 Z-0.0667 I0.7688 J1.3315
G2 X10.0375 Y74.5 Z-0.1 I0.7688 J-1.3315
G2 X7.7313 Y73.1685 Z-0.1333 I-1.5375 J0.0
G2 Y75.8315 Z-0.1667 I0.7687 J1.3315
G2 X10.0375 Y74.5 Z-0.2 I0.7688 J-1.3315
G2 X7.7313 Y73.1685 Z-0.2333 I-1.5375 J0.0
G2 Y75.8315 Z-0.2667 I0.7687 J1.3315
G2 X10.0375 Y74.5 Z-0.3 I0.7688 J-1.3315
G2 X7.7313 Y73.1685 Z-0.3333 I-1.5375 J0.0
G2 Y75.8315 Z-0.3667 I0.7688 J1.3315
G2 X10.0375 Y74.5 Z-0.4 I0.7687 J-1.3315
G2 X7.7312 Y73.1685 Z-0.4333 I-1.5375 J0.0
G2 X7.7313 Y75.8315 Z-0.4667 I0.7688 J1.3315
G2 X10.0375 Y74.5 Z-0.5 I0.7687 J-1.3315
G2 X7.7313 Y73.1685 Z-0.5333 I-1.5375 J0.0
G2 Y75.8315 Z-0.5667 I0.7688 J1.3315
G2 X10.0375 Y74.5 Z-0.6 I0.7687 J-1.3315
G2 X7.7313 Y73.1685 Z-0.6333 I-1.5375 J0.0
G2 X7.7312 Y75.8315 Z-0.6667 I0.7687 J1.3315
G2 X10.0375 Y74.5 Z-0.7 I0.7688 J-1.3315
G2 X7.7313 Y73.1685 Z-0.7333 I-1.5375 J0.0
G2 X7.7312 Y75.8315 Z-0.7667 I0.7687 J1.3315
G2 X10.0375 Y74.5 Z-0.8 I0.7688 J-1.3315
G2 X7.7313 Y73.1685 Z-0.8333 I-1.5375 J0.0
G2 X7.7312 Y75.8315 Z-0.8667 I0.7687 J1.3315
G2 X10.0375 Y74.5 Z-0.9 I0.7688 J-1.3315
G2 X7.7313 Y73.1685 Z-0.9333 I-1.5375 J0.0
G2 X7.7312 Y75.8315 Z-0.9667 I0.7687 J1.3315
G2 X10.0375 Y74.5 Z-1.0 I0.7688 J-1.3315
G2 X7.7313 Y73.1685 Z-1.0333 I-1.5375 J0.0
G2 X7.7312 Y75.8315 Z-1.0667 I0.7687 J1.3315
G2 X10.0375 Y74.5 Z-1.1 I0.7688 J-1.3315
G2 X7.7313 Y73.1685 Z-1.1333 I-1.5375 J0.0
G2 X7.7312 Y75.8315 Z-1.1667 I0.7687 J1.3315
G2 X10.0375 Y74.5 Z-1.2 I0.7688 J-1.3315
G2 X7.7313 Y73.1685 Z-1.2333 I-1.5375 J0.0
G2 X7.7312 Y75.8315 Z-1.2667 I0.7687 J1.3315
G2 X10.0375 Y74.5 Z-1.3 I0.7688 J-1.3315
G2 X7.7313 Y73.1685 Z-1.3333 I-1.5375 J0.0
G2 X7.7312 Y75.8315 Z-1.3667 I0.7687 J1.3315
G2 X10.0375 Y74.5 Z-1.4 I0.7688 J-1.3315
G2 X7.7313 Y73.1685 Z-1.4333 I-1.5375 J0.0
G2 X7.7312 Y75.8315 Z-1.4667 I0.7687 J1.3315
G2 X10.0375 Y74.5 Z-1.5 I0.7688 J-1.3315
G2 X7.7313 Y73.1685 Z-1.5333 I-1.5375 J0.0
G2 X7.7312 Y75.8315 Z-1.5667 I0.7687 J1.3315
G2 X10.0375 Y74.5 Z-1.6 I0.7688 J-1.3315
G2 X7.7313 Y73.1685 Z-1.6333 I-1.5375 J0.0
G2 X7.7312 Y75.8315 Z-1.6667 I0.7687 J1.3315
G2 X10.0375 Y74.5 Z-1.7 I0.7688 J-1.3315
G2 X7.7313 Y73.1685 Z-1.7333 I-1.5375 J0.0
G2 X7.7312 Y75.8315 Z-1.7667 I0.7687 J1.3315
G2 X10.0375 Y74.5 Z-1.8 I0.7688 J-1.3315
G2 X7.7313 Y73.1685 Z-1.8333 I-1.5375 J0.0
G2 X7.7312 Y75.8315 Z-1.8667 I0.7687 J1.3315
G2 X10.0375 Y74.5 Z-1.9 I0.7688 J-1.3315
G2 X7.7313 Y73.1685 Z-1.9333 I-1.5375 J0.0
G2 X7.7312 Y75.8315 Z-1.9667 I0.7687 J1.3315
G2 X10.0375 Y74.5 Z-2.0 I0.7688 J-1.3315
G2 X7.7313 Y73.1685 Z-2.0333 I-1.5375 J0.0
G2 X7.7312 Y75.8315 Z-2.0667 I0.7687 J1.3315
G2 X10.0375 Y74.5 Z-2.1 I0.7688 J-1.3315
G2 X7.7313 Y73.1685 Z-2.1333 I-1.5375 J0.0
G2 X7.7312 Y75.8315 Z-2.1667 I0.7687 J1.3315
G2 X10.0375 Y74.5 Z-2.2 I0.7688 J-1.3315
G2 X7.7313 Y73.1685 Z-2.2333 I-1.5375 J0.0
G2 X7.7312 Y75.8315 Z-2.2667 I0.7687 J1.3315
G2 X10.0375 Y74.5 Z-2.3 I0.7688 J-1.3315
G2 X7.7313 Y73.1685 Z-2.3333 I-1.5375 J0.0
G2 Y75.8315 Z-2.3667 I0.7688 J1.3315
G2 X10.0375 Y74.5 Z-2.4 I0.7687 J-1.3315
G2 X7.7312 Y73.1685 Z-2.4333 I-1.5375 J0.0
G2 X7.7313 Y75.8315 Z-2.4667 I0.7688 J1.3315
G2 X10.0375 Y74.5 Z-2.5 I0.7687 J-1.3315
G2 X7.7312 Y73.1685 Z-2.5333 I-1.5375 J0.0
G2 X7.7313 Y75.8315 Z-2.5667 I0.7688 J1.3315
G2 X10.0375 Y74.5 Z-2.6 I0.7687 J-1.3315
G2 X7.7312 Y73.1685 Z-2.6333 I-1.5375 J0.0
G2 X7.7313 Y75.8315 Z-2.6667 I0.7688 J1.3315
G2 X10.0375 Y74.5 Z-2.7 I0.7687 J-1.3315
G2 X7.7312 Y73.1685 Z-2.7333 I-1.5375 J0.0
G2 X7.7313 Y75.8315 Z-2.7667 I0.7688 J1.3315
G2 X10.0375 Y74.5 Z-2.8 I0.7687 J-1.3315
G2 X7.7312 Y73.1685 Z-2.8333 I-1.5375 J0.0
G2 X7.7313 Y75.8315 Z-2.8667 I0.7688 J1.3315
G2 X10.0375 Y74.5 Z-2.9 I0.7687 J-1.3315
G2 X7.7312 Y73.1685 Z-2.9333 I-1.5375 J0.0
G2 X7.7313 Y75.8315 Z-2.9667 I0.7688 J1.3315
G2 X10.0375 Y74.5 Z-3.0 I0.7687 J-1.3315
G2 X7.7312 Y73.1685 Z-3.0333 I-1.5375 J0.0
G2 X7.7313 Y75.8315 Z-3.0667 I0.7688 J1.3315
G2 X10.0375 Y74.5 Z-3.1 I0.7687 J-1.3315
G2 X7.7312 Y73.1685 Z-3.1333 I-1.5375 J0.0
G2 X7.7313 Y75.8315 Z-3.1667 I0.7688 J1.3315
G2 X10.0375 Y74.5 Z-3.2 I0.7687 J-1.3315
G2 X7.7312 Y73.1685 I-1.5375 J0.0
G2 X7.7313 Y75.8315 I0.7688 J1.3315
G2 X10.0375 Y74.5 I0.7687 J-1.3315
G0 Z3.0
G0 X10.1435 Y100.25
G0 Z0.25
G1 F1100.0 Z0.0
G2 F2000.0 X7.8373 Y98.9185 Z-0.0333 I-1.5375 J0.0
G2 Y101.5815 Z-0.0667 I0.7688 J1.3315
G2 X10.1435 Y100.25 Z-0.1 I0.7688 J-1.3315
G2 X7.8373 Y98.9185 Z-0.1333 I-1.5375 J0.0
G2 Y101.5815 Z-0.1667 I0.7687 J1.3315
G2 X10.1435 Y100.25 Z-0.2 I0.7688 J-1.3315
G2 X7.8373 Y98.9185 Z-0.2333 I-1.5375 J0.0
G2 Y101.5815 Z-0.2667 I0.7687 J1.3315
G2 X10.1435 Y100.25 Z-0.3 I0.7688 J-1.3315
G2 X7.8373 Y98.9185 Z-0.3333 I-1.5375 J0.0
G2 Y101.5815 Z-0.3667 I0.7688 J1.3315
G2 X10.1435 Y100.25 Z-0.4 I0.7687 J-1.3315
G2 X7.8373 Y98.9185 Z-0.4333 I-1.5375 J0.0
G2 Y101.5815 Z-0.4667 I0.7688 J1.3315
G2 X10.1435 Y100.25 Z-0.5 I0.7687 J-1.3315
G2 X7.8373 Y98.9185 Z-0.5333 I-1.5375 J0.0
G2 Y101.5815 Z-0.5667 I0.7688 J1.3315
G2 X10.1435 Y100.25 Z-0.6 I0.7687 J-1.3315
G2 X7.8373 Y98.9185 Z-0.6333 I-1.5375 J0.0
G2 Y101.5815 Z-0.6667 I0.7687 J1.3315
G2 X10.1435 Y100.25 Z-0.7 I0.7688 J-1.3315
G2 X7.8373 Y98.9185 Z-0.7333 I-1.5375 J0.0
G2 Y101.5815 Z-0.7667 I0.7687 J1.3315
G2 X10.1435 Y100.25 Z-0.8 I0.7688 J-1.3315
G2 X7.8373 Y98.9185 Z-0.8333 I-1.5375 J0.0
G2 Y101.5815 Z-0.8667 I0.7687 J1.3315
G2 X10.1435 Y100.25 Z-0.9 I0.7688 J-1.3315
G2 X7.8373 Y98.9185 Z-0.9333 I-1.5375 J0.0
G2 Y101.5815 Z-0.9667 I0.7687 J1.3315
G2 X10.1435 Y100.25 Z-1.0 I0.7688 J-1.3315
G2 X7.8373 Y98.9185 Z-1.0333 I-1.5375 J0.0
G2 Y101.5815 Z-1.0667 I0.7687 J1.3315
G2 X10.1435 Y100.25 Z-1.1 I0.7688 J-1.3315
G2 X7.8373 Y98.9185 Z-1.1333 I-1.5375 J0.0
G2 Y101.5815 Z-1.1667 I0.7687 J1.3315
G2 X10.1435 Y100.25 Z-1.2 I0.7688 J-1.3315
G2 X7.8373 Y98.9185 Z-1.2333 I-1.5375 J0.0
G2 Y101.5815 Z-1.2667 I0.7687 J1.3315
G2 X10.1435 Y100.25 Z-1.3 I0.7688 J-1.3315
G2 X7.8373 Y98.9185 Z-1.3333 I-1.5375 J0.0
G2 Y101.5815 Z-1.3667 I0.7687 J1.3315
G2 X10.1435 Y100.25 Z-1.4 I0.7688 J-1.3315
G2 X7.8373 Y98.9185 Z-1.4333 I-1.5375 J0.0
G2 Y101.5815 Z-1.4667 I0.7687 J1.3315
G2 X10.1435 Y100.25 Z-1.5 I0.7688 J-1.3315
G2 X7.8373 Y98.9185 Z-1.5333 I-1.5375 J0.0
G2 Y101.5815 Z-1.5667 I0.7687 J1.3315
G2 X10.1435 Y100.25 Z-1.6 I0.7688 J-1.3315
G2 X7.8373 Y98.9185 Z-1.6333 I-1.5375 J0.0
G2 Y101.5815 Z-1.6667 I0.7687 J1.3315
G2 X10.1435 Y100.25 Z-1.7 I0.7688 J-1.3315
G2 X7.8373 Y98.9185 Z-1.7333 I-1.5375 J0.0
G2 Y101.5815 Z-1.7667 I0.7687 J1.3315
G2 X10.1435 Y100.25 Z-1.8 I0.7688 J-1.3315
G2 X7.8373 Y98.9185 Z-1.8333 I-1.5375 J0.0
G2 Y101.5815 Z-1.8667 I0.7687 J1.3315
G2 X10.1435 Y100.25 Z-1.9 I0.7688 J-1.3315
G2 X7.8373 Y98.9185 Z-1.9333 I-1.5375 J0.0
G2 Y101.5815 Z-1.9667 I0.7687 J1.3315
G2 X10.1435 Y100.25 Z-2.0 I0.7688 J-1.3315
G2 X7.8373 Y98.9185 Z-2.0333 I-1.5375 J0.0
G2 Y101.5815 Z-2.0667 I0.7687 J1.3315
G2 X10.1435 Y100.25 Z-2.1 I0.7688 J-1.3315
G2 X7.8373 Y98.9185 Z-2.1333 I-1.5375 J0.0
G2 Y101.5815 Z-2.1667 I0.7687 J1.3315
G2 X10.1435 Y100.25 Z-2.2 I0.7688 J-1.3315
G2 X7.8373 Y98.9185 Z-2.2333 I-1.5375 J0.0
G2 Y101.5815 Z-2.2667 I0.7687 J1.3315
G2 X10.1435 Y100.25 Z-2.3 I0.7688 J-1.3315
G2 X7.8373 Y98.9185 Z-2.3333 I-1.5375 J0.0
G2 Y101.5815 Z-2.3667 I0.7688 J1.3315
G2 X10.1435 Y100.25 Z-2.4 I0.7687 J-1.3315
G2 X7.8373 Y98.9185 Z-2.4333 I-1.5375 J0.0
G2 Y101.5815 Z-2.4667 I0.7688 J1.3315
G2 X10.1435 Y100.25 Z-2.5 I0.7687 J-1.3315
G2 X7.8373 Y98.9185 Z-2.5333 I-1.5375 J0.0
G2 Y101.5815 Z-2.5667 I0.7688 J1.3315
G2 X10.1435 Y100.25 Z-2.6 I0.7687 J-1.3315
G2 X7.8373 Y98.9185 Z-2.6333 I-1.5375 J0.0
G2 Y101.5815 Z-2.6667 I0.7688 J1.3315
G2 X10.1435 Y100.25 Z-2.7 I0.7687 J-1.3315
G2 X7.8373 Y98.9185 Z-2.7333 I-1.5375 J0.0
G2 Y101.5815 Z-2.7667 I0.7688 J1.3315
G2 X10.1435 Y100.25 Z-2.8 I0.7687 J-1.3315
G2 X7.8373 Y98.9185 Z-2.8333 I-1.5375 J0.0
G2 Y101.5815 Z-2.8667 I0.7688 J1.3315
G2 X10.1435 Y100.25 Z-2.9 I0.7687 J-1.3315
G2 X7.8373 Y98.9185 Z-2.9333 I-1.5375 J0.0
G2 Y101.5815 Z-2.9667 I0.7688 J1.3315
G2 X10.1435 Y100.25 Z-3.0 I0.7687 J-1.3315
G2 X7.8373 Y98.9185 Z-3.0333 I-1.5375 J0.0
G2 Y101.5815 Z-3.0667 I0.7688 J1.3315
G2 X10.1435 Y100.25 Z-3.1 I0.7687 J-1.3315
G2 X7.8373 Y98.9185 Z-3.1333 I-1.5375 J0.0
G2 Y101.5815 Z-3.1667 I0.7688 J1.3315
G2 X10.1435 Y100.25 Z-3.2 I0.7687 J-1.3315
G2 X7.8373 Y98.9185 I-1.5375 J0.0
G2 Y101.5815 I0.7688 J1.3315
G2 X10.1435 Y100.25 I0.7687 J-1.3315
G0 Z3.0
G0 X21.7875
G0 Z0.25
G1 F1100.0 Z0.0
G2 F2000.0 X19.4813 Y98.9185 Z-0.0333 I-1.5375 J0.0
G2 Y101.5815 Z-0.0667 I0.7688 J1.3315
G2 X21.7875 Y100.25 Z-0.1 I0.7688 J-1.3315
G2 X19.4813 Y98.9185 Z-0.1333 I-1.5375 J0.0
G2 Y101.5815 Z-0.1667 I0.7687 J1.3315
G2 X21.7875 Y100.25 Z-0.2 I0.7688 J-1.3315
G2 X19.4813 Y98.9185 Z-0.2333 I-1.5375 J0.0
G2 Y101.5815 Z-0.2667 I0.7687 J1.3315
G2 X21.7875 Y100.25 Z-0.3 I0.7688 J-1.3315
G2 X19.4813 Y98.9185 Z-0.3333 I-1.5375 J0.0
G2 Y101.5815 Z-0.3667 I0.7688 J1.3315
G2 X21.7875 Y100.25 Z-0.4 I0.7688 J-1.3315
G2 X19.4813 Y98.9185 Z-0.4333 I-1.5375 J0.0
G2 Y101.5815 Z-0.4667 I0.7688 J1.3315
G2 X21.7875 Y100.25 Z-0.5 I0.7687 J-1.3315
G2 X19.4813 Y98.9185 Z-0.5333 I-1.5375 J0.0
G2 Y101.5815 Z-0.5667 I0.7688 J1.3315
G2 X21.7875 Y100.25 Z-0.6 I0.7688 J-1.3315
G2 X19.4813 Y98.9185 Z-0.6333 I-1.5375 J0.0
G2 Y101.5815 Z-0.6667 I0.7687 J1.3315
G2 X21.7875 Y100.25 Z-0.7 I0.7688 J-1.3315
G2 X19.4813 Y98.9185 Z-0.7333 I-1.5375 J0.0
G2 Y101.5815 Z-0.7667 I0.7687 J1.3315
G2 X21.7875 Y100.25 Z-0.8 I0.7688 J-1.3315
G2 X19.4813 Y98.9185 Z-0.8333 I-1.5375 J0.0
G2 Y101.5815 Z-0.8667 I0.7687 J1.3315
G2 X21.7875 Y100.25 Z-0.9 I0.7688 J-1.3315
G2 X19.4813 Y98.9185 Z-0.9333 I-1.5375 J0.0
G2 Y101.5815 Z-0.9667 I0.7687 J1.3315
G2 X21.7875 Y100.25 Z-1.0 I0.7688 J-1.3315
G2 X19.4813 Y98.9185 Z-1.0333 I-1.5375 J0.0
G2 Y101.5815 Z-1.0667 I0.7687 J1.3315
G2 X21.7875 Y100.25 Z-1.1 I0.7688 J-1.3315
G2 X19.4813 Y98.9185 Z-1.1333 I-1.5375 J0.0
G2 X19.4812 Y101.5815 Z-1.1667 I0.7687 J1.3315
G2 X21.7875 Y100.25 Z-1.2 I0.7688 J-1.3315
G2 X19.4813 Y98.9185 Z-1.2333 I-1.5375 J0.0
G2 X19.4812 Y101.5815 Z-1.2667 I0.7687 J1.3315
G2 X21.7875 Y100.25 Z-1.3 I0.7688 J-1.3315
G2 X19.4813 Y98.9185 Z-1.3333 I-1.5375 J0.0
G2 X19.4812 Y101.5815 Z-1.3667 I0.7687 J1.3315
G2 X21.7875 Y100.25 Z-1.4 I0.7688 J-1.3315
G2 X19.4813 Y98.9185 Z-1.4333 I-1.5375 J0.0
G2 X19.4812 Y101.5815 Z-1.4667 I0.7687 J1.3315
G2 X21.7875 Y100.25 Z-1.5 I0.7688 J-1.3315
G2 X19.4813 Y98.9185 Z-1.5333 I-1.5375 J0.0
G2 X19.4812 Y101.5815 Z-1.5667 I0.7687 J1.3315
G2 X21.7875 Y100.25 Z-1.6 I0.7688 J-1.3315
G2 X19.4813 Y98.9185 Z-1.6333 I-1.5375 J0.0
G2 X19.4812 Y101.5815 Z-1.6667 I0.7687 J1.3315
G2 X21.7875 Y100.25 Z-1.7 I0.7688 J-1.3315
G2 X19.4813 Y98.9185 Z-1.7333 I-1.5375 J0.0
G2 X19.4812 Y101.5815 Z-1.7667 I0.7687 J1.3315
G2 X21.7875 Y100.25 Z-1.8 I0.7688 J-1.3315
G2 X19.4813 Y98.9185 Z-1.8333 I-1.5375 J0.0
G2 X19.4812 Y101.5815 Z-1.8667 I0.7687 J1.3315
G2 X21.7875 Y100.25 Z-1.9 I0.7688 J-1.3315
G2 X19.4813 Y98.9185 Z-1.9333 I-1.5375 J0.0
G2 X19.4812 Y101.5815 Z-1.9667 I0.7687 J1.3315
G2 X21.7875 Y100.25 Z-2.0 I0.7688 J-1.3315
G2 X19.4813 Y98.9185 Z-2.0333 I-1.5375 J0.0
G2 X19.4812 Y101.5815 Z-2.0667 I0.7687 J1.3315
G2 X21.7875 Y100.25 Z-2.1 I0.7688 J-1.3315
G2 X19.4813 Y98.9185 Z-2.1333 I-1.5375 J0.0
G2 X19.4812 Y101.5815 Z-2.1667 I0.7687 J1.3315
G2 X21.7875 Y100.25 Z-2.2 I0.7688 J-1.3315
G2 X19.4813 Y98.9185 Z-2.2333 I-1.5375 J0.0
G2 Y101.5815 Z-2.2667 I0.7687 J1.3315
G2 X21.7875 Y100.25 Z-2.3 I0.7688 J-1.3315
G2 X19.4813 Y98.9185 Z-2.3333 I-1.5375 J0.0
G2 Y101.5815 Z-2.3667 I0.7688 J1.3315
G2 X21.7875 Y100.25 Z-2.4 I0.7687 J-1.3315
G2 X19.4813 Y98.9185 Z-2.4333 I-1.5375 J0.0
G2 Y101.5815 Z-2.4667 I0.7688 J1.3315
G2 X21.7875 Y100.25 Z-2.5 I0.7687 J-1.3315
G2 X19.4812 Y98.9185 Z-2.5333 I-1.5375 J0.0
G2 X19.4813 Y101.5815 Z-2.5667 I0.7688 J1.3315
G2 X21.7875 Y100.25 Z-2.6 I0.7687 J-1.3315
G2 X19.4812 Y98.9185 Z-2.6333 I-1.5375 J0.0
G2 X19.4813 Y101.5815 Z-2.6667 I0.7688 J1.3315
G2 X21.7875 Y100.25 Z-2.7 I0.7687 J-1.3315
G2 X19.4812 Y98.9185 Z-2.7333 I-1.5375 J0.0
G2 X19.4813 Y101.5815 Z-2.7667 I0.7688 J1.3315
G2 X21.7875 Y100.25 Z-2.8 I0.7687 J-1.3315
G2 X19.4812 Y98.9185 Z-2.8333 I-1.5375 J0.0
G2 X19.4813 Y101.5815 Z-2.8667 I0.7688 J1.3315
G2 X21.7875 Y100.25 Z-2.9 I0.7687 J-1.3315
G2 X19.4812 Y98.9185 Z-2.9333 I-1.5375 J0.0
G2 X19.4813 Y101.5815 Z-2.9667 I0.7688 J1.3315
G2 X21.7875 Y100.25 Z-3.0 I0.7687 J-1.3315
G2 X19.4812 Y98.9185 Z-3.0333 I-1.5375 J0.0
G2 X19.4813 Y101.5815 Z-3.0667 I0.7688 J1.3315
G2 X21.7875 Y100.25 Z-3.1 I0.7687 J-1.3315
G2 X19.4812 Y98.9185 Z-3.1333 I-1.5375 J0.0
G2 X19.4813 Y101.5815 Z-3.1667 I0.7688 J1.3315
G2 X21.7875 Y100.25 Z-3.2 I0.7687 J-1.3315
G2 X19.4812 Y98.9185 I-1.5375 J0.0
G2 X19.4813 Y101.5815 I0.7688 J1.3315
G2 X21.7875 Y100.25 I0.7687 J-1.3315
( Pocket1 )
S1000
G0 Z3.0
G0 X38.4575 Y66.25
G0 Z0.25
G1 F1000.0 Z-0.1
G2 F2000.0 X38.1463 Y66.0703 I-0.2075 J0.0
G2 Y66.4297 I0.1037 J0.1797
G2 X38.4575 Y66.25 I0.1038 J-0.1797
G1 F1000.0 X39.0925
G2 F2000.0 X37.8288 Y65.5204 I-0.8425 J0.0
G2 Y66.9796 I0.4213 J0.7296
G2 X39.0925 Y66.25 I0.4213 J-0.7296
G1 F1000.0 X40.3625
G2 F2000.0 X37.1938 Y64.4205 I-2.1125 J0.0
G2 Y68.0795 I1.0563 J1.8295
G2 X40.3625 Y66.25 I1.0563 J-1.8295
G1 F1000.0 X38.4575
G1 Z-0.2
G2 F2000.0 X38.1463 Y66.0703 I-0.2075 J0.0
G2 Y66.4297 I0.1037 J0.1797
G2 X38.4575 Y66.25 I0.1038 J-0.1797
G1 F1000.0 X39.0925
G2 F2000.0 X37.8288 Y65.5204 I-0.8425 J0.0
G2 Y66.9796 I0.4213 J0.7296
G2 X39.0925 Y66.25 I0.4213 J-0.7296
G1 F1000.0 X40.3625
G2 F2000.0 X37.1938 Y64.4205 I-2.1125 J0.0
G2 Y68.0795 I1.0563 J1.8295
G2 X40.3625 Y66.25 I1.0563 J-1.8295
G1 F1000.0 X38.4575
G1 Z-0.3
G2 F2000.0 X38.1463 Y66.0703 I-0.2075 J0.0
G2 Y66.4297 I0.1037 J0.1797
G2 X38.4575 Y66.25 I0.1038 J-0.1797
G1 F1000.0 X39.0925
G2 F2000.0 X37.8288 Y65.5204 I-0.8425 J0.0
G2 Y66.9796 I0.4213 J0.7296
G2 X39.0925 Y66.25 I0.4213 J-0.7296
G1 F1000.0 X40.3625
G2 F2000.0 X37.1938 Y64.4205 I-2.1125 J0.0
G2 Y68.0795 I1.0563 J1.8295
G2 X40.3625 Y66.25 I1.0563 J-1.8295
G1 F1000.0 X38.4575
G1 Z-0.4
G2 F2000.0 X38.1463 Y66.0703 I-0.2075 J0.0
G2 Y66.4297 I0.1037 J0.1797
G2 X38.4575 Y66.25 I0.1038 J-0.1797
G1 F1000.0 X39.0925
G2 F2000.0 X37.8288 Y65.5204 I-0.8425 J0.0
G2 Y66.9796 I0.4213 J0.7296
G2 X39.0925 Y66.25 I0.4213 J-0.7296
G1 F1000.0 X40.3625
G2 F2000.0 X37.1938 Y64.4205 I-2.1125 J0.0
G2 Y68.0795 I1.0563 J1.8295
G2 X40.3625 Y66.25 I1.0563 J-1.8295
G1 F1000.0 X38.4575
G1 Z-0.5
G2 F2000.0 X38.1463 Y66.0703 I-0.2075 J0.0
G2 Y66.4297 I0.1037 J0.1797
G2 X38.4575 Y66.25 I0.1038 J-0.1797
G1 F1000.0 X39.0925
G2 F2000.0 X37.8288 Y65.5204 I-0.8425 J0.0
G2 Y66.9796 I0.4213 J0.7296
G2 X39.0925 Y66.25 I0.4213 J-0.7296
G1 F1000.0 X40.3625
G2 F2000.0 X37.1938 Y64.4205 I-2.1125 J0.0
G2 Y68.0795 I1.0563 J1.8295
G2 X40.3625 Y66.25 I1.0563 J-1.8295
G1 F1000.0 X38.4575
G1 Z-0.6
G2 F2000.0 X38.1463 Y66.0703 I-0.2075 J0.0
G2 Y66.4297 I0.1037 J0.1797
G2 X38.4575 Y66.25 I0.1038 J-0.1797
G1 F1000.0 X39.0925
G2 F2000.0 X37.8288 Y65.5204 I-0.8425 J0.0
G2 Y66.9796 I0.4213 J0.7296
G2 X39.0925 Y66.25 I0.4213 J-0.7296
G1 F1000.0 X40.3625
G2 F2000.0 X37.1938 Y64.4205 I-2.1125 J0.0
G2 Y68.0795 I1.0563 J1.8295
G2 X40.3625 Y66.25 I1.0563 J-1.8295
G1 F1000.0 X38.4575
G1 Z-0.7
G2 F2000.0 X38.1463 Y66.0703 I-0.2075 J0.0
G2 Y66.4297 I0.1037 J0.1797
G2 X38.4575 Y66.25 I0.1038 J-0.1797
G1 F1000.0 X39.0925
G2 F2000.0 X37.8288 Y65.5204 I-0.8425 J0.0
G2 Y66.9796 I0.4213 J0.7296
G2 X39.0925 Y66.25 I0.4213 J-0.7296
G1 F1000.0 X40.3625
G2 F2000.0 X37.1938 Y64.4205 I-2.1125 J0.0
G2 Y68.0795 I1.0563 J1.8295
G2 X40.3625 Y66.25 I1.0563 J-1.8295
G1 F1000.0 X38.4575
G1 Z-0.8
G2 F2000.0 X38.1463 Y66.0703 I-0.2075 J0.0
G2 Y66.4297 I0.1037 J0.1797
G2 X38.4575 Y66.25 I0.1038 J-0.1797
G1 F1000.0 X39.0925
G2 F2000.0 X37.8288 Y65.5204 I-0.8425 J0.0
G2 Y66.9796 I0.4213 J0.7296
G2 X39.0925 Y66.25 I0.4213 J-0.7296
G1 F1000.0 X40.3625
G2 F2000.0 X37.1938 Y64.4205 I-2.1125 J0.0
G2 Y68.0795 I1.0563 J1.8295
G2 X40.3625 Y66.25 I1.0563 J-1.8295
G1 F1000.0 X38.4575
G1 Z-0.9
G2 F2000.0 X38.1463 Y66.0703 I-0.2075 J0.0
G2 Y66.4297 I0.1037 J0.1797
G2 X38.4575 Y66.25 I0.1038 J-0.1797
G1 F1000.0 X39.0925
G2 F2000.0 X37.8288 Y65.5204 I-0.8425 J0.0
G2 Y66.9796 I0.4213 J0.7296
G2 X39.0925 Y66.25 I0.4213 J-0.7296
G1 F1000.0 X40.3625
G2 F2000.0 X37.1938 Y64.4205 I-2.1125 J0.0
G2 Y68.0795 I1.0563 J1.8295
G2 X40.3625 Y66.25 I1.0563 J-1.8295
G1 F1000.0 X38.4575
G1 Z-1.0
G2 F2000.0 X38.1463 Y66.0703 I-0.2075 J0.0
G2 Y66.4297 I0.1037 J0.1797
G2 X38.4575 Y66.25 I0.1038 J-0.1797
G1 F1000.0 X39.0925
G2 F2000.0 X37.8288 Y65.5204 I-0.8425 J0.0
G2 Y66.9796 I0.4213 J0.7296
G2 X39.0925 Y66.25 I0.4213 J-0.7296
G1 F1000.0 X40.3625
G2 F2000.0 X37.1938 Y64.4205 I-2.1125 J0.0
G2 Y68.0795 I1.0563 J1.8295
G2 X40.3625 Y66.25 I1.0563 J-1.8295
G1 F1000.0 X38.4575
G1 Z-1.1
G2 F2000.0 X38.1463 Y66.0703 I-0.2075 J0.0
G2 Y66.4297 I0.1037 J0.1797
G2 X38.4575 Y66.25 I0.1038 J-0.1797
G1 F1000.0 X39.0925
G2 F2000.0 X37.8288 Y65.5204 I-0.8425 J0.0
G2 Y66.9796 I0.4213 J0.7296
G2 X39.0925 Y66.25 I0.4213 J-0.7296
G1 F1000.0 X40.3625
G2 F2000.0 X37.1938 Y64.4205 I-2.1125 J0.0
G2 Y68.0795 I1.0563 J1.8295
G2 X40.3625 Y66.25 I1.0563 J-1.8295
G1 F1000.0 X38.4575
G1 Z-1.2
G2 F2000.0 X38.1463 Y66.0703 I-0.2075 J0.0
G2 Y66.4297 I0.1037 J0.1797
G2 X38.4575 Y66.25 I0.1038 J-0.1797
G1 F1000.0 X39.0925
G2 F2000.0 X37.8288 Y65.5204 I-0.8425 J0.0
G2 Y66.9796 I0.4213 J0.7296
G2 X39.0925 Y66.25 I0.4213 J-0.7296
G1 F1000.0 X40.3625
G2 F2000.0 X37.1938 Y64.4205 I-2.1125 J0.0
G2 Y68.0795 I1.0563 J1.8295
G2 X40.3625 Y66.25 I1.0563 J-1.8295
G1 F1000.0 X38.4575
G1 Z-1.3
G2 F2000.0 X38.1463 Y66.0703 I-0.2075 J0.0
G2 Y66.4297 I0.1037 J0.1797
G2 X38.4575 Y66.25 I0.1038 J-0.1797
G1 F1000.0 X39.0925
G2 F2000.0 X37.8288 Y65.5204 I-0.8425 J0.0
G2 Y66.9796 I0.4213 J0.7296
G2 X39.0925 Y66.25 I0.4213 J-0.7296
G1 F1000.0 X40.3625
G2 F2000.0 X37.1938 Y64.4205 I-2.1125 J0.0
G2 Y68.0795 I1.0563 J1.8295
G2 X40.3625 Y66.25 I1.0563 J-1.8295
G1 F1000.0 X38.4575
G1 Z-1.4
G2 F2000.0 X38.1463 Y66.0703 I-0.2075 J0.0
G2 Y66.4297 I0.1037 J0.1797
G2 X38.4575 Y66.25 I0.1038 J-0.1797
G1 F1000.0 X39.0925
G2 F2000.0 X37.8288 Y65.5204 I-0.8425 J0.0
G2 Y66.9796 I0.4213 J0.7296
G2 X39.0925 Y66.25 I0.4213 J-0.7296
G1 F1000.0 X40.3625
G2 F2000.0 X37.1938 Y64.4205 I-2.1125 J0.0
G2 Y68.0795 I1.0563 J1.8295
G2 X40.3625 Y66.25 I1.0563 J-1.8295
G1 F1000.0 X38.4575
G1 Z-1.5
G2 F2000.0 X38.1463 Y66.0703 I-0.2075 J0.0
G2 Y66.4297 I0.1037 J0.1797
G2 X38.4575 Y66.25 I0.1038 J-0.1797
G1 F1000.0 X39.0925
G2 F2000.0 X37.8288 Y65.5204 I-0.8425 J0.0
G2 Y66.9796 I0.4213 J0.7296
G2 X39.0925 Y66.25 I0.4213 J-0.7296
G1 F1000.0 X40.3625
G2 F2000.0 X37.1938 Y64.4205 I-2.1125 J0.0
G2 Y68.0795 I1.0563 J1.8295
G2 X40.3625 Y66.25 I1.0563 J-1.8295
G1 F1000.0 X38.4575
G1 Z-1.6
G2 F2000.0 X38.1463 Y66.0703 I-0.2075 J0.0
G2 Y66.4297 I0.1037 J0.1797
G2 X38.4575 Y66.25 I0.1038 J-0.1797
G1 F1000.0 X39.0925
G2 F2000.0 X37.8288 Y65.5204 I-0.8425 J0.0
G2 Y66.9796 I0.4213 J0.7296
G2 X39.0925 Y66.25 I0.4213 J-0.7296
G1 F1000.0 X40.3625
G2 F2000.0 X37.1938 Y64.4205 I-2.1125 J0.0
G2 Y68.0795 I1.0563 J1.8295
G2 X40.3625 Y66.25 I1.0563 J-1.8295
G1 F1000.0 X38.4575
G1 Z-1.7
G2 F2000.0 X38.1463 Y66.0703 I-0.2075 J0.0
G2 Y66.4297 I0.1037 J0.1797
G2 X38.4575 Y66.25 I0.1038 J-0.1797
G1 F1000.0 X39.0925
G2 F2000.0 X37.8288 Y65.5204 I-0.8425 J0.0
G2 Y66.9796 I0.4213 J0.7296
G2 X39.0925 Y66.25 I0.4213 J-0.7296
G1 F1000.0 X40.3625
G2 F2000.0 X37.1938 Y64.4205 I-2.1125 J0.0
G2 Y68.0795 I1.0563 J1.8295
G2 X40.3625 Y66.25 I1.0563 J-1.8295
G1 F1000.0 X38.4575
G1 Z-1.8
G2 F2000.0 X38.1463 Y66.0703 I-0.2075 J0.0
G2 Y66.4297 I0.1037 J0.1797
G2 X38.4575 Y66.25 I0.1038 J-0.1797
G1 F1000.0 X39.0925
G2 F2000.0 X37.8288 Y65.5204 I-0.8425 J0.0
G2 Y66.9796 I0.4213 J0.7296
G2 X39.0925 Y66.25 I0.4213 J-0.7296
G1 F1000.0 X40.3625
G2 F2000.0 X37.1938 Y64.4205 I-2.1125 J0.0
G2 Y68.0795 I1.0563 J1.8295
G2 X40.3625 Y66.25 I1.0563 J-1.8295
G1 F1000.0 X38.4575
G1 Z-1.9
G2 F2000.0 X38.1463 Y66.0703 I-0.2075 J0.0
G2 Y66.4297 I0.1037 J0.1797
G2 X38.4575 Y66.25 I0.1038 J-0.1797
G1 F1000.0 X39.0925
G2 F2000.0 X37.8288 Y65.5204 I-0.8425 J0.0
G2 Y66.9796 I0.4213 J0.7296
G2 X39.0925 Y66.25 I0.4213 J-0.7296
G1 F1000.0 X40.3625
G2 F2000.0 X37.1938 Y64.4205 I-2.1125 J0.0
G2 Y68.0795 I1.0563 J1.8295
G2 X40.3625 Y66.25 I1.0563 J-1.8295
G1 F1000.0 X38.4575
G1 Z-2.0
G2 F2000.0 X38.1463 Y66.0703 I-0.2075 J0.0
G2 Y66.4297 I0.1037 J0.1797
G2 X38.4575 Y66.25 I0.1038 J-0.1797
G1 F1000.0 X39.0925
G2 F2000.0 X37.8288 Y65.5204 I-0.8425 J0.0
G2 Y66.9796 I0.4213 J0.7296
G2 X39.0925 Y66.25 I0.4213 J-0.7296
G1 F1000.0 X40.3625
G2 F2000.0 X37.1938 Y64.4205 I-2.1125 J0.0
G2 Y68.0795 I1.0563 J1.8295
G2 X40.3625 Y66.25 I1.0563 J-1.8295
G1 F1000.0 X38.4575
G1 Z-2.1
G2 F2000.0 X38.1463 Y66.0703 I-0.2075 J0.0
G2 Y66.4297 I0.1037 J0.1797
G2 X38.4575 Y66.25 I0.1038 J-0.1797
G1 F1000.0 X39.0925
G2 F2000.0 X37.8288 Y65.5204 I-0.8425 J0.0
G2 Y66.9796 I0.4213 J0.7296
G2 X39.0925 Y66.25 I0.4213 J-0.7296
G1 F1000.0 X40.3625
G2 F2000.0 X37.1938 Y64.4205 I-2.1125 J0.0
G2 Y68.0795 I1.0563 J1.8295
G2 X40.3625 Y66.25 I1.0563 J-1.8295
G1 F1000.0 X38.4575
G1 Z-2.2
G2 F2000.0 X38.1463 Y66.0703 I-0.2075 J0.0
G2 Y66.4297 I0.1037 J0.1797
G2 X38.4575 Y66.25 I0.1038 J-0.1797
G1 F1000.0 X39.0925
G2 F2000.0 X37.8288 Y65.5204 I-0.8425 J0.0
G2 Y66.9796 I0.4213 J0.7296
G2 X39.0925 Y66.25 I0.4213 J-0.7296
G1 F1000.0 X40.3625
G2 F2000.0 X37.1938 Y64.4205 I-2.1125 J0.0
G2 Y68.0795 I1.0563 J1.8295
G2 X40.3625 Y66.25 I1.0563 J-1.8295
G1 F1000.0 X38.4575
G1 Z-2.3
G2 F2000.0 X38.1463 Y66.0703 I-0.2075 J0.0
G2 Y66.4297 I0.1037 J0.1797
G2 X38.4575 Y66.25 I0.1038 J-0.1797
G1 F1000.0 X39.0925
G2 F2000.0 X37.8288 Y65.5204 I-0.8425 J0.0
G2 Y66.9796 I0.4213 J0.7296
G2 X39.0925 Y66.25 I0.4213 J-0.7296
G1 F1000.0 X40.3625
G2 F2000.0 X37.1938 Y64.4205 I-2.1125 J0.0
G2 Y68.0795 I1.0563 J1.8295
G2 X40.3625 Y66.25 I1.0563 J-1.8295
G1 F1000.0 X38.4575
G1 Z-2.4
G2 F2000.0 X38.1463 Y66.0703 I-0.2075 J0.0
G2 Y66.4297 I0.1037 J0.1797
G2 X38.4575 Y66.25 I0.1038 J-0.1797
G1 F1000.0 X39.0925
G2 F2000.0 X37.8288 Y65.5204 I-0.8425 J0.0
G2 Y66.9796 I0.4213 J0.7296
G2 X39.0925 Y66.25 I0.4213 J-0.7296
G1 F1000.0 X40.3625
G2 F2000.0 X37.1938 Y64.4205 I-2.1125 J0.0
G2 Y68.0795 I1.0563 J1.8295
G2 X40.3625 Y66.25 I1.0563 J-1.8295
G1 F1000.0 X38.4575
G1 Z-2.5
G2 F2000.0 X38.1463 Y66.0703 I-0.2075 J0.0
G2 Y66.4297 I0.1037 J0.1797
G2 X38.4575 Y66.25 I0.1038 J-0.1797
G1 F1000.0 X39.0925
G2 F2000.0 X37.8288 Y65.5204 I-0.8425 J0.0
G2 Y66.9796 I0.4213 J0.7296
G2 X39.0925 Y66.25 I0.4213 J-0.7296
G1 F1000.0 X40.3625
G2 F2000.0 X37.1938 Y64.4205 I-2.1125 J0.0
G2 Y68.0795 I1.0563 J1.8295
G2 X40.3625 Y66.25 I1.0563 J-1.8295
G1 F1000.0 X38.4575
G1 Z-2.6
G2 F2000.0 X38.1463 Y66.0703 I-0.2075 J0.0
G2 Y66.4297 I0.1037 J0.1797
G2 X38.4575 Y66.25 I0.1038 J-0.1797
G1 F1000.0 X39.0925
G2 F2000.0 X37.8288 Y65.5204 I-0.8425 J0.0
G2 Y66.9796 I0.4213 J0.7296
G2 X39.0925 Y66.25 I0.4213 J-0.7296
G1 F1000.0 X40.3625
G2 F2000.0 X37.1938 Y64.4205 I-2.1125 J0.0
G2 Y68.0795 I1.0563 J1.8295
G2 X40.3625 Y66.25 I1.0563 J-1.8295
G1 F1000.0 X38.4575
G1 Z-2.7
G2 F2000.0 X38.1463 Y66.0703 I-0.2075 J0.0
G2 Y66.4297 I0.1037 J0.1797
G2 X38.4575 Y66.25 I0.1038 J-0.1797
G1 F1000.0 X39.0925
G2 F2000.0 X37.8288 Y65.5204 I-0.8425 J0.0
G2 Y66.9796 I0.4213 J0.7296
G2 X39.0925 Y66.25 I0.4213 J-0.7296
G1 F1000.0 X40.3625
G2 F2000.0 X37.1938 Y64.4205 I-2.1125 J0.0
G2 Y68.0795 I1.0563 J1.8295
G2 X40.3625 Y66.25 I1.0563 J-1.8295
G1 F1000.0 X38.4575
G1 Z-2.8
G2 F2000.0 X38.1463 Y66.0703 I-0.2075 J0.0
G2 Y66.4297 I0.1037 J0.1797
G2 X38.4575 Y66.25 I0.1038 J-0.1797
G1 F1000.0 X39.0925
G2 F2000.0 X37.8288 Y65.5204 I-0.8425 J0.0
G2 Y66.9796 I0.4213 J0.7296
G2 X39.0925 Y66.25 I0.4213 J-0.7296
G1 F1000.0 X40.3625
G2 F2000.0 X37.1938 Y64.4205 I-2.1125 J0.0
G2 Y68.0795 I1.0563 J1.8295
G2 X40.3625 Y66.25 I1.0563 J-1.8295
G1 F1000.0 X38.4575
G1 Z-2.9
G2 F2000.0 X38.1463 Y66.0703 I-0.2075 J0.0
G2 Y66.4297 I0.1037 J0.1797
G2 X38.4575 Y66.25 I0.1038 J-0.1797
G1 F1000.0 X39.0925
G2 F2000.0 X37.8288 Y65.5204 I-0.8425 J0.0
G2 Y66.9796 I0.4213 J0.7296
G2 X39.0925 Y66.25 I0.4213 J-0.7296
G1 F1000.0 X40.3625
G2 F2000.0 X37.1938 Y64.4205 I-2.1125 J0.0
G2 Y68.0795 I1.0563 J1.8295
G2 X40.3625 Y66.25 I1.0563 J-1.8295
G1 F1000.0 X38.4575
G1 Z-3.0
G2 F2000.0 X38.1463 Y66.0703 I-0.2075 J0.0
G2 Y66.4297 I0.1037 J0.1797
G2 X38.4575 Y66.25 I0.1038 J-0.1797
G1 F1000.0 X39.0925
G2 F2000.0 X37.8288 Y65.5204 I-0.8425 J0.0
G2 Y66.9796 I0.4213 J0.7296
G2 X39.0925 Y66.25 I0.4213 J-0.7296
G1 F1000.0 X40.3625
G2 F2000.0 X37.1938 Y64.4205 I-2.1125 J0.0
G2 Y68.0795 I1.0563 J1.8295
G2 X40.3625 Y66.25 I1.0563 J-1.8295
G1 F1000.0 X38.4575
G1 Z-3.1
G2 F2000.0 X38.1463 Y66.0703 I-0.2075 J0.0
G2 Y66.4297 I0.1037 J0.1797
G2 X38.4575 Y66.25 I0.1038 J-0.1797
G1 F1000.0 X39.0925
G2 F2000.0 X37.8288 Y65.5204 I-0.8425 J0.0
G2 Y66.9796 I0.4213 J0.7296
G2 X39.0925 Y66.25 I0.4213 J-0.7296
G1 F1000.0 X40.3625
G2 F2000.0 X37.1938 Y64.4205 I-2.1125 J0.0
G2 Y68.0795 I1.0563 J1.8295
G2 X40.3625 Y66.25 I1.0563 J-1.8295
G1 F1000.0 X38.4575
G1 Z-3.2
G2 F2000.0 X38.1463 Y66.0703 I-0.2075 J0.0
G2 Y66.4297 I0.1037 J0.1797
G2 X38.4575 Y66.25 I0.1038 J-0.1797
G1 F1000.0 X39.0925
G2 F2000.0 X37.8288 Y65.5204 I-0.8425 J0.0
G2 Y66.9796 I0.4213 J0.7296
G2 X39.0925 Y66.25 I0.4213 J-0.7296
G1 F1000.0 X40.3625
G2 F2000.0 X37.1938 Y64.4205 I-2.1125 J0.0
G2 Y68.0795 I1.0563 J1.8295
G2 X40.3625 Y66.25 I1.0563 J-1.8295
G0 Z3.0
G0 X38.2643 Y96.543
G0 Z0.25
G1 F1000.0 Z-0.1
G2 F2000.0 X38.1463 Y96.5703 I-0.0143 J0.207
G2 Y96.9297 I0.1037 J0.1797
G2 X38.4575 Y96.75 I0.1038 J-0.1797
G2 X38.2643 Y96.543 I-0.2075 J0.0
G1 F1000.0 X38.3082 Y95.9095
G2 F2000.0 X37.8288 Y96.0204 I-0.0582 J0.8405
G2 Y97.4796 I0.4213 J0.7296
G2 X39.0925 Y96.75 I0.4213 J-0.7296
G2 X38.3082 Y95.9095 I-0.8425 J0.0
G1 F1000.0 X38.396 Y94.6425
G2 F2000.0 X37.1938 Y94.9205 I-0.146 J2.1075
G2 Y98.5795 I1.0563 J1.8295
G2 X40.3625 Y96.75 I1.0563 J-1.8295
G2 X38.396 Y94.6425 I-2.1125 J0.0
G1 F1000.0 X38.2643 Y96.543
G1 Z-0.2
G2 F2000.0 X38.1463 Y96.5703 I-0.0143 J0.207
G2 Y96.9297 I0.1037 J0.1797
G2 X38.4575 Y96.75 I0.1038 J-0.1797
G2 X38.2643 Y96.543 I-0.2075 J0.0
G1 F1000.0 X38.3082 Y95.9095
G2 F2000.0 X37.8288 Y96.0204 I-0.0582 J0.8405
G2 Y97.4796 I0.4213 J0.7296
G2 X39.0925 Y96.75 I0.4213 J-0.7296
G2 X38.3082 Y95.9095 I-0.8425 J0.0
G1 F1000.0 X38.396 Y94.6425
G2 F2000.0 X37.1938 Y94.9205 I-0.146 J2.1075
G2 Y98.5795 I1.0563 J1.8295
G2 X40.3625 Y96.75 I1.0563 J-1.8295
G2 X38.396 Y94.6425 I-2.1125 J0.0
G1 F1000.0 X38.2643 Y96.543
G1 Z-0.3
G2 F2000.0 X38.1463 Y96.5703 I-0.0143 J0.207
G2 Y96.9297 I0.1037 J0.1797
G2 X38.4575 Y96.75 I0.1038 J-0.1797
G2 X38.2643 Y96.543 I-0.2075 J0.0
G1 F1000.0 X38.3082 Y95.9095
G2 F2000.0 X37.8288 Y96.0204 I-0.0582 J0.8405
G2 Y97.4796 I0.4213 J0.7296
G2 X39.0925 Y96.75 I0.4213 J-0.7296
G2 X38.3082 Y95.9095 I-0.8425 J0.0
G1 F1000.0 X38.396 Y94.6425
G2 F2000.0 X37.1938 Y94.9205 I-0.146 J2.1075
G2 Y98.5795 I1.0563 J1.8295
G2 X40.3625 Y96.75 I1.0563 J-1.8295
G2 X38.396 Y94.6425 I-2.1125 J0.0
G1 F1000.0 X38.2643 Y96.543
G1 Z-0.4
G2 F2000.0 X38.1463 Y96.5703 I-0.0143 J0.207
G2 Y96.9297 I0.1037 J0.1797
G2 X38.4575 Y96.75 I0.1038 J-0.1797
G2 X38.2643 Y96.543 I-0.2075 J0.0
G1 F1000.0 X38.3082 Y95.9095
G2 F2000.0 X37.8288 Y96.0204 I-0.0582 J0.8405
G2 Y97.4796 I0.4213 J0.7296
G2 X39.0925 Y96.75 I0.4213 J-0.7296
G2 X38.3082 Y95.9095 I-0.8425 J0.0
G1 F1000.0 X38.396 Y94.6425
G2 F2000.0 X37.1938 Y94.9205 I-0.146 J2.1075
G2 Y98.5795 I1.0563 J1.8295
G2 X40.3625 Y96.75 I1.0563 J-1.8295
G2 X38.396 Y94.6425 I-2.1125 J0.0
G1 F1000.0 X38.2643 Y96.543
G1 Z-0.5
G2 F2000.0 X38.1463 Y96.5703 I-0.0143 J0.207
G2 Y96.9297 I0.1037 J0.1797
G2 X38.4575 Y96.75 I0.1038 J-0.1797
G2 X38.2643 Y96.543 I-0.2075 J0.0
G1 F1000.0 X38.3082 Y95.9095
G2 F2000.0 X37.8288 Y96.0204 I-0.0582 J0.8405
G2 Y97.4796 I0.4213 J0.7296
G2 X39.0925 Y96.75 I0.4213 J-0.7296
G2 X38.3082 Y95.9095 I-0.8425 J0.0
G1 F1000.0 X38.396 Y94.6425
G2 F2000.0 X37.1938 Y94.9205 I-0.146 J2.1075
G2 Y98.5795 I1.0563 J1.8295
G2 X40.3625 Y96.75 I1.0563 J-1.8295
G2 X38.396 Y94.6425 I-2.1125 J0.0
G1 F1000.0 X38.2643 Y96.543
G1 Z-0.6
G2 F2000.0 X38.1463 Y96.5703 I-0.0143 J0.207
G2 Y96.9297 I0.1037 J0.1797
G2 X38.4575 Y96.75 I0.1038 J-0.1797
G2 X38.2643 Y96.543 I-0.2075 J0.0
G1 F1000.0 X38.3082 Y95.9095
G2 F2000.0 X37.8288 Y96.0204 I-0.0582 J0.8405
G2 Y97.4796 I0.4213 J0.7296
G2 X39.0925 Y96.75 I0.4213 J-0.7296
G2 X38.3082 Y95.9095 I-0.8425 J0.0
G1 F1000.0 X38.396 Y94.6425
G2 F2000.0 X37.1938 Y94.9205 I-0.146 J2.1075
G2 Y98.5795 I1.0563 J1.8295
G2 X40.3625 Y96.75 I1.0563 J-1.8295
G2 X38.396 Y94.6425 I-2.1125 J0.0
G1 F1000.0 X38.2643 Y96.543
G1 Z-0.7
G2 F2000.0 X38.1463 Y96.5703 I-0.0143 J0.207
G2 Y96.9297 I0.1037 J0.1797
G2 X38.4575 Y96.75 I0.1038 J-0.1797
G2 X38.2643 Y96.543 I-0.2075 J0.0
G1 F1000.0 X38.3082 Y95.9095
G2 F2000.0 X37.8288 Y96.0204 I-0.0582 J0.8405
G2 Y97.4796 I0.4213 J0.7296
G2 X39.0925 Y96.75 I0.4213 J-0.7296
G2 X38.3082 Y95.9095 I-0.8425 J0.0
G1 F1000.0 X38.396 Y94.6425
G2 F2000.0 X37.1938 Y94.9205 I-0.146 J2.1075
G2 Y98.5795 I1.0563 J1.8295
G2 X40.3625 Y96.75 I1.0563 J-1.8295
G2 X38.396 Y94.6425 I-2.1125 J0.0
G1 F1000.0 X38.2643 Y96.543
G1 Z-0.8
G2 F2000.0 X38.1463 Y96.5703 I-0.0143 J0.207
G2 Y96.9297 I0.1037 J0.1797
G2 X38.4575 Y96.75 I0.1038 J-0.1797
G2 X38.2643 Y96.543 I-0.2075 J0.0
G1 F1000.0 X38.3082 Y95.9095
G2 F2000.0 X37.8288 Y96.0204 I-0.0582 J0.8405
G2 Y97.4796 I0.4213 J0.7296
G2 X39.0925 Y96.75 I0.4213 J-0.7296
G2 X38.3082 Y95.9095 I-0.8425 J0.0
G1 F1000.0 X38.396 Y94.6425
G2 F2000.0 X37.1938 Y94.9205 I-0.146 J2.1075
G2 Y98.5795 I1.0563 J1.8295
G2 X40.3625 Y96.75 I1.0563 J-1.8295
G2 X38.396 Y94.6425 I-2.1125 J0.0
G1 F1000.0 X38.2643 Y96.543
G1 Z-0.9
G2 F2000.0 X38.1463 Y96.5703 I-0.0143 J0.207
G2 Y96.9297 I0.1037 J0.1797
G2 X38.4575 Y96.75 I0.1038 J-0.1797
G2 X38.2643 Y96.543 I-0.2075 J0.0
G1 F1000.0 X38.3082 Y95.9095
G2 F2000.0 X37.8288 Y96.0204 I-0.0582 J0.8405
G2 Y97.4796 I0.4213 J0.7296
G2 X39.0925 Y96.75 I0.4213 J-0.7296
G2 X38.3082 Y95.9095 I-0.8425 J0.0
G1 F1000.0 X38.396 Y94.6425
G2 F2000.0 X37.1938 Y94.9205 I-0.146 J2.1075
G2 Y98.5795 I1.0563 J1.8295
G2 X40.3625 Y96.75 I1.0563 J-1.8295
G2 X38.396 Y94.6425 I-2.1125 J0.0
G1 F1000.0 X38.2643 Y96.543
G1 Z-1.0
G2 F2000.0 X38.1463 Y96.5703 I-0.0143 J0.207
G2 Y96.9297 I0.1037 J0.1797
G2 X38.4575 Y96.75 I0.1038 J-0.1797
G2 X38.2643 Y96.543 I-0.2075 J0.0
G1 F1000.0 X38.3082 Y95.9095
G2 F2000.0 X37.8288 Y96.0204 I-0.0582 J0.8405
G2 Y97.4796 I0.4213 J0.7296
G2 X39.0925 Y96.75 I0.4213 J-0.7296
G2 X38.3082 Y95.9095 I-0.8425 J0.0
G1 F1000.0 X38.396 Y94.6425
G2 F2000.0 X37.1938 Y94.9205 I-0.146 J2.1075
G2 Y98.5795 I1.0563 J1.8295
G2 X40.3625 Y96.75 I1.0563 J-1.8295
G2 X38.396 Y94.6425 I-2.1125 J0.0
G1 F1000.0 X38.2643 Y96.543
G1 Z-1.1
G2 F2000.0 X38.1463 Y96.5703 I-0.0143 J0.207
G2 Y96.9297 I0.1037 J0.1797
G2 X38.4575 Y96.75 I0.1038 J-0.1797
G2 X38.2643 Y96.543 I-0.2075 J0.0
G1 F1000.0 X38.3082 Y95.9095
G2 F2000.0 X37.8288 Y96.0204 I-0.0582 J0.8405
G2 Y97.4796 I0.4213 J0.7296
G2 X39.0925 Y96.75 I0.4213 J-0.7296
G2 X38.3082 Y95.9095 I-0.8425 J0.0
G1 F1000.0 X38.396 Y94.6425
G2 F2000.0 X37.1938 Y94.9205 I-0.146 J2.1075
G2 Y98.5795 I1.0563 J1.8295
G2 X40.3625 Y96.75 I1.0563 J-1.8295
G2 X38.396 Y94.6425 I-2.1125 J0.0
G1 F1000.0 X38.2643 Y96.543
G1 Z-1.2
G2 F2000.0 X38.1463 Y96.5703 I-0.0143 J0.207
G2 Y96.9297 I0.1037 J0.1797
G2 X38.4575 Y96.75 I0.1038 J-0.1797
G2 X38.2643 Y96.543 I-0.2075 J0.0
G1 F1000.0 X38.3082 Y95.9095
G2 F2000.0 X37.8288 Y96.0204 I-0.0582 J0.8405
G2 Y97.4796 I0.4213 J0.7296
G2 X39.0925 Y96.75 I0.4213 J-0.7296
G2 X38.3082 Y95.9095 I-0.8425 J0.0
G1 F1000.0 X38.396 Y94.6425
G2 F2000.0 X37.1938 Y94.9205 I-0.146 J2.1075
G2 Y98.5795 I1.0563 J1.8295
G2 X40.3625 Y96.75 I1.0563 J-1.8295
G2 X38.396 Y94.6425 I-2.1125 J0.0
G1 F1000.0 X38.2643 Y96.543
G1 Z-1.3
G2 F2000.0 X38.1463 Y96.5703 I-0.0143 J0.207
G2 Y96.9297 I0.1037 J0.1797
G2 X38.4575 Y96.75 I0.1038 J-0.1797
G2 X38.2643 Y96.543 I-0.2075 J0.0
G1 F1000.0 X38.3082 Y95.9095
G2 F2000.0 X37.8288 Y96.0204 I-0.0582 J0.8405
G2 Y97.4796 I0.4213 J0.7296
G2 X39.0925 Y96.75 I0.4213 J-0.7296
G2 X38.3082 Y95.9095 I-0.8425 J0.0
G1 F1000.0 X38.396 Y94.6425
G2 F2000.0 X37.1938 Y94.9205 I-0.146 J2.1075
G2 Y98.5795 I1.0563 J1.8295
G2 X40.3625 Y96.75 I1.0563 J-1.8295
G2 X38.396 Y94.6425 I-2.1125 J0.0
G1 F1000.0 X38.2643 Y96.543
G1 Z-1.4
G2 F2000.0 X38.1463 Y96.5703 I-0.0143 J0.207
G2 Y96.9297 I0.1037 J0.1797
G2 X38.4575 Y96.75 I0.1038 J-0.1797
G2 X38.2643 Y96.543 I-0.2075 J0.0
G1 F1000.0 X38.3082 Y95.9095
G2 F2000.0 X37.8288 Y96.0204 I-0.0582 J0.8405
G2 Y97.4796 I0.4213 J0.7296
G2 X39.0925 Y96.75 I0.4213 J-0.7296
G2 X38.3082 Y95.9095 I-0.8425 J0.0
G1 F1000.0 X38.396 Y94.6425
G2 F2000.0 X37.1938 Y94.9205 I-0.146 J2.1075
G2 Y98.5795 I1.0563 J1.8295
G2 X40.3625 Y96.75 I1.0563 J-1.8295
G2 X38.396 Y94.6425 I-2.1125 J0.0
G1 F1000.0 X38.2643 Y96.543
G1 Z-1.5
G2 F2000.0 X38.1463 Y96.5703 I-0.0143 J0.207
G2 Y96.9297 I0.1037 J0.1797
G2 X38.4575 Y96.75 I0.1038 J-0.1797
G2 X38.2643 Y96.543 I-0.2075 J0.0
G1 F1000.0 X38.3082 Y95.9095
G2 F2000.0 X37.8288 Y96.0204 I-0.0582 J0.8405
G2 Y97.4796 I0.4213 J0.7296
G2 X39.0925 Y96.75 I0.4213 J-0.7296
G2 X38.3082 Y95.9095 I-0.8425 J0.0
G1 F1000.0 X38.396 Y94.6425
G2 F2000.0 X37.1938 Y94.9205 I-0.146 J2.1075
G2 Y98.5795 I1.0563 J1.8295
G2 X40.3625 Y96.75 I1.0563 J-1.8295
G2 X38.396 Y94.6425 I-2.1125 J0.0
G1 F1000.0 X38.2643 Y96.543
G1 Z-1.6
G2 F2000.0 X38.1463 Y96.5703 I-0.0143 J0.207
G2 Y96.9297 I0.1037 J0.1797
G2 X38.4575 Y96.75 I0.1038 J-0.1797
G2 X38.2643 Y96.543 I-0.2075 J0.0
G1 F1000.0 X38.3082 Y95.9095
G2 F2000.0 X37.8288 Y96.0204 I-0.0582 J0.8405
G2 Y97.4796 I0.4213 J0.7296
G2 X39.0925 Y96.75 I0.4213 J-0.7296
G2 X38.3082 Y95.9095 I-0.8425 J0.0
G1 F1000.0 X38.396 Y94.6425
G2 F2000.0 X37.1938 Y94.9205 I-0.146 J2.1075
G2 Y98.5795 I1.0563 J1.8295
G2 X40.3625 Y96.75 I1.0563 J-1.8295
G2 X38.396 Y94.6425 I-2.1125 J0.0
G1 F1000.0 X38.2643 Y96.543
G1 Z-1.7
G2 F2000.0 X38.1463 Y96.5703 I-0.0143 J0.207
G2 Y96.9297 I0.1037 J0.1797
G2 X38.4575 Y96.75 I0.1038 J-0.1797
G2 X38.2643 Y96.543 I-0.2075 J0.0
G1 F1000.0 X38.3082 Y95.9095
G2 F2000.0 X37.8288 Y96.0204 I-0.0582 J0.8405
G2 Y97.4796 I0.4213 J0.7296
G2 X39.0925 Y96.75 I0.4213 J-0.7296
G2 X38.3082 Y95.9095 I-0.8425 J0.0
G1 F1000.0 X38.396 Y94.6425
G2 F2000.0 X37.1938 Y94.9205 I-0.146 J2.1075
G2 Y98.5795 I1.0563 J1.8295
G2 X40.3625 Y96.75 I1.0563 J-1.8295
G2 X38.396 Y94.6425 I-2.1125 J0.0
G1 F1000.0 X38.2643 Y96.543
G1 Z-1.8
G2 F2000.0 X38.1463 Y96.5703 I-0.0143 J0.207
G2 Y96.9297 I0.1037 J0.1797
G2 X38.4575 Y96.75 I0.1038 J-0.1797
G2 X38.2643 Y96.543 I-0.2075 J0.0
G1 F1000.0 X38.3082 Y95.9095
G2 F2000.0 X37.8288 Y96.0204 I-0.0582 J0.8405
G2 Y97.4796 I0.4213 J0.7296
G2 X39.0925 Y96.75 I0.4213 J-0.7296
G2 X38.3082 Y95.9095 I-0.8425 J0.0
G1 F1000.0 X38.396 Y94.6425
G2 F2000.0 X37.1938 Y94.9205 I-0.146 J2.1075
G2 Y98.5795 I1.0563 J1.8295
G2 X40.3625 Y96.75 I1.0563 J-1.8295
G2 X38.396 Y94.6425 I-2.1125 J0.0
G1 F1000.0 X38.2643 Y96.543
G1 Z-1.9
G2 F2000.0 X38.1463 Y96.5703 I-0.0143 J0.207
G2 Y96.9297 I0.1037 J0.1797
G2 X38.4575 Y96.75 I0.1038 J-0.1797
G2 X38.2643 Y96.543 I-0.2075 J0.0
G1 F1000.0 X38.3082 Y95.9095
G2 F2000.0 X37.8288 Y96.0204 I-0.0582 J0.8405
G2 Y97.4796 I0.4213 J0.7296
G2 X39.0925 Y96.75 I0.4213 J-0.7296
G2 X38.3082 Y95.9095 I-0.8425 J0.0
G1 F1000.0 X38.396 Y94.6425
G2 F2000.0 X37.1938 Y94.9205 I-0.146 J2.1075
G2 Y98.5795 I1.0563 J1.8295
G2 X40.3625 Y96.75 I1.0563 J-1.8295
G2 X38.396 Y94.6425 I-2.1125 J0.0
G1 F1000.0 X38.2643 Y96.543
G1 Z-2.0
G2 F2000.0 X38.1463 Y96.5703 I-0.0143 J0.207
G2 Y96.9297 I0.1037 J0.1797
G2 X38.4575 Y96.75 I0.1038 J-0.1797
G2 X38.2643 Y96.543 I-0.2075 J0.0
G1 F1000.0 X38.3082 Y95.9095
G2 F2000.0 X37.8288 Y96.0204 I-0.0582 J0.8405
G2 Y97.4796 I0.4213 J0.7296
G2 X39.0925 Y96.75 I0.4213 J-0.7296
G2 X38.3082 Y95.9095 I-0.8425 J0.0
G1 F1000.0 X38.396 Y94.6425
G2 F2000.0 X37.1938 Y94.9205 I-0.146 J2.1075
G2 Y98.5795 I1.0563 J1.8295
G2 X40.3625 Y96.75 I1.0563 J-1.8295
G2 X38.396 Y94.6425 I-2.1125 J0.0
G1 F1000.0 X38.2643 Y96.543
G1 Z-2.1
G2 F2000.0 X38.1463 Y96.5703 I-0.0143 J0.207
G2 Y96.9297 I0.1037 J0.1797
G2 X38.4575 Y96.75 I0.1038 J-0.1797
G2 X38.2643 Y96.543 I-0.2075 J0.0
G1 F1000.0 X38.3082 Y95.9095
G2 F2000.0 X37.8288 Y96.0204 I-0.0582 J0.8405
G2 Y97.4796 I0.4213 J0.7296
G2 X39.0925 Y96.75 I0.4213 J-0.7296
G2 X38.3082 Y95.9095 I-0.8425 J0.0
G1 F1000.0 X38.396 Y94.6425
G2 F2000.0 X37.1938 Y94.9205 I-0.146 J2.1075
G2 Y98.5795 I1.0563 J1.8295
G2 X40.3625 Y96.75 I1.0563 J-1.8295
G2 X38.396 Y94.6425 I-2.1125 J0.0
G1 F1000.0 X38.2643 Y96.543
G1 Z-2.2
G2 F2000.0 X38.1463 Y96.5703 I-0.0143 J0.207
G2 Y96.9297 I0.1037 J0.1797
G2 X38.4575 Y96.75 I0.1038 J-0.1797
G2 X38.2643 Y96.543 I-0.2075 J0.0
G1 F1000.0 X38.3082 Y95.9095
G2 F2000.0 X37.8288 Y96.0204 I-0.0582 J0.8405
G2 Y97.4796 I0.4213 J0.7296
G2 X39.0925 Y96.75 I0.4213 J-0.7296
G2 X38.3082 Y95.9095 I-0.8425 J0.0
G1 F1000.0 X38.396 Y94.6425
G2 F2000.0 X37.1938 Y94.9205 I-0.146 J2.1075
G2 Y98.5795 I1.0563 J1.8295
G2 X40.3625 Y96.75 I1.0563 J-1.8295
G2 X38.396 Y94.6425 I-2.1125 J0.0
G1 F1000.0 X38.2643 Y96.543
G1 Z-2.3
G2 F2000.0 X38.1463 Y96.5703 I-0.0143 J0.207
G2 Y96.9297 I0.1037 J0.1797
G2 X38.4575 Y96.75 I0.1038 J-0.1797
G2 X38.2643 Y96.543 I-0.2075 J0.0
G1 F1000.0 X38.3082 Y95.9095
G2 F2000.0 X37.8288 Y96.0204 I-0.0582 J0.8405
G2 Y97.4796 I0.4213 J0.7296
G2 X39.0925 Y96.75 I0.4213 J-0.7296
G2 X38.3082 Y95.9095 I-0.8425 J0.0
G1 F1000.0 X38.396 Y94.6425
G2 F2000.0 X37.1938 Y94.9205 I-0.146 J2.1075
G2 Y98.5795 I1.0563 J1.8295
G2 X40.3625 Y96.75 I1.0563 J-1.8295
G2 X38.396 Y94.6425 I-2.1125 J0.0
G1 F1000.0 X38.2643 Y96.543
G1 Z-2.4
G2 F2000.0 X38.1463 Y96.5703 I-0.0143 J0.207
G2 Y96.9297 I0.1037 J0.1797
G2 X38.4575 Y96.75 I0.1038 J-0.1797
G2 X38.2643 Y96.543 I-0.2075 J0.0
G1 F1000.0 X38.3082 Y95.9095
G2 F2000.0 X37.8288 Y96.0204 I-0.0582 J0.8405
G2 Y97.4796 I0.4213 J0.7296
G2 X39.0925 Y96.75 I0.4213 J-0.7296
G2 X38.3082 Y95.9095 I-0.8425 J0.0
G1 F1000.0 X38.396 Y94.6425
G2 F2000.0 X37.1938 Y94.9205 I-0.146 J2.1075
G2 Y98.5795 I1.0563 J1.8295
G2 X40.3625 Y96.75 I1.0563 J-1.8295
G2 X38.396 Y94.6425 I-2.1125 J0.0
G1 F1000.0 X38.2643 Y96.543
G1 Z-2.5
G2 F2000.0 X38.1463 Y96.5703 I-0.0143 J0.207
G2 Y96.9297 I0.1037 J0.1797
G2 X38.4575 Y96.75 I0.1038 J-0.1797
G2 X38.2643 Y96.543 I-0.2075 J0.0
G1 F1000.0 X38.3082 Y95.9095
G2 F2000.0 X37.8288 Y96.0204 I-0.0582 J0.8405
G2 Y97.4796 I0.4213 J0.7296
G2 X39.0925 Y96.75 I0.4213 J-0.7296
G2 X38.3082 Y95.9095 I-0.8425 J0.0
G1 F1000.0 X38.396 Y94.6425
G2 F2000.0 X37.1938 Y94.9205 I-0.146 J2.1075
G2 Y98.5795 I1.0563 J1.8295
G2 X40.3625 Y96.75 I1.0563 J-1.8295
G2 X38.396 Y94.6425 I-2.1125 J0.0
G1 F1000.0 X38.2643 Y96.543
G1 Z-2.6
G2 F2000.0 X38.1463 Y96.5703 I-0.0143 J0.207
G2 Y96.9297 I0.1037 J0.1797
G2 X38.4575 Y96.75 I0.1038 J-0.1797
G2 X38.2643 Y96.543 I-0.2075 J0.0
G1 F1000.0 X38.3082 Y95.9095
G2 F2000.0 X37.8288 Y96.0204 I-0.0582 J0.8405
G2 Y97.4796 I0.4213 J0.7296
G2 X39.0925 Y96.75 I0.4213 J-0.7296
G2 X38.3082 Y95.9095 I-0.8425 J0.0
G1 F1000.0 X38.396 Y94.6425
G2 F2000.0 X37.1938 Y94.9205 I-0.146 J2.1075
G2 Y98.5795 I1.0563 J1.8295
G2 X40.3625 Y96.75 I1.0563 J-1.8295
G2 X38.396 Y94.6425 I-2.1125 J0.0
G1 F1000.0 X38.2643 Y96.543
G1 Z-2.7
G2 F2000.0 X38.1463 Y96.5703 I-0.0143 J0.207
G2 Y96.9297 I0.1037 J0.1797
G2 X38.4575 Y96.75 I0.1038 J-0.1797
G2 X38.2643 Y96.543 I-0.2075 J0.0
G1 F1000.0 X38.3082 Y95.9095
G2 F2000.0 X37.8288 Y96.0204 I-0.0582 J0.8405
G2 Y97.4796 I0.4213 J0.7296
G2 X39.0925 Y96.75 I0.4213 J-0.7296
G2 X38.3082 Y95.9095 I-0.8425 J0.0
G1 F1000.0 X38.396 Y94.6425
G2 F2000.0 X37.1938 Y94.9205 I-0.146 J2.1075
G2 Y98.5795 I1.0563 J1.8295
G2 X40.3625 Y96.75 I1.0563 J-1.8295
G2 X38.396 Y94.6425 I-2.1125 J0.0
G1 F1000.0 X38.2643 Y96.543
G1 Z-2.8
G2 F2000.0 X38.1463 Y96.5703 I-0.0143 J0.207
G2 Y96.9297 I0.1037 J0.1797
G2 X38.4575 Y96.75 I0.1038 J-0.1797
G2 X38.2643 Y96.543 I-0.2075 J0.0
G1 F1000.0 X38.3082 Y95.9095
G2 F2000.0 X37.8288 Y96.0204 I-0.0582 J0.8405
G2 Y97.4796 I0.4213 J0.7296
G2 X39.0925 Y96.75 I0.4213 J-0.7296
G2 X38.3082 Y95.9095 I-0.8425 J0.0
G1 F1000.0 X38.396 Y94.6425
