( Made using CamBam - http://www.cambam.co.uk )
( 808_hh_panel 5/21/2016 11:06:58 AM )
( T3 : 3.175 )
G21 G90 G64 G40
G0 Z3.0
( T3 : 3.175 )
T3 M6
( holes )
G17
M3 S1000
G0 X6.5284 Y3.5148
G0 Z3.0
G0 X6.5409 Y3.5148
G1 F1000.0 Z0.0
G2 F2000.0 X6.5221 Y3.5039 Z-0.0333 I-0.0125 J0.0
G2 Y3.5256 Z-0.0667 I0.0062 J0.0108
G2 X6.5409 Y3.5148 Z-0.1 I0.0063 J-0.0108
G2 X6.5221 Y3.5039 Z-0.1333 I-0.0125 J0.0
G2 Y3.5256 Z-0.1667 I0.0062 J0.0108
G2 X6.5409 Y3.5148 Z-0.2 I0.0063 J-0.0108
G2 X6.5221 Y3.5039 Z-0.2333 I-0.0125 J0.0
G2 Y3.5256 Z-0.2667 I0.0062 J0.0108
G2 X6.5409 Y3.5148 Z-0.3 I0.0063 J-0.0108
G2 X6.5221 Y3.5039 Z-0.3333 I-0.0125 J0.0
G2 Y3.5256 Z-0.3667 I0.0063 J0.0108
G2 X6.5409 Y3.5148 Z-0.4 I0.0062 J-0.0108
G2 X6.5221 Y3.5039 Z-0.4333 I-0.0125 J0.0
G2 Y3.5256 Z-0.4667 I0.0063 J0.0108
G2 X6.5409 Y3.5148 Z-0.5 I0.0062 J-0.0108
G2 X6.5221 Y3.5039 Z-0.5333 I-0.0125 J0.0
G2 Y3.5256 Z-0.5667 I0.0063 J0.0108
G2 X6.5409 Y3.5148 Z-0.6 I0.0062 J-0.0108
G2 X6.5221 Y3.5039 Z-0.6333 I-0.0125 J0.0
G2 Y3.5256 Z-0.6667 I0.0062 J0.0108
G2 X6.5409 Y3.5148 Z-0.7 I0.0063 J-0.0108
G2 X6.5221 Y3.5039 Z-0.7333 I-0.0125 J0.0
G2 Y3.5256 Z-0.7667 I0.0062 J0.0108
G2 X6.5409 Y3.5148 Z-0.8 I0.0063 J-0.0108
G2 X6.5221 Y3.5039 Z-0.8333 I-0.0125 J0.0
G2 Y3.5256 Z-0.8667 I0.0062 J0.0108
G2 X6.5409 Y3.5148 Z-0.9 I0.0063 J-0.0108
G2 X6.5221 Y3.5039 Z-0.9333 I-0.0125 J0.0
G2 Y3.5256 Z-0.9667 I0.0062 J0.0108
G2 X6.5409 Y3.5148 Z-1.0 I0.0063 J-0.0108
G2 X6.5221 Y3.5039 Z-1.0333 I-0.0125 J0.0
G2 Y3.5256 Z-1.0667 I0.0062 J0.0108
G2 X6.5409 Y3.5148 Z-1.1 I0.0063 J-0.0108
G2 X6.5221 Y3.5039 Z-1.1333 I-0.0125 J0.0
G2 Y3.5256 Z-1.1667 I0.0062 J0.0108
G2 X6.5409 Y3.5148 Z-1.2 I0.0063 J-0.0108
G2 X6.5221 Y3.5039 Z-1.2333 I-0.0125 J0.0
G2 Y3.5256 Z-1.2667 I0.0062 J0.0108
G2 X6.5409 Y3.5148 Z-1.3 I0.0063 J-0.0108
G2 X6.5221 Y3.5039 Z-1.3333 I-0.0125 J0.0
G2 Y3.5256 Z-1.3667 I0.0062 J0.0108
G2 X6.5409 Y3.5148 Z-1.4 I0.0063 J-0.0108
G2 X6.5221 Y3.5039 Z-1.4333 I-0.0125 J0.0
G2 Y3.5256 Z-1.4667 I0.0062 J0.0108
G2 X6.5409 Y3.5148 Z-1.5 I0.0063 J-0.0108
G2 X6.5221 Y3.5039 Z-1.5333 I-0.0125 J0.0
G2 Y3.5256 Z-1.5667 I0.0062 J0.0108
G2 X6.5409 Y3.5148 Z-1.6 I0.0063 J-0.0108
G2 X6.5221 Y3.5039 Z-1.6333 I-0.0125 J0.0
G2 Y3.5256 Z-1.6667 I0.0062 J0.0108
G2 X6.5409 Y3.5148 Z-1.7 I0.0063 J-0.0108
G2 X6.5221 Y3.5039 Z-1.7333 I-0.0125 J0.0
G2 Y3.5256 Z-1.7667 I0.0062 J0.0108
G2 X6.5409 Y3.5148 Z-1.8 I0.0063 J-0.0108
G2 X6.5221 Y3.5039 Z-1.8333 I-0.0125 J0.0
G2 Y3.5256 Z-1.8667 I0.0062 J0.0108
G2 X6.5409 Y3.5148 Z-1.9 I0.0063 J-0.0108
G2 X6.5221 Y3.5039 Z-1.9333 I-0.0125 J0.0
G2 Y3.5256 Z-1.9667 I0.0062 J0.0108
G2 X6.5409 Y3.5148 Z-2.0 I0.0063 J-0.0108
G2 X6.5221 Y3.5039 Z-2.0333 I-0.0125 J0.0
G2 Y3.5256 Z-2.0667 I0.0062 J0.0108
G2 X6.5409 Y3.5148 Z-2.1 I0.0063 J-0.0108
G2 X6.5221 Y3.5039 Z-2.1333 I-0.0125 J0.0
G2 Y3.5256 Z-2.1667 I0.0062 J0.0108
G2 X6.5409 Y3.5148 Z-2.2 I0.0063 J-0.0108
G2 X6.5221 Y3.5039 Z-2.2333 I-0.0125 J0.0
G2 Y3.5256 Z-2.2667 I0.0062 J0.0108
G2 X6.5409 Y3.5148 Z-2.3 I0.0063 J-0.0108
G2 X6.5221 Y3.5039 Z-2.3333 I-0.0125 J0.0
G2 Y3.5256 Z-2.3667 I0.0063 J0.0108
G2 X6.5409 Y3.5148 Z-2.4 I0.0062 J-0.0108
G2 X6.5221 Y3.5039 Z-2.4333 I-0.0125 J0.0
G2 Y3.5256 Z-2.4667 I0.0063 J0.0108
G2 X6.5409 Y3.5148 Z-2.5 I0.0062 J-0.0108
G2 X6.5221 Y3.5039 Z-2.5333 I-0.0125 J0.0
G2 Y3.5256 Z-2.5667 I0.0063 J0.0108
G2 X6.5409 Y3.5148 Z-2.6 I0.0062 J-0.0108
G2 X6.5221 Y3.5039 Z-2.6333 I-0.0125 J0.0
G2 Y3.5256 Z-2.6667 I0.0063 J0.0108
G2 X6.5409 Y3.5148 Z-2.7 I0.0062 J-0.0108
G2 X6.5221 Y3.5039 Z-2.7333 I-0.0125 J0.0
G2 Y3.5256 Z-2.7667 I0.0063 J0.0108
G2 X6.5409 Y3.5148 Z-2.8 I0.0062 J-0.0108
G2 X6.5221 Y3.5039 Z-2.8333 I-0.0125 J0.0
G2 Y3.5256 Z-2.8667 I0.0063 J0.0108
G2 X6.5409 Y3.5148 Z-2.9 I0.0062 J-0.0108
G2 X6.5221 Y3.5039 Z-2.9333 I-0.0125 J0.0
G2 Y3.5256 Z-2.9667 I0.0063 J0.0108
G2 X6.5409 Y3.5148 Z-3.0 I0.0062 J-0.0108
G2 X6.5221 Y3.5039 Z-3.0333 I-0.0125 J0.0
G2 Y3.5256 Z-3.0667 I0.0063 J0.0108
G2 X6.5409 Y3.5148 Z-3.1 I0.0062 J-0.0108
G2 X6.5221 Y3.5039 Z-3.1333 I-0.0125 J0.0
G2 Y3.5256 Z-3.1667 I0.0063 J0.0108
G2 X6.5409 Y3.5148 Z-3.2 I0.0062 J-0.0108
G2 X6.5221 Y3.5039 I-0.0125 J0.0
G2 Y3.5256 I0.0063 J0.0108
G2 X6.5409 Y3.5148 I0.0062 J-0.0108
G0 Z3.0
G0 X10.5926 Y22.1133
G1 F1000.0 Z0.0
G2 F2000.0 X10.5739 Y22.1025 Z-0.0333 I-0.0125 J0.0
G2 Y22.1241 Z-0.0667 I0.0062 J0.0108
G2 X10.5926 Y22.1133 Z-0.1 I0.0063 J-0.0108
G2 X10.5739 Y22.1025 Z-0.1333 I-0.0125 J0.0
G2 Y22.1241 Z-0.1667 I0.0062 J0.0108
G2 X10.5926 Y22.1133 Z-0.2 I0.0063 J-0.0108
G2 X10.5739 Y22.1025 Z-0.2333 I-0.0125 J0.0
G2 Y22.1241 Z-0.2667 I0.0062 J0.0108
G2 X10.5926 Y22.1133 Z-0.3 I0.0063 J-0.0108
G2 X10.5739 Y22.1025 Z-0.3333 I-0.0125 J0.0
G2 Y22.1241 Z-0.3667 I0.0062 J0.0108
G2 X10.5926 Y22.1133 Z-0.4 I0.0063 J-0.0108
G2 X10.5739 Y22.1025 Z-0.4333 I-0.0125 J0.0
G2 Y22.1241 Z-0.4667 I0.0062 J0.0108
G2 X10.5926 Y22.1133 Z-0.5 I0.0063 J-0.0108
G2 X10.5739 Y22.1025 Z-0.5333 I-0.0125 J0.0
G2 Y22.1241 Z-0.5667 I0.0062 J0.0108
G2 X10.5926 Y22.1133 Z-0.6 I0.0063 J-0.0108
G2 X10.5739 Y22.1025 Z-0.6333 I-0.0125 J0.0
G2 Y22.1241 Z-0.6667 I0.0062 J0.0108
G2 X10.5926 Y22.1133 Z-0.7 I0.0063 J-0.0108
G2 X10.5739 Y22.1025 Z-0.7333 I-0.0125 J0.0
G2 Y22.1241 Z-0.7667 I0.0062 J0.0108
G2 X10.5926 Y22.1133 Z-0.8 I0.0063 J-0.0108
G2 X10.5739 Y22.1025 Z-0.8333 I-0.0125 J0.0
G2 Y22.1241 Z-0.8667 I0.0062 J0.0108
G2 X10.5926 Y22.1133 Z-0.9 I0.0063 J-0.0108
G2 X10.5739 Y22.1025 Z-0.9333 I-0.0125 J0.0
G2 Y22.1241 Z-0.9667 I0.0062 J0.0108
G2 X10.5926 Y22.1133 Z-1.0 I0.0063 J-0.0108
G2 X10.5739 Y22.1025 Z-1.0333 I-0.0125 J0.0
G2 Y22.1241 Z-1.0667 I0.0062 J0.0108
G2 X10.5926 Y22.1133 Z-1.1 I0.0063 J-0.0108
G2 X10.5739 Y22.1025 Z-1.1333 I-0.0125 J0.0
G2 Y22.1241 Z-1.1667 I0.0062 J0.0108
G2 X10.5926 Y22.1133 Z-1.2 I0.0063 J-0.0108
G2 X10.5739 Y22.1025 Z-1.2333 I-0.0125 J0.0
G2 Y22.1241 Z-1.2667 I0.0062 J0.0108
G2 X10.5926 Y22.1133 Z-1.3 I0.0063 J-0.0108
G2 X10.5739 Y22.1025 Z-1.3333 I-0.0125 J0.0
G2 Y22.1241 Z-1.3667 I0.0062 J0.0108
G2 X10.5926 Y22.1133 Z-1.4 I0.0063 J-0.0108
G2 X10.5739 Y22.1025 Z-1.4333 I-0.0125 J0.0
G2 Y22.1241 Z-1.4667 I0.0062 J0.0108
G2 X10.5926 Y22.1133 Z-1.5 I0.0063 J-0.0108
G2 X10.5739 Y22.1025 Z-1.5333 I-0.0125 J0.0
G2 Y22.1241 Z-1.5667 I0.0062 J0.0108
G2 X10.5926 Y22.1133 Z-1.6 I0.0063 J-0.0108
G2 X10.5739 Y22.1025 Z-1.6333 I-0.0125 J0.0
G2 Y22.1241 Z-1.6667 I0.0062 J0.0108
G2 X10.5926 Y22.1133 Z-1.7 I0.0063 J-0.0108
G2 X10.5739 Y22.1025 Z-1.7333 I-0.0125 J0.0
G2 Y22.1241 Z-1.7667 I0.0062 J0.0108
G2 X10.5926 Y22.1133 Z-1.8 I0.0063 J-0.0108
G2 X10.5739 Y22.1025 Z-1.8333 I-0.0125 J0.0
G2 Y22.1241 Z-1.8667 I0.0062 J0.0108
G2 X10.5926 Y22.1133 Z-1.9 I0.0063 J-0.0108
G2 X10.5739 Y22.1025 Z-1.9333 I-0.0125 J0.0
G2 Y22.1241 Z-1.9667 I0.0062 J0.0108
G2 X10.5926 Y22.1133 Z-2.0 I0.0063 J-0.0108
G2 X10.5739 Y22.1025 Z-2.0333 I-0.0125 J0.0
G2 Y22.1241 Z-2.0667 I0.0062 J0.0108
G2 X10.5926 Y22.1133 Z-2.1 I0.0063 J-0.0108
G2 X10.5739 Y22.1025 Z-2.1333 I-0.0125 J0.0
G2 Y22.1241 Z-2.1667 I0.0062 J0.0108
G2 X10.5926 Y22.1133 Z-2.2 I0.0063 J-0.0108
G2 X10.5739 Y22.1025 Z-2.2333 I-0.0125 J0.0
G2 Y22.1241 Z-2.2667 I0.0062 J0.0108
G2 X10.5926 Y22.1133 Z-2.3 I0.0063 J-0.0108
G2 X10.5739 Y22.1025 Z-2.3333 I-0.0125 J0.0
G2 Y22.1241 Z-2.3667 I0.0062 J0.0108
G2 X10.5926 Y22.1133 Z-2.4 I0.0063 J-0.0108
G2 X10.5739 Y22.1025 Z-2.4333 I-0.0125 J0.0
G2 Y22.1241 Z-2.4667 I0.0062 J0.0108
G2 X10.5926 Y22.1133 Z-2.5 I0.0063 J-0.0108
G2 X10.5739 Y22.1025 Z-2.5333 I-0.0125 J0.0
G2 Y22.1241 Z-2.5667 I0.0062 J0.0108
G2 X10.5926 Y22.1133 Z-2.6 I0.0063 J-0.0108
G2 X10.5739 Y22.1025 Z-2.6333 I-0.0125 J0.0
G2 Y22.1241 Z-2.6667 I0.0063 J0.0108
G2 X10.5926 Y22.1133 Z-2.7 I0.0062 J-0.0108
G2 X10.5739 Y22.1025 Z-2.7333 I-0.0125 J0.0
G2 Y22.1241 Z-2.7667 I0.0063 J0.0108
G2 X10.5926 Y22.1133 Z-2.8 I0.0062 J-0.0108
G2 X10.5739 Y22.1025 Z-2.8333 I-0.0125 J0.0
G2 Y22.1241 Z-2.8667 I0.0063 J0.0108
G2 X10.5926 Y22.1133 Z-2.9 I0.0062 J-0.0108
G2 X10.5739 Y22.1025 Z-2.9333 I-0.0125 J0.0
G2 Y22.1241 Z-2.9667 I0.0063 J0.0108
G2 X10.5926 Y22.1133 Z-3.0 I0.0062 J-0.0108
G2 X10.5739 Y22.1025 Z-3.0333 I-0.0125 J0.0
G2 Y22.1241 Z-3.0667 I0.0063 J0.0108
G2 X10.5926 Y22.1133 Z-3.1 I0.0062 J-0.0108
G2 X10.5739 Y22.1025 Z-3.1333 I-0.0125 J0.0
G2 Y22.1241 Z-3.1667 I0.0063 J0.0108
G2 X10.5926 Y22.1133 Z-3.2 I0.0062 J-0.0108
G2 X10.5739 Y22.1025 I-0.0125 J0.0
G2 Y22.1241 I0.0063 J0.0108
G2 X10.5926 Y22.1133 I0.0062 J-0.0108
G0 Z3.0
G0 X17.53 Y40.1265
G1 F1000.0 Z0.0
G2 F2000.0 X17.5112 Y40.1157 Z-0.0333 I-0.0125 J0.0
G2 Y40.1373 Z-0.0667 I0.0063 J0.0108
G2 X17.53 Y40.1265 Z-0.1 I0.0062 J-0.0108
G2 X17.5112 Y40.1157 Z-0.1333 I-0.0125 J0.0
G2 Y40.1373 Z-0.1667 I0.0063 J0.0108
G2 X17.53 Y40.1265 Z-0.2 I0.0062 J-0.0108
G2 X17.5112 Y40.1157 Z-0.2333 I-0.0125 J0.0
G2 Y40.1373 Z-0.2667 I0.0063 J0.0108
G2 X17.53 Y40.1265 Z-0.3 I0.0062 J-0.0108
G2 X17.5112 Y40.1157 Z-0.3333 I-0.0125 J0.0
G2 Y40.1373 Z-0.3667 I0.0063 J0.0108
G2 X17.53 Y40.1265 Z-0.4 I0.0062 J-0.0108
G2 X17.5112 Y40.1157 Z-0.4333 I-0.0125 J0.0
G2 Y40.1373 Z-0.4667 I0.0063 J0.0108
G2 X17.53 Y40.1265 Z-0.5 I0.0062 J-0.0108
G2 X17.5112 Y40.1157 Z-0.5333 I-0.0125 J0.0
G2 Y40.1373 Z-0.5667 I0.0063 J0.0108
G2 X17.53 Y40.1265 Z-0.6 I0.0062 J-0.0108
G2 X17.5112 Y40.1157 Z-0.6333 I-0.0125 J0.0
G2 Y40.1373 Z-0.6667 I0.0063 J0.0108
G2 X17.53 Y40.1265 Z-0.7 I0.0062 J-0.0108
G2 X17.5112 Y40.1157 Z-0.7333 I-0.0125 J0.0
G2 Y40.1373 Z-0.7667 I0.0063 J0.0108
G2 X17.53 Y40.1265 Z-0.8 I0.0062 J-0.0108
G2 X17.5112 Y40.1157 Z-0.8333 I-0.0125 J0.0
G2 Y40.1373 Z-0.8667 I0.0063 J0.0108
G2 X17.53 Y40.1265 Z-0.9 I0.0062 J-0.0108
G2 X17.5112 Y40.1157 Z-0.9333 I-0.0125 J0.0
G2 Y40.1373 Z-0.9667 I0.0063 J0.0108
G2 X17.53 Y40.1265 Z-1.0 I0.0062 J-0.0108
G2 X17.5112 Y40.1157 Z-1.0333 I-0.0125 J0.0
G2 Y40.1373 Z-1.0667 I0.0063 J0.0108
G2 X17.53 Y40.1265 Z-1.1 I0.0062 J-0.0108
G2 X17.5112 Y40.1157 Z-1.1333 I-0.0125 J0.0
G2 Y40.1373 Z-1.1667 I0.0063 J0.0108
G2 X17.53 Y40.1265 Z-1.2 I0.0062 J-0.0108
G2 X17.5112 Y40.1157 Z-1.2333 I-0.0125 J0.0
G2 Y40.1373 Z-1.2667 I0.0063 J0.0108
G2 X17.53 Y40.1265 Z-1.3 I0.0062 J-0.0108
G2 X17.5112 Y40.1157 Z-1.3333 I-0.0125 J0.0
G2 Y40.1373 Z-1.3667 I0.0063 J0.0108
G2 X17.53 Y40.1265 Z-1.4 I0.0062 J-0.0108
G2 X17.5112 Y40.1157 Z-1.4333 I-0.0125 J0.0
G2 Y40.1373 Z-1.4667 I0.0063 J0.0108
G2 X17.53 Y40.1265 Z-1.5 I0.0062 J-0.0108
G2 X17.5112 Y40.1157 Z-1.5333 I-0.0125 J0.0
G2 Y40.1373 Z-1.5667 I0.0063 J0.0108
G2 X17.53 Y40.1265 Z-1.6 I0.0062 J-0.0108
G2 X17.5112 Y40.1157 Z-1.6333 I-0.0125 J0.0
G2 Y40.1373 Z-1.6667 I0.0063 J0.0108
G2 X17.53 Y40.1265 Z-1.7 I0.0062 J-0.0108
G2 X17.5112 Y40.1157 Z-1.7333 I-0.0125 J0.0
G2 Y40.1373 Z-1.7667 I0.0063 J0.0108
G2 X17.53 Y40.1265 Z-1.8 I0.0062 J-0.0108
G2 X17.5112 Y40.1157 Z-1.8333 I-0.0125 J0.0
G2 Y40.1373 Z-1.8667 I0.0063 J0.0108
G2 X17.53 Y40.1265 Z-1.9 I0.0062 J-0.0108
G2 X17.5112 Y40.1157 Z-1.9333 I-0.0125 J0.0
G2 Y40.1373 Z-1.9667 I0.0063 J0.0108
G2 X17.53 Y40.1265 Z-2.0 I0.0062 J-0.0108
G2 X17.5112 Y40.1157 Z-2.0333 I-0.0125 J0.0
G2 Y40.1373 Z-2.0667 I0.0063 J0.0108
G2 X17.53 Y40.1265 Z-2.1 I0.0062 J-0.0108
G2 X17.5112 Y40.1157 Z-2.1333 I-0.0125 J0.0
G2 Y40.1373 Z-2.1667 I0.0063 J0.0108
G2 X17.53 Y40.1265 Z-2.2 I0.0062 J-0.0108
G2 X17.5112 Y40.1157 Z-2.2333 I-0.0125 J0.0
G2 Y40.1373 Z-2.2667 I0.0063 J0.0108
G2 X17.53 Y40.1265 Z-2.3 I0.0062 J-0.0108
G2 X17.5112 Y40.1157 Z-2.3333 I-0.0125 J0.0
G2 Y40.1373 Z-2.3667 I0.0063 J0.0108
G2 X17.53 Y40.1265 Z-2.4 I0.0062 J-0.0108
G2 X17.5112 Y40.1157 Z-2.4333 I-0.0125 J0.0
G2 Y40.1373 Z-2.4667 I0.0063 J0.0108
G2 X17.53 Y40.1265 Z-2.5 I0.0062 J-0.0108
G2 X17.5112 Y40.1157 Z-2.5333 I-0.0125 J0.0
G2 Y40.1373 Z-2.5667 I0.0063 J0.0108
G2 X17.53 Y40.1265 Z-2.6 I0.0062 J-0.0108
G2 X17.5112 Y40.1157 Z-2.6333 I-0.0125 J0.0
G2 Y40.1373 Z-2.6667 I0.0063 J0.0108
G2 X17.53 Y40.1265 Z-2.7 I0.0062 J-0.0108
G2 X17.5112 Y40.1157 Z-2.7333 I-0.0125 J0.0
G2 Y40.1373 Z-2.7667 I0.0063 J0.0108
G2 X17.53 Y40.1265 Z-2.8 I0.0062 J-0.0108
G2 X17.5112 Y40.1157 Z-2.8333 I-0.0125 J0.0
G2 Y40.1373 Z-2.8667 I0.0063 J0.0108
G2 X17.53 Y40.1265 Z-2.9 I0.0062 J-0.0108
G2 X17.5112 Y40.1157 Z-2.9333 I-0.0125 J0.0
G2 Y40.1373 Z-2.9667 I0.0063 J0.0108
G2 X17.53 Y40.1265 Z-3.0 I0.0062 J-0.0108
G2 X17.5112 Y40.1157 Z-3.0333 I-0.0125 J0.0
G2 Y40.1373 Z-3.0667 I0.0063 J0.0108
G2 X17.53 Y40.1265 Z-3.1 I0.0062 J-0.0108
G2 X17.5112 Y40.1157 Z-3.1333 I-0.0125 J0.0
G2 Y40.1373 Z-3.1667 I0.0063 J0.0108
G2 X17.53 Y40.1265 Z-3.2 I0.0062 J-0.0108
G2 X17.5112 Y40.1157 I-0.0125 J0.0
G2 Y40.1373 I0.0063 J0.0108
G2 X17.53 Y40.1265 I0.0062 J-0.0108
G0 Z3.0
G0 X10.6163 Y59.1807
G1 F1000.0 Z0.0
G2 F2000.0 X10.5975 Y59.1699 Z-0.0333 I-0.0125 J0.0
G2 Y59.1916 Z-0.0667 I0.0063 J0.0108
G2 X10.6163 Y59.1807 Z-0.1 I0.0062 J-0.0108
G2 X10.5975 Y59.1699 Z-0.1333 I-0.0125 J0.0
G2 Y59.1916 Z-0.1667 I0.0063 J0.0108
G2 X10.6163 Y59.1807 Z-0.2 I0.0062 J-0.0108
G2 X10.5975 Y59.1699 Z-0.2333 I-0.0125 J0.0
G2 Y59.1916 Z-0.2667 I0.0063 J0.0108
G2 X10.6163 Y59.1807 Z-0.3 I0.0062 J-0.0108
G2 X10.5975 Y59.1699 Z-0.3333 I-0.0125 J0.0
G2 Y59.1916 Z-0.3667 I0.0063 J0.0108
G2 X10.6163 Y59.1807 Z-0.4 I0.0062 J-0.0108
G2 X10.5975 Y59.1699 Z-0.4333 I-0.0125 J0.0
G2 Y59.1916 Z-0.4667 I0.0063 J0.0108
G2 X10.6163 Y59.1807 Z-0.5 I0.0062 J-0.0108
G2 X10.5975 Y59.1699 Z-0.5333 I-0.0125 J0.0
G2 Y59.1916 Z-0.5667 I0.0063 J0.0108
G2 X10.6163 Y59.1807 Z-0.6 I0.0062 J-0.0108
G2 X10.5975 Y59.1699 Z-0.6333 I-0.0125 J0.0
G2 Y59.1916 Z-0.6667 I0.0063 J0.0108
G2 X10.6163 Y59.1807 Z-0.7 I0.0062 J-0.0108
G2 X10.5975 Y59.1699 Z-0.7333 I-0.0125 J0.0
G2 Y59.1916 Z-0.7667 I0.0063 J0.0108
G2 X10.6163 Y59.1807 Z-0.8 I0.0062 J-0.0108
G2 X10.5975 Y59.1699 Z-0.8333 I-0.0125 J0.0
G2 Y59.1916 Z-0.8667 I0.0063 J0.0108
G2 X10.6163 Y59.1807 Z-0.9 I0.0062 J-0.0108
G2 X10.5975 Y59.1699 Z-0.9333 I-0.0125 J0.0
G2 Y59.1916 Z-0.9667 I0.0063 J0.0108
G2 X10.6163 Y59.1807 Z-1.0 I0.0062 J-0.0108
G2 X10.5975 Y59.1699 Z-1.0333 I-0.0125 J0.0
G2 Y59.1916 Z-1.0667 I0.0063 J0.0108
G2 X10.6163 Y59.1807 Z-1.1 I0.0062 J-0.0108
G2 X10.5975 Y59.1699 Z-1.1333 I-0.0125 J0.0
G2 Y59.1916 Z-1.1667 I0.0063 J0.0108
G2 X10.6163 Y59.1807 Z-1.2 I0.0062 J-0.0108
G2 X10.5975 Y59.1699 Z-1.2333 I-0.0125 J0.0
G2 Y59.1916 Z-1.2667 I0.0063 J0.0108
G2 X10.6163 Y59.1807 Z-1.3 I0.0062 J-0.0108
G2 X10.5975 Y59.1699 Z-1.3333 I-0.0125 J0.0
G2 Y59.1916 Z-1.3667 I0.0063 J0.0108
G2 X10.6163 Y59.1807 Z-1.4 I0.0062 J-0.0108
G2 X10.5975 Y59.1699 Z-1.4333 I-0.0125 J0.0
G2 Y59.1916 Z-1.4667 I0.0063 J0.0108
G2 X10.6163 Y59.1807 Z-1.5 I0.0062 J-0.0108
G2 X10.5975 Y59.1699 Z-1.5333 I-0.0125 J0.0
G2 Y59.1916 Z-1.5667 I0.0063 J0.0108
G2 X10.6163 Y59.1807 Z-1.6 I0.0062 J-0.0108
G2 X10.5975 Y59.1699 Z-1.6333 I-0.0125 J0.0
G2 Y59.1916 Z-1.6667 I0.0063 J0.0108
G2 X10.6163 Y59.1807 Z-1.7 I0.0062 J-0.0108
G2 X10.5975 Y59.1699 Z-1.7333 I-0.0125 J0.0
G2 Y59.1916 Z-1.7667 I0.0063 J0.0108
G2 X10.6163 Y59.1807 Z-1.8 I0.0062 J-0.0108
G2 X10.5975 Y59.1699 Z-1.8333 I-0.0125 J0.0
G2 Y59.1916 Z-1.8667 I0.0063 J0.0108
G2 X10.6163 Y59.1807 Z-1.9 I0.0062 J-0.0108
G2 X10.5975 Y59.1699 Z-1.9333 I-0.0125 J0.0
G2 Y59.1916 Z-1.9667 I0.0063 J0.0108
G2 X10.6163 Y59.1807 Z-2.0 I0.0062 J-0.0108
G2 X10.5975 Y59.1699 Z-2.0333 I-0.0125 J0.0
G2 Y59.1916 Z-2.0667 I0.0063 J0.0108
G2 X10.6163 Y59.1807 Z-2.1 I0.0062 J-0.0108
G2 X10.5975 Y59.1699 Z-2.1333 I-0.0125 J0.0
G2 Y59.1916 Z-2.1667 I0.0063 J0.0108
G2 X10.6163 Y59.1807 Z-2.2 I0.0062 J-0.0108
G2 X10.5975 Y59.1699 Z-2.2333 I-0.0125 J0.0
G2 Y59.1916 Z-2.2667 I0.0063 J0.0108
G2 X10.6163 Y59.1807 Z-2.3 I0.0062 J-0.0108
G2 X10.5975 Y59.1699 Z-2.3333 I-0.0125 J0.0
G2 Y59.1916 Z-2.3667 I0.0063 J0.0108
G2 X10.6163 Y59.1807 Z-2.4 I0.0062 J-0.0108
G2 X10.5975 Y59.1699 Z-2.4333 I-0.0125 J0.0
G2 Y59.1916 Z-2.4667 I0.0063 J0.0108
G2 X10.6163 Y59.1807 Z-2.5 I0.0062 J-0.0108
G2 X10.5975 Y59.1699 Z-2.5333 I-0.0125 J0.0
G2 Y59.1916 Z-2.5667 I0.0063 J0.0108
G2 X10.6163 Y59.1807 Z-2.6 I0.0062 J-0.0108
G2 X10.5975 Y59.1699 Z-2.6333 I-0.0125 J0.0
G2 Y59.1916 Z-2.6667 I0.0063 J0.0108
G2 X10.6163 Y59.1807 Z-2.7 I0.0062 J-0.0108
G2 X10.5975 Y59.1699 Z-2.7333 I-0.0125 J0.0
G2 Y59.1916 Z-2.7667 I0.0063 J0.0108
G2 X10.6163 Y59.1807 Z-2.8 I0.0062 J-0.0108
G2 X10.5975 Y59.1699 Z-2.8333 I-0.0125 J0.0
G2 Y59.1916 Z-2.8667 I0.0063 J0.0108
G2 X10.6163 Y59.1807 Z-2.9 I0.0062 J-0.0108
G2 X10.5975 Y59.1699 Z-2.9333 I-0.0125 J0.0
G2 Y59.1916 Z-2.9667 I0.0063 J0.0108
G2 X10.6163 Y59.1807 Z-3.0 I0.0062 J-0.0108
G2 X10.5975 Y59.1699 Z-3.0333 I-0.0125 J0.0
G2 Y59.1916 Z-3.0667 I0.0063 J0.0108
G2 X10.6163 Y59.1807 Z-3.1 I0.0062 J-0.0108
G2 X10.5975 Y59.1699 Z-3.1333 I-0.0125 J0.0
G2 Y59.1916 Z-3.1667 I0.0063 J0.0108
G2 X10.6163 Y59.1807 Z-3.2 I0.0062 J-0.0108
G2 X10.5975 Y59.1699 I-0.0125 J0.0
G2 Y59.1916 I0.0063 J0.0108
G2 X10.6163 Y59.1807 I0.0062 J-0.0108
G0 Z3.0
G0 X17.6449 Y77.0276
G1 F1000.0 Z0.0
G2 F2000.0 X17.6261 Y77.0168 Z-0.0333 I-0.0125 J0.0
G2 Y77.0384 Z-0.0667 I0.0062 J0.0108
G2 X17.6449 Y77.0276 Z-0.1 I0.0063 J-0.0108
G2 X17.6261 Y77.0168 Z-0.1333 I-0.0125 J0.0
G2 Y77.0384 Z-0.1667 I0.0062 J0.0108
G2 X17.6449 Y77.0276 Z-0.2 I0.0063 J-0.0108
G2 X17.6261 Y77.0168 Z-0.2333 I-0.0125 J0.0
G2 Y77.0384 Z-0.2667 I0.0062 J0.0108
G2 X17.6449 Y77.0276 Z-0.3 I0.0063 J-0.0108
G2 X17.6261 Y77.0168 Z-0.3333 I-0.0125 J0.0
G2 Y77.0384 Z-0.3667 I0.0062 J0.0108
G2 X17.6449 Y77.0276 Z-0.4 I0.0063 J-0.0108
G2 X17.6261 Y77.0168 Z-0.4333 I-0.0125 J0.0
G2 Y77.0384 Z-0.4667 I0.0062 J0.0108
G2 X17.6449 Y77.0276 Z-0.5 I0.0063 J-0.0108
G2 X17.6261 Y77.0168 Z-0.5333 I-0.0125 J0.0
G2 Y77.0384 Z-0.5667 I0.0062 J0.0108
G2 X17.6449 Y77.0276 Z-0.6 I0.0063 J-0.0108
G2 X17.6261 Y77.0168 Z-0.6333 I-0.0125 J0.0
G2 Y77.0384 Z-0.6667 I0.0062 J0.0108
G2 X17.6449 Y77.0276 Z-0.7 I0.0063 J-0.0108
G2 X17.6261 Y77.0168 Z-0.7333 I-0.0125 J0.0
G2 Y77.0384 Z-0.7667 I0.0062 J0.0108
G2 X17.6449 Y77.0276 Z-0.8 I0.0063 J-0.0108
G2 X17.6261 Y77.0168 Z-0.8333 I-0.0125 J0.0
G2 Y77.0384 Z-0.8667 I0.0062 J0.0108
G2 X17.6449 Y77.0276 Z-0.9 I0.0063 J-0.0108
G2 X17.6261 Y77.0168 Z-0.9333 I-0.0125 J0.0
G2 Y77.0384 Z-0.9667 I0.0062 J0.0108
G2 X17.6449 Y77.0276 Z-1.0 I0.0063 J-0.0108
G2 X17.6261 Y77.0168 Z-1.0333 I-0.0125 J0.0
G2 Y77.0384 Z-1.0667 I0.0062 J0.0108
G2 X17.6449 Y77.0276 Z-1.1 I0.0063 J-0.0108
G2 X17.6261 Y77.0168 Z-1.1333 I-0.0125 J0.0
G2 Y77.0384 Z-1.1667 I0.0062 J0.0108
G2 X17.6449 Y77.0276 Z-1.2 I0.0063 J-0.0108
G2 X17.6261 Y77.0168 Z-1.2333 I-0.0125 J0.0
G2 Y77.0384 Z-1.2667 I0.0062 J0.0108
G2 X17.6449 Y77.0276 Z-1.3 I0.0063 J-0.0108
G2 X17.6261 Y77.0168 Z-1.3333 I-0.0125 J0.0
G2 Y77.0384 Z-1.3667 I0.0062 J0.0108
G2 X17.6449 Y77.0276 Z-1.4 I0.0063 J-0.0108
G2 X17.6261 Y77.0168 Z-1.4333 I-0.0125 J0.0
G2 Y77.0384 Z-1.4667 I0.0062 J0.0108
G2 X17.6449 Y77.0276 Z-1.5 I0.0063 J-0.0108
G2 X17.6261 Y77.0168 Z-1.5333 I-0.0125 J0.0
G2 Y77.0384 Z-1.5667 I0.0062 J0.0108
G2 X17.6449 Y77.0276 Z-1.6 I0.0063 J-0.0108
G2 X17.6261 Y77.0168 Z-1.6333 I-0.0125 J0.0
G2 Y77.0384 Z-1.6667 I0.0062 J0.0108
G2 X17.6449 Y77.0276 Z-1.7 I0.0063 J-0.0108
G2 X17.6261 Y77.0168 Z-1.7333 I-0.0125 J0.0
G2 Y77.0384 Z-1.7667 I0.0062 J0.0108
G2 X17.6449 Y77.0276 Z-1.8 I0.0063 J-0.0108
G2 X17.6261 Y77.0168 Z-1.8333 I-0.0125 J0.0
G2 Y77.0384 Z-1.8667 I0.0062 J0.0108
G2 X17.6449 Y77.0276 Z-1.9 I0.0063 J-0.0108
G2 X17.6261 Y77.0168 Z-1.9333 I-0.0125 J0.0
G2 Y77.0384 Z-1.9667 I0.0062 J0.0108
G2 X17.6449 Y77.0276 Z-2.0 I0.0063 J-0.0108
G2 X17.6261 Y77.0168 Z-2.0333 I-0.0125 J0.0
G2 Y77.0384 Z-2.0667 I0.0062 J0.0108
G2 X17.6449 Y77.0276 Z-2.1 I0.0063 J-0.0108
G2 X17.6261 Y77.0168 Z-2.1333 I-0.0125 J0.0
G2 Y77.0384 Z-2.1667 I0.0062 J0.0108
G2 X17.6449 Y77.0276 Z-2.2 I0.0063 J-0.0108
G2 X17.6261 Y77.0168 Z-2.2333 I-0.0125 J0.0
G2 Y77.0384 Z-2.2667 I0.0062 J0.0108
G2 X17.6449 Y77.0276 Z-2.3 I0.0063 J-0.0108
G2 X17.6261 Y77.0168 Z-2.3333 I-0.0125 J0.0
G2 Y77.0384 Z-2.3667 I0.0062 J0.0108
G2 X17.6449 Y77.0276 Z-2.4 I0.0063 J-0.0108
G2 X17.6261 Y77.0168 Z-2.4333 I-0.0125 J0.0
G2 Y77.0384 Z-2.4667 I0.0062 J0.0108
G2 X17.6449 Y77.0276 Z-2.5 I0.0063 J-0.0108
G2 X17.6261 Y77.0168 Z-2.5333 I-0.0125 J0.0
G2 Y77.0384 Z-2.5667 I0.0062 J0.0108
G2 X17.6449 Y77.0276 Z-2.6 I0.0063 J-0.0108
G2 X17.6261 Y77.0168 Z-2.6333 I-0.0125 J0.0
G2 Y77.0384 Z-2.6667 I0.0062 J0.0108
G2 X17.6449 Y77.0276 Z-2.7 I0.0063 J-0.0108
G2 X17.6261 Y77.0168 Z-2.7333 I-0.0125 J0.0
G2 Y77.0384 Z-2.7667 I0.0062 J0.0108
G2 X17.6449 Y77.0276 Z-2.8 I0.0063 J-0.0108
G2 X17.6261 Y77.0168 Z-2.8333 I-0.0125 J0.0
G2 Y77.0384 Z-2.8667 I0.0062 J0.0108
G2 X17.6449 Y77.0276 Z-2.9 I0.0063 J-0.0108
G2 X17.6261 Y77.0168 Z-2.9333 I-0.0125 J0.0
G2 Y77.0384 Z-2.9667 I0.0062 J0.0108
G2 X17.6449 Y77.0276 Z-3.0 I0.0063 J-0.0108
G2 X17.6261 Y77.0168 Z-3.0333 I-0.0125 J0.0
G2 Y77.0384 Z-3.0667 I0.0062 J0.0108
G2 X17.6449 Y77.0276 Z-3.1 I0.0063 J-0.0108
G2 X17.6261 Y77.0168 Z-3.1333 I-0.0125 J0.0
G2 Y77.0384 Z-3.1667 I0.0062 J0.0108
G2 X17.6449 Y77.0276 Z-3.2 I0.0063 J-0.0108
G2 X17.6261 Y77.0168 I-0.0125 J0.0
G2 Y77.0384 I0.0063 J0.0108
G2 X17.6449 Y77.0276 I0.0062 J-0.0108
G0 Z3.0
G0 Y98.4765
G1 F1000.0 Z0.0
G2 F2000.0 X17.6261 Y98.4657 Z-0.0333 I-0.0125 J0.0
G2 Y98.4873 Z-0.0667 I0.0062 J0.0108
G2 X17.6449 Y98.4765 Z-0.1 I0.0063 J-0.0108
G2 X17.6261 Y98.4657 Z-0.1333 I-0.0125 J0.0
G2 Y98.4873 Z-0.1667 I0.0062 J0.0108
G2 X17.6449 Y98.4765 Z-0.2 I0.0063 J-0.0108
G2 X17.6261 Y98.4657 Z-0.2333 I-0.0125 J0.0
G2 Y98.4873 Z-0.2667 I0.0062 J0.0108
G2 X17.6449 Y98.4765 Z-0.3 I0.0063 J-0.0108
G2 X17.6261 Y98.4657 Z-0.3333 I-0.0125 J0.0
G2 Y98.4873 Z-0.3667 I0.0062 J0.0108
G2 X17.6449 Y98.4765 Z-0.4 I0.0063 J-0.0108
G2 X17.6261 Y98.4657 Z-0.4333 I-0.0125 J0.0
G2 Y98.4873 Z-0.4667 I0.0062 J0.0108
G2 X17.6449 Y98.4765 Z-0.5 I0.0063 J-0.0108
G2 X17.6261 Y98.4657 Z-0.5333 I-0.0125 J0.0
G2 Y98.4873 Z-0.5667 I0.0062 J0.0108
G2 X17.6449 Y98.4765 Z-0.6 I0.0063 J-0.0108
G2 X17.6261 Y98.4657 Z-0.6333 I-0.0125 J0.0
G2 Y98.4873 Z-0.6667 I0.0062 J0.0108
G2 X17.6449 Y98.4765 Z-0.7 I0.0063 J-0.0108
G2 X17.6261 Y98.4657 Z-0.7333 I-0.0125 J0.0
G2 Y98.4873 Z-0.7667 I0.0062 J0.0108
G2 X17.6449 Y98.4765 Z-0.8 I0.0063 J-0.0108
G2 X17.6261 Y98.4657 Z-0.8333 I-0.0125 J0.0
G2 Y98.4873 Z-0.8667 I0.0062 J0.0108
G2 X17.6449 Y98.4765 Z-0.9 I0.0063 J-0.0108
G2 X17.6261 Y98.4657 Z-0.9333 I-0.0125 J0.0
G2 Y98.4873 Z-0.9667 I0.0062 J0.0108
G2 X17.6449 Y98.4765 Z-1.0 I0.0063 J-0.0108
G2 X17.6261 Y98.4657 Z-1.0333 I-0.0125 J0.0
G2 Y98.4873 Z-1.0667 I0.0062 J0.0108
G2 X17.6449 Y98.4765 Z-1.1 I0.0063 J-0.0108
G2 X17.6261 Y98.4657 Z-1.1333 I-0.0125 J0.0
G2 Y98.4873 Z-1.1667 I0.0062 J0.0108
G2 X17.6449 Y98.4765 Z-1.2 I0.0063 J-0.0108
G2 X17.6261 Y98.4657 Z-1.2333 I-0.0125 J0.0
G2 Y98.4873 Z-1.2667 I0.0062 J0.0108
G2 X17.6449 Y98.4765 Z-1.3 I0.0063 J-0.0108
G2 X17.6261 Y98.4657 Z-1.3333 I-0.0125 J0.0
G2 Y98.4873 Z-1.3667 I0.0062 J0.0108
G2 X17.6449 Y98.4765 Z-1.4 I0.0063 J-0.0108
G2 X17.6261 Y98.4657 Z-1.4333 I-0.0125 J0.0
G2 Y98.4873 Z-1.4667 I0.0062 J0.0108
G2 X17.6449 Y98.4765 Z-1.5 I0.0063 J-0.0108
G2 X17.6261 Y98.4657 Z-1.5333 I-0.0125 J0.0
G2 Y98.4873 Z-1.5667 I0.0062 J0.0108
G2 X17.6449 Y98.4765 Z-1.6 I0.0063 J-0.0108
G2 X17.6261 Y98.4657 Z-1.6333 I-0.0125 J0.0
G2 Y98.4873 Z-1.6667 I0.0062 J0.0108
G2 X17.6449 Y98.4765 Z-1.7 I0.0063 J-0.0108
G2 X17.6261 Y98.4657 Z-1.7333 I-0.0125 J0.0
G2 Y98.4873 Z-1.7667 I0.0062 J0.0108
G2 X17.6449 Y98.4765 Z-1.8 I0.0063 J-0.0108
G2 X17.6261 Y98.4657 Z-1.8333 I-0.0125 J0.0
G2 Y98.4873 Z-1.8667 I0.0062 J0.0108
G2 X17.6449 Y98.4765 Z-1.9 I0.0063 J-0.0108
G2 X17.6261 Y98.4657 Z-1.9333 I-0.0125 J0.0
G2 Y98.4873 Z-1.9667 I0.0062 J0.0108
G2 X17.6449 Y98.4765 Z-2.0 I0.0063 J-0.0108
G2 X17.6261 Y98.4657 Z-2.0333 I-0.0125 J0.0
G2 Y98.4873 Z-2.0667 I0.0062 J0.0108
G2 X17.6449 Y98.4765 Z-2.1 I0.0063 J-0.0108
G2 X17.6261 Y98.4657 Z-2.1333 I-0.0125 J0.0
G2 Y98.4873 Z-2.1667 I0.0062 J0.0108
G2 X17.6449 Y98.4765 Z-2.2 I0.0063 J-0.0108
G2 X17.6261 Y98.4657 Z-2.2333 I-0.0125 J0.0
G2 Y98.4873 Z-2.2667 I0.0062 J0.0108
G2 X17.6449 Y98.4765 Z-2.3 I0.0063 J-0.0108
G2 X17.6261 Y98.4657 Z-2.3333 I-0.0125 J0.0
G2 Y98.4873 Z-2.3667 I0.0062 J0.0108
G2 X17.6449 Y98.4765 Z-2.4 I0.0063 J-0.0108
G2 X17.6261 Y98.4657 Z-2.4333 I-0.0125 J0.0
G2 Y98.4873 Z-2.4667 I0.0062 J0.0108
G2 X17.6449 Y98.4765 Z-2.5 I0.0063 J-0.0108
G2 X17.6261 Y98.4657 Z-2.5333 I-0.0125 J0.0
G2 Y98.4873 Z-2.5667 I0.0062 J0.0108
G2 X17.6449 Y98.4765 Z-2.6 I0.0063 J-0.0108
G2 X17.6261 Y98.4657 Z-2.6333 I-0.0125 J0.0
G2 Y98.4873 Z-2.6667 I0.0062 J0.0108
G2 X17.6449 Y98.4765 Z-2.7 I0.0063 J-0.0108
G2 X17.6261 Y98.4657 Z-2.7333 I-0.0125 J0.0
G2 Y98.4873 Z-2.7667 I0.0062 J0.0108
G2 X17.6449 Y98.4765 Z-2.8 I0.0063 J-0.0108
G2 X17.6261 Y98.4657 Z-2.8333 I-0.0125 J0.0
G2 Y98.4873 Z-2.8667 I0.0062 J0.0108
G2 X17.6449 Y98.4765 Z-2.9 I0.0063 J-0.0108
G2 X17.6261 Y98.4657 Z-2.9333 I-0.0125 J0.0
G2 Y98.4873 Z-2.9667 I0.0062 J0.0108
G2 X17.6449 Y98.4765 Z-3.0 I0.0063 J-0.0108
G2 X17.6261 Y98.4657 Z-3.0333 I-0.0125 J0.0
G2 Y98.4873 Z-3.0667 I0.0062 J0.0108
G2 X17.6449 Y98.4765 Z-3.1 I0.0063 J-0.0108
G2 X17.6261 Y98.4657 Z-3.1333 I-0.0125 J0.0
G2 Y98.4873 Z-3.1667 I0.0062 J0.0108
G2 X17.6449 Y98.4765 Z-3.2 I0.0063 J-0.0108
G2 X17.6261 Y98.4657 I-0.0125 J0.0
G2 Y98.4873 I0.0063 J0.0108
G2 X17.6449 Y98.4765 I0.0062 J-0.0108
G0 Z3.0
G0 X23.9785 Y125.7391
G1 F1000.0 Z0.0
G2 F2000.0 X23.9598 Y125.7282 Z-0.0333 I-0.0125 J0.0
G2 Y125.7499 Z-0.0667 I0.0062 J0.0108
G2 X23.9785 Y125.7391 Z-0.1 I0.0063 J-0.0108
G2 X23.9598 Y125.7282 Z-0.1333 I-0.0125 J0.0
G2 Y125.7499 Z-0.1667 I0.0062 J0.0108
G2 X23.9785 Y125.7391 Z-0.2 I0.0063 J-0.0108
G2 X23.9598 Y125.7282 Z-0.2333 I-0.0125 J0.0
G2 Y125.7499 Z-0.2667 I0.0062 J0.0108
G2 X23.9785 Y125.7391 Z-0.3 I0.0063 J-0.0108
G2 X23.9598 Y125.7282 Z-0.3333 I-0.0125 J0.0
G2 Y125.7499 Z-0.3667 I0.0062 J0.0108
G2 X23.9785 Y125.7391 Z-0.4 I0.0063 J-0.0108
G2 X23.9598 Y125.7282 Z-0.4333 I-0.0125 J0.0
G2 Y125.7499 Z-0.4667 I0.0062 J0.0108
G2 X23.9785 Y125.7391 Z-0.5 I0.0063 J-0.0108
G2 X23.9598 Y125.7282 Z-0.5333 I-0.0125 J0.0
G2 Y125.7499 Z-0.5667 I0.0062 J0.0108
G2 X23.9785 Y125.7391 Z-0.6 I0.0063 J-0.0108
G2 X23.9598 Y125.7282 Z-0.6333 I-0.0125 J0.0
G2 Y125.7499 Z-0.6667 I0.0062 J0.0108
G2 X23.9785 Y125.7391 Z-0.7 I0.0063 J-0.0108
G2 X23.9598 Y125.7282 Z-0.7333 I-0.0125 J0.0
G2 Y125.7499 Z-0.7667 I0.0062 J0.0108
G2 X23.9785 Y125.7391 Z-0.8 I0.0063 J-0.0108
G2 X23.9598 Y125.7282 Z-0.8333 I-0.0125 J0.0
G2 Y125.7499 Z-0.8667 I0.0062 J0.0108
G2 X23.9785 Y125.7391 Z-0.9 I0.0063 J-0.0108
G2 X23.9598 Y125.7282 Z-0.9333 I-0.0125 J0.0
G2 Y125.7499 Z-0.9667 I0.0062 J0.0108
G2 X23.9785 Y125.7391 Z-1.0 I0.0063 J-0.0108
G2 X23.9598 Y125.7282 Z-1.0333 I-0.0125 J0.0
G2 Y125.7499 Z-1.0667 I0.0062 J0.0108
G2 X23.9785 Y125.7391 Z-1.1 I0.0063 J-0.0108
G2 X23.9598 Y125.7282 Z-1.1333 I-0.0125 J0.0
G2 Y125.7499 Z-1.1667 I0.0062 J0.0108
G2 X23.9785 Y125.7391 Z-1.2 I0.0063 J-0.0108
G2 X23.9598 Y125.7282 Z-1.2333 I-0.0125 J0.0
G2 Y125.7499 Z-1.2667 I0.0062 J0.0108
G2 X23.9785 Y125.7391 Z-1.3 I0.0063 J-0.0108
G2 X23.9598 Y125.7282 Z-1.3333 I-0.0125 J0.0
G2 Y125.7499 Z-1.3667 I0.0062 J0.0108
G2 X23.9785 Y125.7391 Z-1.4 I0.0063 J-0.0108
G2 X23.9598 Y125.7282 Z-1.4333 I-0.0125 J0.0
G2 Y125.7499 Z-1.4667 I0.0062 J0.0108
G2 X23.9785 Y125.7391 Z-1.5 I0.0063 J-0.0108
G2 X23.9598 Y125.7282 Z-1.5333 I-0.0125 J0.0
G2 Y125.7499 Z-1.5667 I0.0062 J0.0108
G2 X23.9785 Y125.7391 Z-1.6 I0.0063 J-0.0108
G2 X23.9598 Y125.7282 Z-1.6333 I-0.0125 J0.0
G2 Y125.7499 Z-1.6667 I0.0062 J0.0108
G2 X23.9785 Y125.7391 Z-1.7 I0.0063 J-0.0108
G2 X23.9598 Y125.7282 Z-1.7333 I-0.0125 J0.0
G2 Y125.7499 Z-1.7667 I0.0062 J0.0108
G2 X23.9785 Y125.7391 Z-1.8 I0.0063 J-0.0108
G2 X23.9598 Y125.7282 Z-1.8333 I-0.0125 J0.0
G2 Y125.7499 Z-1.8667 I0.0062 J0.0108
G2 X23.9785 Y125.7391 Z-1.9 I0.0063 J-0.0108
G2 X23.9598 Y125.7282 Z-1.9333 I-0.0125 J0.0
G2 Y125.7499 Z-1.9667 I0.0062 J0.0108
G2 X23.9785 Y125.7391 Z-2.0 I0.0063 J-0.0108
G2 X23.9598 Y125.7282 Z-2.0333 I-0.0125 J0.0
G2 Y125.7499 Z-2.0667 I0.0062 J0.0108
G2 X23.9785 Y125.7391 Z-2.1 I0.0063 J-0.0108
G2 X23.9598 Y125.7282 Z-2.1333 I-0.0125 J0.0
G2 Y125.7499 Z-2.1667 I0.0062 J0.0108
G2 X23.9785 Y125.7391 Z-2.2 I0.0063 J-0.0108
G2 X23.9598 Y125.7282 Z-2.2333 I-0.0125 J0.0
G2 Y125.7499 Z-2.2667 I0.0062 J0.0108
G2 X23.9785 Y125.7391 Z-2.3 I0.0063 J-0.0108
G2 X23.9598 Y125.7282 Z-2.3333 I-0.0125 J0.0
G2 Y125.7499 Z-2.3667 I0.0062 J0.0108
G2 X23.9785 Y125.7391 Z-2.4 I0.0063 J-0.0108
G2 X23.9598 Y125.7282 Z-2.4333 I-0.0125 J0.0
G2 Y125.7499 Z-2.4667 I0.0062 J0.0108
G2 X23.9785 Y125.7391 Z-2.5 I0.0063 J-0.0108
G2 X23.9598 Y125.7282 Z-2.5333 I-0.0125 J0.0
G2 Y125.7499 Z-2.5667 I0.0062 J0.0108
G2 X23.9785 Y125.7391 Z-2.6 I0.0063 J-0.0108
G2 X23.9598 Y125.7282 Z-2.6333 I-0.0125 J0.0
G2 Y125.7499 Z-2.6667 I0.0062 J0.0108
G2 X23.9785 Y125.7391 Z-2.7 I0.0063 J-0.0108
G2 X23.9598 Y125.7282 Z-2.7333 I-0.0125 J0.0
G2 Y125.7499 Z-2.7667 I0.0062 J0.0108
G2 X23.9785 Y125.7391 Z-2.8 I0.0063 J-0.0108
G2 X23.9598 Y125.7282 Z-2.8333 I-0.0125 J0.0
G2 Y125.7499 Z-2.8667 I0.0062 J0.0108
G2 X23.9785 Y125.7391 Z-2.9 I0.0063 J-0.0108
G2 X23.9598 Y125.7282 Z-2.9333 I-0.0125 J0.0
G2 Y125.7499 Z-2.9667 I0.0062 J0.0108
G2 X23.9785 Y125.7391 Z-3.0 I0.0063 J-0.0108
G2 X23.9598 Y125.7282 Z-3.0333 I-0.0125 J0.0
G2 Y125.7499 Z-3.0667 I0.0062 J0.0108
G2 X23.9785 Y125.7391 Z-3.1 I0.0063 J-0.0108
G2 X23.9598 Y125.7282 Z-3.1333 I-0.0125 J0.0
G2 Y125.7499 Z-3.1667 I0.0062 J0.0108
G2 X23.9785 Y125.7391 Z-3.2 I0.0063 J-0.0108
G2 X23.9598 Y125.7282 I-0.0125 J0.0
G2 Y125.7499 I0.0063 J0.0108
G2 X23.9785 Y125.7391 I0.0062 J-0.0108
( cutout )
S1000
G0 Z3.0
G0 X0.6 Y-1.1181
G1 F1000.0 Z-0.1
G1 F2000.0 X27.6072
G3 X29.1947 Y0.4694 I0.0 J1.5875
G1 Y128.8906
G3 X27.6072 Y130.4781 I-1.5875 J0.0
G1 X0.6
G3 X-0.9875 Y128.8906 I0.0 J-1.5875
G1 Y0.4694
G3 X0.6 Y-1.1181 I1.5875 J0.0
G1 F1000.0 Z-0.2
G1 F2000.0 X27.6072
G3 X29.1947 Y0.4694 I0.0 J1.5875
G1 Y128.8906
G3 X27.6072 Y130.4781 I-1.5875 J0.0
G1 X0.6
G3 X-0.9875 Y128.8906 I0.0 J-1.5875
G1 Y0.4694
G3 X0.6 Y-1.1181 I1.5875 J0.0
G1 F1000.0 Z-0.3
G1 F2000.0 X27.6072
G3 X29.1947 Y0.4694 I0.0 J1.5875
G1 Y128.8906
G3 X27.6072 Y130.4781 I-1.5875 J0.0
G1 X0.6
G3 X-0.9875 Y128.8906 I0.0 J-1.5875
G1 Y0.4694
G3 X0.6 Y-1.1181 I1.5875 J0.0
G1 F1000.0 Z-0.4
G1 F2000.0 X27.6072
G3 X29.1947 Y0.4694 I0.0 J1.5875
G1 Y128.8906
G3 X27.6072 Y130.4781 I-1.5875 J0.0
G1 X0.6
G3 X-0.9875 Y128.8906 I0.0 J-1.5875
G1 Y0.4694
G3 X0.6 Y-1.1181 I1.5875 J0.0
G1 F1000.0 Z-0.5
G1 F2000.0 X27.6072
G3 X29.1947 Y0.4694 I0.0 J1.5875
G1 Y128.8906
G3 X27.6072 Y130.4781 I-1.5875 J0.0
G1 X0.6
G3 X-0.9875 Y128.8906 I0.0 J-1.5875
G1 Y0.4694
G3 X0.6 Y-1.1181 I1.5875 J0.0
G1 F1000.0 Z-0.6
G1 F2000.0 X27.6072
G3 X29.1947 Y0.4694 I0.0 J1.5875
G1 Y128.8906
G3 X27.6072 Y130.4781 I-1.5875 J0.0
G1 X0.6
G3 X-0.9875 Y128.8906 I0.0 J-1.5875
G1 Y0.4694
G3 X0.6 Y-1.1181 I1.5875 J0.0
G1 F1000.0 Z-0.7
G1 F2000.0 X27.6072
G3 X29.1947 Y0.4694 I0.0 J1.5875
G1 Y128.8906
G3 X27.6072 Y130.4781 I-1.5875 J0.0
G1 X0.6
G3 X-0.9875 Y128.8906 I0.0 J-1.5875
G1 Y0.4694
G3 X0.6 Y-1.1181 I1.5875 J0.0
G1 F1000.0 Z-0.8
G1 F2000.0 X27.6072
G3 X29.1947 Y0.4694 I0.0 J1.5875
G1 Y9.9818
G1 Y12.3193 Z-0.7
G1 Y14.6568 Z-0.8
G1 Y87.696
G1 Y90.0335 Z-0.7
G1 Y92.371 Z-0.8
G1 Y128.8906
G3 X27.6072 Y130.4781 I-1.5875 J0.0
G1 X0.6
G3 X-0.9875 Y128.8906 I0.0 J-1.5875
G1 Y119.3782
G1 Y117.0407 Z-0.7
G1 Y114.7032 Z-0.8
G1 Y41.664
G1 Y39.3265 Z-0.7
G1 Y36.989 Z-0.8
G1 Y0.4694
G3 X0.6 Y-1.1181 I1.5875 J0.0
G1 F1000.0 Z-0.9
G1 F2000.0 X27.6072
G3 X29.1947 Y0.4694 I0.0 J1.5875
G1 Y9.9818
G1 Y12.3193 Z-0.7
G1 Y14.6568 Z-0.9
G1 Y87.696
G1 Y90.0335 Z-0.7
G1 Y92.371 Z-0.9
G1 Y128.8906
G3 X27.6072 Y130.4781 I-1.5875 J0.0
G1 X0.6
G3 X-0.9875 Y128.8906 I0.0 J-1.5875
G1 Y119.3782
G1 Y117.0407 Z-0.7
G1 Y114.7032 Z-0.9
G1 Y41.664
G1 Y39.3265 Z-0.7
G1 Y36.989 Z-0.9
G1 Y0.4694
G3 X0.6 Y-1.1181 I1.5875 J0.0
G1 F1000.0 Z-1.0
G1 F2000.0 X27.6072
G3 X29.1947 Y0.4694 I0.0 J1.5875
G1 Y9.9818
G1 Y12.3193 Z-0.7
G1 Y14.6568 Z-1.0
G1 Y87.696
G1 Y90.0335 Z-0.7
G1 Y92.371 Z-1.0
G1 Y128.8906
G3 X27.6072 Y130.4781 I-1.5875 J0.0
G1 X0.6
G3 X-0.9875 Y128.8906 I0.0 J-1.5875
G1 Y119.3782
G1 Y117.0407 Z-0.7
G1 Y114.7032 Z-1.0
G1 Y41.664
G1 Y39.3265 Z-0.7
G1 Y36.989 Z-1.0
G1 Y0.4694
G3 X0.6 Y-1.1181 I1.5875 J0.0
G1 F1000.0 Z-1.1
G1 F2000.0 X27.6072
G3 X29.1947 Y0.4694 I0.0 J1.5875
G1 Y9.9818
G1 Y12.3193 Z-0.7
G1 Y14.6568 Z-1.1
G1 Y87.696
G1 Y90.0335 Z-0.7
G1 Y92.371 Z-1.1
G1 Y128.8906
G3 X27.6072 Y130.4781 I-1.5875 J0.0
G1 X0.6
G3 X-0.9875 Y128.8906 I0.0 J-1.5875
G1 Y119.3782
G1 Y117.0407 Z-0.7
G1 Y114.7032 Z-1.1
G1 Y41.664
G1 Y39.3265 Z-0.7
G1 Y36.989 Z-1.1
G1 Y0.4694
G3 X0.6 Y-1.1181 I1.5875 J0.0
G1 F1000.0 Z-1.2
G1 F2000.0 X27.6072
G3 X29.1947 Y0.4694 I0.0 J1.5875
G1 Y9.9818
G1 Y12.3193 Z-0.7
G1 Y14.6568 Z-1.2
G1 Y87.696
G1 Y90.0335 Z-0.7
G1 Y92.371 Z-1.2
G1 Y128.8906
G3 X27.6072 Y130.4781 I-1.5875 J0.0
G1 X0.6
G3 X-0.9875 Y128.8906 I0.0 J-1.5875
G1 Y119.3782
G1 Y117.0407 Z-0.7
G1 Y114.7032 Z-1.2
G1 Y41.664
G1 Y39.3265 Z-0.7
G1 Y36.989 Z-1.2
G1 Y0.4694
G3 X0.6 Y-1.1181 I1.5875 J0.0
G1 F1000.0 Z-1.3
G1 F2000.0 X27.6072
G3 X29.1947 Y0.4694 I0.0 J1.5875
G1 Y9.9818
G1 Y12.3193 Z-0.7
G1 Y14.6568 Z-1.3
G1 Y87.696
G1 Y90.0335 Z-0.7
G1 Y92.371 Z-1.3
G1 Y128.8906
G3 X27.6072 Y130.4781 I-1.5875 J0.0
G1 X0.6
G3 X-0.9875 Y128.8906 I0.0 J-1.5875
G1 Y119.3782
G1 Y117.0407 Z-0.7
G1 Y114.7032 Z-1.3
G1 Y41.664
G1 Y39.3265 Z-0.7
G1 Y36.989 Z-1.3
G1 Y0.4694
G3 X0.6 Y-1.1181 I1.5875 J0.0
G1 F1000.0 Z-1.4
G1 F2000.0 X27.6072
G3 X29.1947 Y0.4694 I0.0 J1.5875
G1 Y9.9818
G1 Y12.3193 Z-0.7
G1 Y14.6568 Z-1.4
G1 Y87.696
G1 Y90.0335 Z-0.7
G1 Y92.371 Z-1.4
G1 Y128.8906
G3 X27.6072 Y130.4781 I-1.5875 J0.0
G1 X0.6
G3 X-0.9875 Y128.8906 I0.0 J-1.5875
G1 Y119.3782
G1 Y117.0407 Z-0.7
G1 Y114.7032 Z-1.4
G1 Y41.664
G1 Y39.3265 Z-0.7
G1 Y36.989 Z-1.4
G1 Y0.4694
G3 X0.6 Y-1.1181 I1.5875 J0.0
G1 F1000.0 Z-1.5
G1 F2000.0 X27.6072
G3 X29.1947 Y0.4694 I0.0 J1.5875
G1 Y9.9818
G1 Y12.3193 Z-0.7
G1 Y14.6568 Z-1.5
G1 Y87.696
G1 Y90.0335 Z-0.7
G1 Y92.371 Z-1.5
G1 Y128.8906
G3 X27.6072 Y130.4781 I-1.5875 J0.0
G1 X0.6
G3 X-0.9875 Y128.8906 I0.0 J-1.5875
G1 Y119.3782
G1 Y117.0407 Z-0.7
G1 Y114.7032 Z-1.5
G1 Y41.664
G1 Y39.3265 Z-0.7
G1 Y36.989 Z-1.5
G1 Y0.4694
G3 X0.6 Y-1.1181 I1.5875 J0.0
G1 F1000.0 Z-1.6
G1 F2000.0 X27.6072
G3 X29.1947 Y0.4694 I0.0 J1.5875
G1 Y9.9818
G1 Y12.3193 Z-0.7
G1 Y14.6568 Z-1.6
G1 Y87.696
G1 Y90.0335 Z-0.7
G1 Y92.371 Z-1.6
G1 Y128.8906
G3 X27.6072 Y130.4781 I-1.5875 J0.0
G1 X0.6
G3 X-0.9875 Y128.8906 I0.0 J-1.5875
G1 Y119.3782
G1 Y117.0407 Z-0.7
G1 Y114.7032 Z-1.6
G1 Y41.664
G1 Y39.3265 Z-0.7
G1 Y36.989 Z-1.6
G1 Y0.4694
G3 X0.6 Y-1.1181 I1.5875 J0.0
G1 F1000.0 Z-1.7
G1 F2000.0 X27.6072
G3 X29.1947 Y0.4694 I0.0 J1.5875
G1 Y9.9818
G1 Y12.3193 Z-0.7
G1 Y14.6568 Z-1.7
G1 Y87.696
G1 Y90.0335 Z-0.7
G1 Y92.371 Z-1.7
G1 Y128.8906
G3 X27.6072 Y130.4781 I-1.5875 J0.0
G1 X0.6
G3 X-0.9875 Y128.8906 I0.0 J-1.5875
G1 Y119.3782
G1 Y117.0407 Z-0.7
G1 Y114.7032 Z-1.7
G1 Y41.664
G1 Y39.3265 Z-0.7
G1 Y36.989 Z-1.7
G1 Y0.4694
G3 X0.6 Y-1.1181 I1.5875 J0.0
G1 F1000.0 Z-1.8
G1 F2000.0 X27.6072
G3 X29.1947 Y0.4694 I0.0 J1.5875
G1 Y9.9818
G1 Y12.3193 Z-0.7
G1 Y14.6568 Z-1.8
G1 Y87.696
G1 Y90.0335 Z-0.7
G1 Y92.371 Z-1.8
G1 Y128.8906
G3 X27.6072 Y130.4781 I-1.5875 J0.0
G1 X0.6
G3 X-0.9875 Y128.8906 I0.0 J-1.5875
G1 Y119.3782
G1 Y117.0407 Z-0.7
G1 Y114.7032 Z-1.8
G1 Y41.664
G1 Y39.3265 Z-0.7
G1 Y36.989 Z-1.8
G1 Y0.4694
G3 X0.6 Y-1.1181 I1.5875 J0.0
G1 F1000.0 Z-1.9
G1 F2000.0 X27.6072
G3 X29.1947 Y0.4694 I0.0 J1.5875
G1 Y9.9818
G1 Y12.3193 Z-0.7
G1 Y14.6568 Z-1.9
G1 Y87.696
G1 Y90.0335 Z-0.7
G1 Y92.371 Z-1.9
G1 Y128.8906
G3 X27.6072 Y130.4781 I-1.5875 J0.0
G1 X0.6
G3 X-0.9875 Y128.8906 I0.0 J-1.5875
G1 Y119.3782
G1 Y117.0407 Z-0.7
G1 Y114.7032 Z-1.9
G1 Y41.664
G1 Y39.3265 Z-0.7
G1 Y36.989 Z-1.9
G1 Y0.4694
G3 X0.6 Y-1.1181 I1.5875 J0.0
G1 F1000.0 Z-2.0
G1 F2000.0 X27.6072
G3 X29.1947 Y0.4694 I0.0 J1.5875
G1 Y9.9818
G1 Y12.3193 Z-0.7
G1 Y14.6568 Z-2.0
G1 Y87.696
G1 Y90.0335 Z-0.7
G1 Y92.371 Z-2.0
G1 Y128.8906
G3 X27.6072 Y130.4781 I-1.5875 J0.0
G1 X0.6
G3 X-0.9875 Y128.8906 I0.0 J-1.5875
G1 Y119.3782
G1 Y117.0407 Z-0.7
G1 Y114.7032 Z-2.0
G1 Y41.664
G1 Y39.3265 Z-0.7
G1 Y36.989 Z-2.0
G1 Y0.4694
G3 X0.6 Y-1.1181 I1.5875 J0.0
G1 F1000.0 Z-2.1
G1 F2000.0 X27.6072
G3 X29.1947 Y0.4694 I0.0 J1.5875
G1 Y9.9818
G1 Y12.3193 Z-0.7
G1 Y14.6568 Z-2.1
G1 Y87.696
G1 Y90.0335 Z-0.7
G1 Y92.371 Z-2.1
G1 Y128.8906
G3 X27.6072 Y130.4781 I-1.5875 J0.0
G1 X0.6
G3 X-0.9875 Y128.8906 I0.0 J-1.5875
G1 Y119.3782
G1 Y117.0407 Z-0.7
G1 Y114.7032 Z-2.1
G1 Y41.664
G1 Y39.3265 Z-0.7
G1 Y36.989 Z-2.1
G1 Y0.4694
G3 X0.6 Y-1.1181 I1.5875 J0.0
G1 F1000.0 Z-2.2
G1 F2000.0 X27.6072
G3 X29.1947 Y0.4694 I0.0 J1.5875
G1 Y9.9818
G1 Y12.3193 Z-0.7
G1 Y14.6568 Z-2.2
G1 Y87.696
G1 Y90.0335 Z-0.7
G1 Y92.371 Z-2.2
G1 Y128.8906
G3 X27.6072 Y130.4781 I-1.5875 J0.0
G1 X0.6
G3 X-0.9875 Y128.8906 I0.0 J-1.5875
G1 Y119.3782
G1 Y117.0407 Z-0.7
G1 Y114.7032 Z-2.2
G1 Y41.664
G1 Y39.3265 Z-0.7
G1 Y36.989 Z-2.2
G1 Y0.4694
G3 X0.6 Y-1.1181 I1.5875 J0.0
G1 F1000.0 Z-2.3
G1 F2000.0 X27.6072
G3 X29.1947 Y0.4694 I0.0 J1.5875
G1 Y9.9818
G1 Y12.3193 Z-0.7
G1 Y14.6568 Z-2.3
G1 Y87.696
G1 Y90.0335 Z-0.7
G1 Y92.371 Z-2.3
G1 Y128.8906
G3 X27.6072 Y130.4781 I-1.5875 J0.0
G1 X0.6
G3 X-0.9875 Y128.8906 I0.0 J-1.5875
G1 Y119.3782
G1 Y117.0407 Z-0.7
G1 Y114.7032 Z-2.3
G1 Y41.664
G1 Y39.3265 Z-0.7
G1 Y36.989 Z-2.3
G1 Y0.4694
G3 X0.6 Y-1.1181 I1.5875 J0.0
G1 F1000.0 Z-2.4
G1 F2000.0 X27.6072
G3 X29.1947 Y0.4694 I0.0 J1.5875
G1 Y9.9818
G1 Y12.3193 Z-0.7
G1 Y14.6568 Z-2.4
G1 Y87.696
G1 Y90.0335 Z-0.7
G1 Y92.371 Z-2.4
G1 Y128.8906
G3 X27.6072 Y130.4781 I-1.5875 J0.0
G1 X0.6
G3 X-0.9875 Y128.8906 I0.0 J-1.5875
G1 Y119.3782
G1 Y117.0407 Z-0.7
G1 Y114.7032 Z-2.4
G1 Y41.664
G1 Y39.3265 Z-0.7
G1 Y36.989 Z-2.4
G1 Y0.4694
G3 X0.6 Y-1.1181 I1.5875 J0.0
G1 F1000.0 Z-2.5
G1 F2000.0 X27.6072
G3 X29.1947 Y0.4694 I0.0 J1.5875
G1 Y9.9818
G1 Y12.3193 Z-0.7
G1 Y14.6568 Z-2.5
G1 Y87.696
G1 Y90.0335 Z-0.7
G1 Y92.371 Z-2.5
G1 Y128.8906
G3 X27.6072 Y130.4781 I-1.5875 J0.0
G1 X0.6
G3 X-0.9875 Y128.8906 I0.0 J-1.5875
G1 Y119.3782
G1 Y117.0407 Z-0.7
G1 Y114.7032 Z-2.5
G1 Y41.664
G1 Y39.3265 Z-0.7
G1 Y36.989 Z-2.5
G1 Y0.4694
G3 X0.6 Y-1.1181 I1.5875 J0.0
G1 F1000.0 Z-2.6
G1 F2000.0 X27.6072
G3 X29.1947 Y0.4694 I0.0 J1.5875
G1 Y9.9818
G1 Y12.3193 Z-0.7
G1 Y14.6568 Z-2.6
G1 Y87.696
G1 Y90.0335 Z-0.7
G1 Y92.371 Z-2.6
G1 Y128.8906
G3 X27.6072 Y130.4781 I-1.5875 J0.0
G1 X0.6
G3 X-0.9875 Y128.8906 I0.0 J-1.5875
G1 Y119.3782
G1 Y117.0407 Z-0.7
G1 Y114.7032 Z-2.6
G1 Y41.664
G1 Y39.3265 Z-0.7
G1 Y36.989 Z-2.6
G1 Y0.4694
G3 X0.6 Y-1.1181 I1.5875 J0.0
G1 F1000.0 Z-2.7
G1 F2000.0 X27.6072
G3 X29.1947 Y0.4694 I0.0 J1.5875
G1 Y9.9818
G1 Y12.3193 Z-0.7
G1 Y14.6568 Z-2.7
G1 Y87.696
G1 Y90.0335 Z-0.7
G1 Y92.371 Z-2.7
G1 Y128.8906
G3 X27.6072 Y130.4781 I-1.5875 J0.0
G1 X0.6
G3 X-0.9875 Y128.8906 I0.0 J-1.5875
G1 Y119.3782
G1 Y117.0407 Z-0.7
G1 Y114.7032 Z-2.7
G1 Y41.664
G1 Y39.3265 Z-0.7
G1 Y36.989 Z-2.7
G1 Y0.4694
G3 X0.6 Y-1.1181 I1.5875 J0.0
G1 F1000.0 Z-2.8
G1 F2000.0 X27.6072
G3 X29.1947 Y0.4694 I0.0 J1.5875
G1 Y9.9818
G1 Y12.3193 Z-0.7
G1 Y14.6568 Z-2.8
G1 Y87.696
G1 Y90.0335 Z-0.7
G1 Y92.371 Z-2.8
G1 Y128.8906
G3 X27.6072 Y130.4781 I-1.5875 J0.0
G1 X0.6
G3 X-0.9875 Y128.8906 I0.0 J-1.5875
G1 Y119.3782
G1 Y117.0407 Z-0.7
G1 Y114.7032 Z-2.8
G1 Y41.664
G1 Y39.3265 Z-0.7
G1 Y36.989 Z-2.8
G1 Y0.4694
G3 X0.6 Y-1.1181 I1.5875 J0.0
G1 F1000.0 Z-2.9
G1 F2000.0 X27.6072
G3 X29.1947 Y0.4694 I0.0 J1.5875
G1 Y9.9818
G1 Y12.3193 Z-0.7
G1 Y14.6568 Z-2.9
G1 Y87.696
G1 Y90.0335 Z-0.7
G1 Y92.371 Z-2.9
G1 Y128.8906
G3 X27.6072 Y130.4781 I-1.5875 J0.0
G1 X0.6
G3 X-0.9875 Y128.8906 I0.0 J-1.5875
G1 Y119.3782
G1 Y117.0407 Z-0.7
G1 Y114.7032 Z-2.9
G1 Y41.664
G1 Y39.3265 Z-0.7
G1 Y36.989 Z-2.9
G1 Y0.4694
G3 X0.6 Y-1.1181 I1.5875 J0.0
G1 F1000.0 Z-3.0
G1 F2000.0 X27.6072
G3 X29.1947 Y0.4694 I0.0 J1.5875
G1 Y9.9818
G1 Y12.3193 Z-0.7
G1 Y14.6568 Z-3.0
G1 Y87.696
G1 Y90.0335 Z-0.7
G1 Y92.371 Z-3.0
G1 Y128.8906
G3 X27.6072 Y130.4781 I-1.5875 J0.0
G1 X0.6
G3 X-0.9875 Y128.8906 I0.0 J-1.5875
G1 Y119.3782
G1 Y117.0407 Z-0.7
G1 Y114.7032 Z-3.0
G1 Y41.664
G1 Y39.3265 Z-0.7
G1 Y36.989 Z-3.0
G1 Y0.4694
G3 X0.6 Y-1.1181 I1.5875 J0.0
G1 F1000.0 Z-3.1
G1 F2000.0 X27.6072
G3 X29.1947 Y0.4694 I0.0 J1.5875
G1 Y9.9818
G1 Y12.3193 Z-0.7
G1 Y14.6568 Z-3.1
G1 Y87.696
G1 Y90.0335 Z-0.7
G1 Y92.371 Z-3.1
G1 Y128.8906
G3 X27.6072 Y130.4781 I-1.5875 J0.0
G1 X0.6
G3 X-0.9875 Y128.8906 I0.0 J-1.5875
G1 Y119.3782
G1 Y117.0407 Z-0.7
G1 Y114.7032 Z-3.1
G1 Y41.664
G1 Y39.3265 Z-0.7
G1 Y36.989 Z-3.1
G1 Y0.4694
G3 X0.6 Y-1.1181 I1.5875 J0.0
G1 F1000.0 Z-3.2
G1 F2000.0 X27.6072
G3 X29.1947 Y0.4694 I0.0 J1.5875
G1 Y9.9818
G1 Y12.3193 Z-0.7
G1 Y14.6568 Z-3.2
G1 Y87.696
G1 Y90.0335 Z-0.7
G1 Y92.371 Z-3.2
G1 Y128.8906
G3 X27.6072 Y130.4781 I-1.5875 J0.0
G1 X0.6
G3 X-0.9875 Y128.8906 I0.0 J-1.5875
G1 Y119.3782
G1 Y117.0407 Z-0.7
G1 Y114.7032 Z-3.2
G1 Y41.664
G1 Y39.3265 Z-0.7
G1 Y36.989 Z-3.2
G1 Y0.4694
G3 X0.6 Y-1.1181 I1.5875 J0.0
G0 Z3.0
M5
M30
