(/Applications/pcbgcode.repo/pcb-gcode.ulp)
(Copyright 2005 - 2012 by John Johnson)
(See readme.txt for licensing terms.)
(This file generated from the board:)
(.../eurorack/808_hihat/eagle/808_hihat.brd)
(Current profile is .../pcbgcode.repo/profiles/mach.pp  )
(This file generated 1/24/15 10:14 AM)
(Settings from pcb-machine.h)
(spindle on time = 0.0000)
(spindle speed = 20000.0000)
(tool change at 0.0000  0.0000  3.0000  )
(feed rate xy = F0     )
(feed rate z  = F20    )
(Z Axis Settings)
(  High     Up        Down     Drill)
(1.0000  	0.0500  	-0.0040 	-0.0730 )
(Settings from pcb-defaults.h)
(isolate min = 0.0010)
(isolate max = 0.0100)
(isolate step = 0.0010)
(Generated bottom outlines, bottom drill, )
(Unit of measure: inch)
( Tool|       Size       |  Min Sub |  Max Sub |   Count )
( T01 | 0.600mm 0.0236in | 0.0000in | 0.0000in |       0 )
( T02 | 0.800mm 0.0315in | 0.0000in | 0.0000in |       0 )
( T03 | 0.813mm 0.0320in | 0.0000in | 0.0000in |       0 )
( T04 | 1.016mm 0.0400in | 0.0000in | 0.0000in |       0 )
( T05 | 1.118mm 0.0440in | 0.0000in | 0.0000in |       0 )
( T06 | 1.200mm 0.0472in | 0.0000in | 0.0000in |       0 )
(Inch Mode)
G20
(Absolute Coordinates)
G90
S20000
G00 Z1.0000  
G00 X0.0000  Y0.0000  
M03
G04 P0.000000
M05
G00 Z3.0000  
M06 T01  ; 0.0236  
G01 Z0.0000  F20    
M06 
G00 Z0.0500  
M03
G04 P0.000000
G82 X-2.3600 Y1.0800  Z-0.0730 F20    R0.0500  P0.010000
M05
G00 Z3.0000  
G00 X0.0000  Y0.0000  
M06 T02  ; 0.0315  
G01 Z0.0000  F20    
M06 
G00 Z0.0500  
M03
G04 P0.000000
G82 X-0.1413 Y0.9000  Z-0.0730 F20    R0.0500  P0.010000
G82 X-0.2987 Y0.9000  
G82 X-0.3487 Y0.6300  
G82 X-0.1913 Y0.6300  
G82 X-0.7311 Y0.5000  
G82 X-0.8689 Y0.5000  
G82 X-1.4100 Y0.8811  
G82 X-1.4100 Y1.0189  
G82 X-1.4587 Y1.2500  
G82 X-1.3013 Y1.2500  
G82 X-0.9100 Y1.4400  
G82 X-0.9100 Y1.5600  
G82 X-0.8400 Y2.0311  
G82 X-0.8400 Y2.1689  
G82 X-0.4000 Y2.1189  
G82 X-0.4000 Y1.9811  
G82 X-0.4287 Y1.2500  
G82 X-0.2713 Y1.2500  
G82 X-1.5500 Y0.8189  
G82 X-1.5500 Y0.6811  
G82 X-1.8300 Y0.5700  
G82 X-1.9000 Y0.6811  
G82 X-1.9000 Y0.8189  
G82 X-2.0500 Y0.8189  
G82 X-2.1000 Y0.8900  
G82 X-2.0500 Y0.6811  
G82 X-2.3100 Y0.5300  
G82 X-2.5000 Y0.5811  
G82 X-2.6000 Y0.5089  
G82 X-2.6000 Y0.3711  
G82 X-2.5000 Y0.7189  
G82 X-2.4500 Y0.8000  
G82 X-2.4787 Y1.0000  
G82 X-2.3213 Y1.0000  
G82 X-2.2400 Y1.3200  
G82 X-2.5300 Y1.4700  
G82 X-2.6300 Y1.4813  
G82 X-2.6300 Y1.6387  
G82 X-3.0500 Y1.6100  
G82 X-3.0811 Y2.0000  
G82 X-3.2189 Y2.0000  
G82 X-3.2189 Y2.2000  
G82 X-3.0811 Y2.2000  
G82 X-3.1700 Y2.3300  
G82 X-3.1311 Y2.4000  
G82 X-3.2689 Y2.4000  
G82 X-3.4811 Y2.1000  
G82 X-3.6189 Y2.1000  
G82 X-2.8689 Y2.2500  
G82 X-2.7311 Y2.2500  
G82 X-2.4700 Y2.7300  
G82 X-2.8500 Y1.1189  
G82 X-2.8500 Y0.9811  
G82 X-2.8689 Y0.8500  
G82 X-2.7311 Y0.8500  
G82 X-3.0000 Y0.6989  
G82 X-3.0000 Y0.5611  
M05
G00 Z3.0000  
G00 X0.0000  Y0.0000  
M06 T03  ; 0.0320  
G01 Z0.0000  F20    
M06 
G00 Z0.0500  
M03
G04 P0.000000
G82 X-0.1200 Y1.0200  Z-0.0730 F20    R0.0500  P0.010000
G82 X-0.2400 Y1.0200  
G82 X-0.2200 Y1.1200  
G82 X-0.1200 Y1.2200  
G82 X-0.3000 Y1.4400  
G82 X-0.2500 Y1.6000  
G82 X-0.4000 Y1.7000  
G82 X-0.5500 Y1.6500  
G82 X-0.5500 Y1.7500  
G82 X-0.5500 Y1.8500  
G82 X-0.5500 Y1.9500  
G82 X-0.4000 Y1.9000  
G82 X-0.2500 Y1.8000  
G82 X-0.1800 Y1.9400  
G82 X-0.1800 Y2.1400  
G82 X-0.3500 Y2.2500  
G82 X-0.3000 Y2.4000  
G82 X-0.4000 Y2.4500  
G82 X-0.4000 Y2.6500  
G82 X-0.3000 Y2.7000  
G82 X-0.6000 Y2.6000  
G82 X-0.6000 Y2.5000  
G82 X-0.6000 Y2.4000  
G82 X-0.5500 Y2.2500  
G82 X-0.5500 Y2.1500  
G82 X-0.7000 Y2.0500  
G82 X-0.7500 Y1.9500  
G82 X-0.9000 Y1.8500  
G82 X-1.0000 Y1.9500  
G82 X-1.0000 Y2.0500  
G82 X-1.0000 Y2.1500  
G82 X-0.9000 Y2.2500  
G82 X-0.8000 Y2.3000  
G82 X-0.7000 Y2.2500  
G82 X-0.9500 Y2.4000  
G82 X-0.9500 Y2.6000  
G82 X-0.8000 Y2.6000  
G82 X-1.1600 Y2.5800  
G82 X-1.1600 Y2.4800  
G82 X-1.1600 Y2.3800  
G82 X-1.1000 Y2.2500  
G82 X-1.1900 Y2.1500  
G82 X-1.3000 Y2.0000  
G82 X-1.1900 Y1.9500  
G82 X-1.1000 Y1.8500  
G82 X-1.3000 Y1.8500  
G82 X-1.3000 Y1.7500  
G82 X-1.3000 Y1.6500  
G82 X-1.2500 Y1.5000  
G82 X-1.2000 Y1.3500  
G82 X-1.0500 Y1.3500  
G82 X-1.0500 Y1.5000  
G82 X-1.1000 Y1.6500  
G82 X-0.9000 Y1.6500  
G82 X-0.7500 Y1.7500  
G82 X-0.7500 Y1.5000  
G82 X-0.5500 Y1.5000  
G82 X-0.5000 Y1.4400  
G82 X-0.6000 Y1.3500  
G82 X-0.6000 Y1.2500  
G82 X-0.6000 Y1.1500  
G82 X-0.6000 Y1.0500  
G82 X-0.6000 Y0.9500  
G82 X-0.6000 Y0.8500  
G82 X-0.6000 Y0.7500  
G82 X-0.3800 Y0.7500  
G82 X-0.1800 Y0.7500  
G82 X-0.4400 Y1.0200  
G82 X-0.4200 Y1.1200  
G82 X-0.9000 Y1.1500  
G82 X-0.9000 Y1.0500  
G82 X-0.9000 Y0.9500  
G82 X-0.9000 Y0.8500  
G82 X-0.9000 Y0.7500  
G82 X-1.0500 Y0.6500  
G82 X-1.0000 Y0.5000  
G82 X-1.2000 Y0.5000  
G82 X-1.2500 Y0.6500  
G82 X-1.4000 Y0.7000  
G82 X-1.4000 Y0.5000  
G82 X-1.7500 Y0.7000  
G82 X-1.7500 Y0.8000  
G82 X-1.8200 Y1.0100  
G82 X-1.8500 Y1.1500  
G82 X-1.9500 Y1.1500  
G82 X-2.0500 Y1.1500  
G82 X-2.1900 Y1.1300  
G82 X-2.1900 Y1.2300  
G82 X-2.3200 Y1.3200  
G82 X-2.2500 Y1.4200  
G82 X-2.4500 Y1.4200  
G82 X-2.5200 Y1.3200  
G82 X-2.6900 Y1.2900  
G82 X-2.6900 Y1.3900  
G82 X-2.8500 Y1.3500  
G82 X-3.0500 Y1.3500  
G82 X-3.0500 Y1.2500  
G82 X-3.2000 Y1.1000  
G82 X-3.3000 Y1.1000  
G82 X-3.4000 Y1.1000  
G82 X-3.5000 Y1.1000  
G82 X-3.5000 Y0.9500  
G82 X-3.4000 Y0.9500  
G82 X-3.2500 Y0.9500  
G82 X-3.2500 Y0.8000  
G82 X-3.4000 Y0.7500  
G82 X-3.4500 Y0.6000  
G82 X-3.6000 Y0.6000  
G82 X-3.6000 Y0.7500  
G82 X-3.7000 Y0.8500  
G82 X-3.7000 Y0.9500  
G82 X-3.7000 Y1.0500  
G82 X-3.8000 Y1.0000  
G82 X-3.8000 Y0.9000  
G82 X-3.6900 Y1.4200  
G82 X-3.6900 Y1.5000  
G82 X-3.5000 Y1.4000  
G82 X-3.4000 Y1.4000  
G82 X-3.3000 Y1.4000  
G82 X-3.2000 Y1.4000  
G82 X-3.2000 Y1.5500  
G82 X-3.4000 Y1.5500  
G82 X-3.3500 Y1.7500  
G82 X-3.2500 Y1.7500  
G82 X-3.1500 Y1.7500  
G82 X-2.9500 Y1.6500  
G82 X-2.8500 Y1.5500  
G82 X-2.8000 Y1.8500  
G82 X-2.9500 Y1.8500  
G82 X-2.9500 Y2.0500  
G82 X-2.8500 Y2.0500  
G82 X-2.7500 Y2.0500  
G82 X-2.6600 Y2.0200  
G82 X-2.6000 Y1.8500  
G82 X-2.4200 Y1.8600  
G82 X-2.3800 Y2.0100  
G82 X-2.3800 Y2.2000  
G82 X-2.2000 Y2.1200  
G82 X-2.1800 Y2.0100  
G82 X-2.0800 Y1.9300  
G82 X-1.9800 Y1.9300  
G82 X-1.8500 Y1.9200  
G82 X-1.8500 Y2.0200  
G82 X-1.8500 Y2.1200  
G82 X-1.8900 Y2.2500  
G82 X-1.8900 Y2.3500  
G82 X-1.8900 Y2.4500  
G82 X-1.7500 Y2.4500  
G82 X-1.7000 Y2.3000  
G82 X-1.6500 Y2.1500  
G82 X-1.6500 Y2.0500  
G82 X-1.6500 Y1.9500  
G82 X-1.5000 Y2.0000  
G82 X-1.5000 Y1.7500  
G82 X-1.5000 Y1.6500  
G82 X-1.6000 Y1.4000  
G82 X-1.6000 Y1.3000  
G82 X-1.7500 Y1.4500  
G82 X-1.8500 Y1.4500  
G82 X-1.9500 Y1.4500  
G82 X-2.0500 Y1.4500  
G82 X-1.9800 Y1.6200  
G82 X-2.0700 Y1.7700  
G82 X-2.2200 Y1.8600  
G82 X-2.2600 Y1.7100  
G82 X-2.3600 Y1.7100  
G82 X-2.4600 Y1.7100  
G82 X-2.6600 Y2.2200  
G82 X-2.6000 Y2.3500  
G82 X-2.8000 Y2.3500  
G82 X-2.7500 Y2.5000  
G82 X-2.7500 Y2.6000  
G82 X-2.7600 Y2.7300  
G82 X-2.5600 Y2.7300  
G82 X-2.5200 Y2.5400  
G82 X-2.4200 Y2.5400  
G82 X-2.3200 Y2.5400  
G82 X-2.3800 Y2.4000  
G82 X-2.2000 Y2.3200  
G82 X-2.1100 Y2.4200  
G82 X-2.1100 Y2.6200  
G82 X-2.2000 Y2.7500  
G82 X-2.0000 Y2.7500  
G82 X-1.9500 Y2.6000  
G82 X-1.8500 Y2.6000  
G82 X-1.5500 Y2.4500  
G82 X-1.4000 Y2.5000  
G82 X-1.4000 Y2.7000  
G82 X-1.5000 Y2.3000  
G82 X-1.8700 Y1.7700  
G82 X-1.7800 Y1.6200  
G82 X-1.7500 Y1.1500  
G82 X-1.6200 Y1.0100  
G82 X-1.2500 Y0.9700  
G82 X-1.2000 Y1.1500  
G82 X-1.0500 Y1.1500  
G82 X-1.0500 Y0.9700  
G82 X-0.9000 Y1.2500  
G82 X-0.9000 Y1.3500  
G82 X-2.1500 Y0.7500  
G82 X-2.2500 Y0.7500  
G82 X-2.6000 Y0.8000  
G82 X-2.7500 Y0.7500  
G82 X-2.7500 Y0.5500  
G82 X-2.7500 Y0.4000  
G82 X-2.9500 Y0.4000  
G82 X-3.0500 Y0.8000  
G82 X-3.0500 Y0.9500  
G82 X-2.6900 Y1.1900  
G82 X-2.6000 Y1.1000  
G82 X-3.4500 Y0.4000  
G82 X-3.6000 Y0.4000  
G82 X-3.6000 Y1.7500  
G82 X-3.6000 Y1.9500  
G82 X-3.3500 Y2.1000  
G82 X-3.3500 Y2.2000  
G82 X-3.6000 Y2.2500  
G82 X-3.6000 Y2.4500  
G82 X-3.6500 Y2.6000  
G82 X-3.5500 Y2.6000  
G82 X-3.3900 Y2.5500  
G82 X-3.3100 Y2.5500  
G82 X-3.2500 Y2.7500  
G82 X-3.4500 Y2.7500  
G82 X-3.0000 Y2.5000  
G82 X-3.0000 Y2.2000  
M05
G00 Z3.0000  
G00 X0.0000  Y0.0000  
M06 T04  ; 0.0400  
G01 Z0.0000  F20    
M06 
G00 Z0.0500  
M03
G04 P0.000000
G82 X-1.6000 Y0.3000  Z-0.0730 F20    R0.0500  P0.010000
G82 X-1.7000 Y0.3000  
G82 X-1.7000 Y0.4000  
G82 X-1.6000 Y0.4000  
G82 X-1.8000 Y0.4000  
G82 X-1.9000 Y0.4000  
G82 X-1.9000 Y0.3000  
G82 X-1.8000 Y0.3000  
G82 X-2.0000 Y0.3000  
G82 X-2.0000 Y0.4000  
G82 X-2.1000 Y0.4000  
G82 X-2.1000 Y0.3000  
G82 X-2.2000 Y0.3000  
G82 X-2.3000 Y0.3000  
G82 X-2.3000 Y0.4000  
G82 X-2.2000 Y0.4000  
M05
G00 Z3.0000  
G00 X0.0000  Y0.0000  
M06 T05  ; 0.0440  
G01 Z0.0000  F20    
M06 
G00 Z0.0500  
M03
G04 P0.000000
G82 X-0.3000 Y2.8000  Z-0.0730 F20    R0.0500  P0.010000
G82 X-0.5000 Y2.7500  
G82 X-0.8500 Y2.7000  
G82 X-1.0500 Y2.7000  
G82 X-3.5400 Y2.7500  
G82 X-3.3500 Y0.4000  
M05
G00 Z3.0000  
G00 X0.0000  Y0.0000  
M06 T06  ; 0.0472  
G01 Z0.0000  F20    
M06 
G00 Z0.0500  
M03
G04 P0.000000
G82 X-0.5531 Y3.0500  Z-0.0730 F20    R0.0500  P0.010000
G82 X-0.7500 Y3.0500  
G82 X-0.9469 Y3.0500  
G82 X-1.7531 Y3.0500  
G82 X-1.9500 Y3.0500  
G82 X-2.1469 Y3.0500  
G82 X-2.9531 Y3.0500  
G82 X-3.1500 Y3.0500  
G82 X-3.3469 Y3.0500  
T01 
G00 Z1.0000  
M05
M02
