(/Applications/pcbgcode.repo/pcb-gcode.ulp)
(Copyright 2005 - 2012 by John Johnson)
(See readme.txt for licensing terms.)
(This file generated from the board:)
(.../eurorack/808_hihat/eagle/808_hihat.brd)
(Current profile is .../pcbgcode.repo/profiles/mach.pp  )
(This file generated 5/20/16 6:44 AM)
(Settings from pcb-machine.h)
(spindle on time = 0.0000)
(spindle speed = 15000.0000)
(milling depth = -0.0700)
(tool change at 0.0000  0.0000  1.5000  )
(feed rate xy = F10    )
(feed rate z  = F5     )
(Z Axis Settings)
(  High     Up        Down     Drill)
(0.2500  	0.0500  	-0.0035 	-0.0750 )
(Settings from pcb-defaults.h)
(isolate min = 0.0050)
(isolate max = 0.0200)
(isolate step = 0.0010)
(Generated bottom outlines, bottom drill, )
(Unit of measure: inch)
(Inch Mode)
G20
(Absolute Coordinates)
G90
S15000
G00 Z0.2500  
G00 X0.0000  Y0.0000  
M03
G04 P0.000000
G00 Z0.0500  
G00 X0.0300  Y0.0100  
G01 Z-0.0700 F5     
G01 X-0.0200 Y-0.0400 F10    
G01 X-3.9200 Y-0.0400 
G01 X-3.9700 Y0.0100  
G01 X-3.9700 Y3.0800  
G01 X-3.9600 Y3.0900  
G01 X-3.9600 Y3.1000  
G01 X-3.9000 Y3.1700  
G01 X-0.0400 Y3.1700  
G00 Z0.0500  
G00 X-0.0300 Y3.1700  
G01 Z-0.0700 F5     
G01 X0.0300  Y3.1100  F10    
G01 X0.0300  Y0.0100  
G00 Z0.0500  
G00 X-0.0900 Y0.1000  
G01 Z-0.0700 F5     
G01 X-0.1300 Y0.1000  F10    
G01 X-0.1300 Y0.1300  
G01 X-0.1200 Y0.1400  
G01 X-0.0900 Y0.1400  
G00 Z0.0500  
G00 X-0.0900 Y0.1300  
G01 Z-0.0700 F5     
G01 X-0.0900 Y0.1000  F10    
G00 Z0.0500  
G00 X-0.0900 Y3.0100  
G01 Z-0.0700 F5     
G01 X-0.1300 Y3.0100  F10    
G01 X-0.1300 Y3.0400  
G01 X-0.1200 Y3.0500  
G01 X-0.0900 Y3.0500  
G00 Z0.0500  
G00 X-0.0900 Y3.0400  
G01 Z-0.0700 F5     
G01 X-0.0900 Y3.0100  F10    
G00 Z0.0500  
G00 X-3.8100 Y3.0100  
G01 Z-0.0700 F5     
G01 X-3.8500 Y3.0100  F10    
G01 X-3.8500 Y3.0400  
G01 X-3.8400 Y3.0500  
G01 X-3.8100 Y3.0500  
G00 Z0.0500  
G00 X-3.8100 Y3.0400  
G01 Z-0.0700 F5     
G01 X-3.8100 Y3.0100  F10    
G00 Z0.0500  
G00 X-3.6700 Y0.3700  
G01 Z-0.0700 F5     
G01 X-3.6400 Y0.3700  F10    
G00 Z0.0500  
G00 X-3.6400 Y0.3600  
G01 Z-0.0700 F5     
G01 X-3.6400 Y0.3300  F10    
G01 X-3.6800 Y0.3300  
G01 X-3.6800 Y0.3600  
G01 X-3.6700 Y0.3700  
G00 Z0.2500  
M05
M02
